; HEADER_BLOCK_START
; generated by Creality_Print V5.1.6.10470 on 2024-12-11 at 15:52:32
; total layer number: 19
; filament_density: 1.24
; filament_diameter: 1.75
; max_z_height: 3.80
; HEADER_BLOCK_END

; MINX = 101.00
; MINY = 96.04
; MINZ = 0.00
; MAXX = 119.00
; MAXY = 123.96
; MAXZ = 3.80

; THUMBNAIL_BLOCK_START

;
; THUMBNAIL_BLOCK_END

; THUMBNAIL_BLOCK_START

;
; THUMBNAIL_BLOCK_END

; external perimeters extrusion width = 0.42mm
; perimeters extrusion width = 0.45mm
; infill extrusion width = 0.45mm
; solid infill extrusion width = 0.42mm
; top infill extrusion width = 0.42mm
; first layer extrusion width = 0.50mm

; EXECUTABLE_BLOCK_START
EXCLUDE_OBJECT_DEFINE NAME=Tail_Horizontal_Mount.stl_id_0_copy_0 CENTER=109.999,110 POLYGON=[[100.999,110],[101.039,108.906],[101.159,107.818],[101.358,106.742],[101.634,105.683],[101.987,104.647],[102.415,103.639],[102.915,102.665],[103.485,101.731],[104.121,100.84],[104.821,99.9981],[105.58,99.2096],[106.395,98.4785],[107.26,97.8087],[108.173,97.2039],[109.127,96.6672],[110.117,96.2015],[110.306,96.1319],[110.472,96.0879],[110.501,96.0817],[110.58,96.0673],[110.654,96.0567],[110.713,96.0502],[110.751,96.0469],[110.765,96.046],[110.842,96.0421],[111.215,96.0659],[111.576,96.1584],[111.914,96.3163],[112.216,96.5342],[112.473,96.8045],[112.675,97.1178],[118.66,108.615],[118.847,109.056],[118.961,109.522],[118.999,110],[118.961,110.478],[118.847,110.944],[118.66,111.385],[112.675,122.882],[112.473,123.195],[112.216,123.466],[111.914,123.684],[111.576,123.842],[111.215,123.934],[110.842,123.958],[110.765,123.954],[110.751,123.953],[110.713,123.95],[110.654,123.943],[110.58,123.933],[110.501,123.918],[110.472,123.912],[110.306,123.868],[110.117,123.799],[109.127,123.333],[108.173,122.796],[107.26,122.191],[106.395,121.522],[105.58,120.79],[104.821,120.002],[104.121,119.16],[103.485,118.269],[102.915,117.335],[102.415,116.361],[101.987,115.353],[101.634,114.317],[101.358,113.258],[101.159,112.182],[101.039,111.094],[100.999,110]]
M73 P0 R3
M106 S0
M106 P2 S0
;TYPE:Custom
M140 S0
M104 S0 
START_PRINT EXTRUDER_TEMP=230 BED_TEMP=50
M141 S35;set chamber_temperature
G90
G21
M83 ; use relative distances for extrusion
; filament start gcode
M106 S0
;LAYER_CHANGE
;Z:0.2
;HEIGHT:0.2
;BEFORE_LAYER_CHANGE
;0.2
G92 E0

G1 E-.5 F2400
;AFTER_LAYER_CHANGE
;0.2
;_SET_FAN_SPEED_CHANGING_LAYER
SET_VELOCITY_LIMIT ACCEL=1000 ACCEL_TO_DECEL=1000
SET_VELOCITY_LIMIT SQUARE_CORNER_VELOCITY=20
; printing object Tail Horizontal Mount.stl id:0 copy 0
EXCLUDE_OBJECT_START NAME=Tail_Horizontal_Mount.stl_id_0_copy_0
G1 X111.358 Y97.012 F30000
M73 P0 R2
G1 Z.4
G1 Z.2
G1 E.5 F2400
;TYPE:Inner wall
;WIDTH:0.499999
G1 F3600
G1 X111.65 Y97.183 E.01222
G1 X111.934 Y97.549 E.01672
G1 X112.373 Y98.393 E.03435
G1 X112.477 Y98.545 E.00665
;WIDTH:0.456734
G1 X112.58 Y98.697 E.00602
;WIDTH:0.413469
G1 X112.684 Y98.85 E.00539
;WIDTH:0.38021
G1 X112.927 Y99.328 E.0143
;WIDTH:0.42014
G1 X112.993 Y99.498 E.00543
;WIDTH:0.46007
G1 X113.059 Y99.668 E.006
;WIDTH:0.499999
G1 X113.125 Y99.837 E.00657
G1 X117.289 Y107.837 E.32564
G1 X117.578 Y108.343 E.02103
;WIDTH:0.454474
G1 X117.763 Y108.65 E.01165
;WIDTH:0.409408
G1 X117.948 Y108.957 E.01038
;WIDTH:0.364342
G1 X118.133 Y109.449 E.01335
;WIDTH:0.362116
G1 X118.208 Y110.013 E.01433
G1 X118.152 Y110.469 E.01158
;WIDTH:0.363698
G1 X117.966 Y111.002 E.01431
;WIDTH:0.399274
G1 X117.703 Y111.478 E.0153
;WIDTH:0.432849
G1 X117.603 Y111.632 E.00566
;WIDTH:0.466424
G1 X117.504 Y111.787 E.00615
;WIDTH:0.499999
G1 X117.405 Y111.941 E.00663
G1 X111.934 Y122.451 E.4278
G1 X111.65 Y122.817 E.01672
G1 X111.286 Y123.031 E.01527
G1 X110.868 Y123.097 E.01528
G1 X110.431 Y122.999 E.01615
G3 X101.878 Y110.691 I5.558 J-12.989 E.57042
;WIDTH:0.491543
G1 X101.844 Y110.123 E.02018
;WIDTH:0.480683
G1 X101.864 Y109.546 E.01996
;WIDTH:0.499999
G3 X110.431 Y97.001 I14.147 J.464 E.57895
M73 P1 R2
G1 X110.875 Y96.903 E.01642
G1 X111.286 Y96.969 E.01501
G1 X111.324 Y96.991 E.0016
G1 E-.35 F2400
;WIPE_START
G1 F3600
G1 X111.65 Y97.183 E-.05677
G1 X111.934 Y97.549 E-.06946
G1 X112.007 Y97.69 E-.02377
;WIPE_END
G1 X113.844 Y105.098 Z.6 F30000
G1 X115.527 Y111.884 Z.6
G1 Z.2
G1 E.5 F2400
G1 F3600
G1 X115.408 Y111.863 E.00436
G1 X114.946 Y111.646 E.01842
G1 X114.555 Y111.317 E.01842
G1 X114.264 Y110.899 E.01842
G1 X114.09 Y110.419 E.01843
G1 X114.047 Y109.91 E.01843
G1 X114.136 Y109.408 E.01843
G1 X114.353 Y108.946 E.01842
G1 X114.555 Y108.683 E.012
G1 X114.946 Y108.353 E.01845
G1 X115.42 Y108.134 E.01885
G1 X115.91 Y108.047 E.01797
G1 X116.418 Y108.091 E.01842
G1 X116.898 Y108.264 E.01842
G1 X117.303 Y108.574 E.01841
;WIDTH:0.454474
G1 X117.449 Y108.78 E.0082
;WIDTH:0.412337
G1 X117.594 Y108.986 E.00736
;WIDTH:0.3702
G1 X117.826 Y109.524 E.01516
;WIDTH:0.360875
G1 X117.886 Y110.049 E.01327
;WIDTH:0.36352
G1 X117.799 Y110.566 E.01327
;WIDTH:0.370203
G1 X117.594 Y111.014 E.01275
;WIDTH:0.412339
G1 X117.449 Y111.22 E.00736
;WIDTH:0.454475
G1 X117.303 Y111.426 E.0082
;WIDTH:0.499999
G1 X116.898 Y111.736 E.01841
G1 X116.418 Y111.909 E.01842
G1 X115.91 Y111.953 E.01842
G1 X115.566 Y111.891 E.01262
G1 X115.952 Y111.497 F30000
;TYPE:Outer wall
G1 F3600
G1 X115.582 Y111.441 E.01348
G1 X115.224 Y111.284 E.01414
G1 X114.918 Y111.039 E.01414
G1 X114.686 Y110.724 E.01414
G1 X114.543 Y110.359 E.01414
G1 X114.5 Y109.97 E.01414
G1 X114.559 Y109.583 E.01414
G1 X114.716 Y109.224 E.01414
G1 X114.918 Y108.961 E.01199
G1 X115.277 Y108.686 E.01634
G1 X115.648 Y108.543 E.01435
G1 X116.029 Y108.5 E.01384
G1 X116.416 Y108.559 E.01414
G1 X116.775 Y108.716 E.01414
G1 X117.081 Y108.961 E.01414
G1 X117.313 Y109.276 E.01414
G1 X117.456 Y109.641 E.01413
G1 X117.499 Y110.03 E.01414
G1 X117.433 Y110.433 E.01475
G1 X117.283 Y110.776 E.01351
G1 X117.039 Y111.081 E.01414
G1 X116.723 Y111.314 E.01414
G1 X116.359 Y111.456 E.01414
G1 X115.991 Y111.497 E.01335
G1 E-.35 F2400
;WIPE_START
G1 F3600
G1 X115.582 Y111.441 E-.0619
G1 X115.224 Y111.284 E-.05873
G1 X115.071 Y111.161 E-.02937
;WIPE_END
G1 X112.973 Y103.823 Z.6 F30000
G1 X110.863 Y96.444 Z.6
G1 Z.2
G1 E.5 F2400
G1 F3600
G1 X111.247 Y96.487 E.01394
G1 X111.71 Y96.663 E.0179
G1 X112.024 Y96.912 E.01447
G1 X112.329 Y97.319 E.01836
G1 X118.217 Y108.63 E.46041
M73 P2 R2
G1 X118.449 Y109.142 E.02029
G1 X118.554 Y109.543 E.01497
G1 X118.586 Y110.145 E.02177
G1 X118.509 Y110.643 E.01819
G1 X118.298 Y111.215 E.02201
G1 X112.286 Y122.748 E.46959
G1 X111.952 Y123.163 E.01924
G1 X111.575 Y123.4 E.01607
G1 X111.152 Y123.537 E.01608
G1 X110.708 Y123.538 E.01603
G1 X110.264 Y123.425 E.01654
G3 X109.914 Y96.739 I5.731 J-13.421 E1.21619
G1 X110.465 Y96.51 E.02154
G1 X110.824 Y96.451 E.01312
G1 E-.35 F2400
;WIPE_START
G1 F3600
G1 X111.247 Y96.487 E-.06372
G1 X111.71 Y96.663 E-.07437
G1 X111.772 Y96.712 E-.01191
;WIPE_END
G1 X110.447 Y104.229 Z.6 F30000
G1 X109.757 Y108.141 Z.6
G1 Z.2
G1 E.5 F2400
;TYPE:Inner wall
G1 F3600
G1 X110.098 Y108.264 E.01311
G1 X110.517 Y108.556 E.01842
G1 X110.846 Y108.946 E.01842
G1 X111.062 Y109.408 E.01842
G1 X111.152 Y109.91 E.01843
G1 X111.109 Y110.419 E.01842
G1 X110.935 Y110.899 E.01843
G1 X110.644 Y111.317 E.01842
G1 X110.253 Y111.646 E.01843
G1 X109.791 Y111.863 E.01843
G1 X109.289 Y111.953 E.01842
G1 X108.78 Y111.909 E.01843
G1 X108.301 Y111.736 E.01842
G1 X107.882 Y111.444 E.01842
G1 X107.553 Y111.054 E.01842
G1 X107.336 Y110.592 E.01842
G1 X107.247 Y110.09 E.01843
G1 X107.29 Y109.581 E.01843
G1 X107.464 Y109.101 E.01842
G1 X107.755 Y108.683 E.01842
G1 X108.146 Y108.354 E.01842
G1 X108.608 Y108.137 E.01843
G1 X109.11 Y108.047 E.01843
G1 X109.618 Y108.091 E.01842
G1 X109.719 Y108.127 E.00387
G1 X109.229 Y108.5 F30000
;TYPE:Outer wall
G1 F3600
G1 X109.616 Y108.559 E.01414
G1 X109.975 Y108.716 E.01414
G1 X110.281 Y108.961 E.01414
G1 X110.513 Y109.276 E.01413
G1 X110.656 Y109.641 E.01414
G1 X110.699 Y110.03 E.01414
G1 X110.64 Y110.417 E.01414
G1 X110.483 Y110.776 E.01414
G1 X110.239 Y111.081 E.01414
G1 X109.923 Y111.314 E.01414
G1 X109.559 Y111.456 E.01414
G1 X109.17 Y111.5 E.01414
G1 X108.782 Y111.441 E.01414
G1 X108.424 Y111.284 E.01414
G1 X108.16 Y111.081 E.012
G1 X107.886 Y110.724 E.01627
G1 X107.743 Y110.359 E.01414
G1 X107.7 Y109.97 E.01414
G1 X107.759 Y109.583 E.01414
G1 X107.916 Y109.224 E.01413
G1 X108.16 Y108.919 E.01414
M73 P3 R2
G1 X108.475 Y108.686 E.01414
G1 X108.84 Y108.544 E.01414
G1 X109.189 Y108.505 E.01269
G1 E-.35 F2400
;WIPE_START
G1 F3600
G1 X109.616 Y108.559 E-.06454
G1 X109.975 Y108.716 E-.05873
G1 X110.114 Y108.828 E-.02673
;WIPE_END
G1 X105.162 Y108.311 Z.6 F30000
G1 Z.2
G1 E.5 F2400
;TYPE:Inner wall
G1 F3600
G1 X105.253 Y108.354 E.00364
G1 X105.643 Y108.683 E.01842
G1 X105.935 Y109.101 E.01842
G1 X106.109 Y109.581 E.01842
G1 X106.152 Y110.09 E.01843
G1 X106.062 Y110.592 E.01842
G1 X105.846 Y111.054 E.01842
G1 X105.517 Y111.444 E.01842
G1 X105.098 Y111.736 E.01843
G1 X104.629 Y111.908 E.01806
G1 X104.11 Y111.953 E.0188
G1 X103.615 Y111.866 E.01815
G1 X103.146 Y111.646 E.01871
G1 X102.755 Y111.317 E.01842
G1 X102.464 Y110.899 E.01842
G1 X102.3 Y110.418 E.01835
;WIDTH:0.480682
G1 X102.264 Y109.913 E.01751
;WIDTH:0.492202
G1 X102.34 Y109.41 E.01806
;WIDTH:0.499999
G1 X102.553 Y108.946 E.01842
G1 X102.882 Y108.556 E.01842
G1 X103.301 Y108.264 E.01842
G1 X103.78 Y108.091 E.01842
G1 X104.289 Y108.047 E.01843
G1 X104.791 Y108.137 E.01842
G1 X105.126 Y108.294 E.01334
G1 X104.623 Y108.562 F30000
;TYPE:Outer wall
G1 F3600
G1 X104.975 Y108.716 E.01386
G1 X105.281 Y108.961 E.01414
G1 X105.513 Y109.276 E.01414
G1 X105.656 Y109.641 E.01413
G1 X105.699 Y110.03 E.01414
G1 X105.64 Y110.417 E.01414
G1 X105.483 Y110.776 E.01414
G1 X105.239 Y111.081 E.01414
G1 X104.923 Y111.314 E.01414
G1 X104.559 Y111.456 E.01414
G1 X104.17 Y111.5 E.01414
G1 X103.782 Y111.441 E.01414
G1 X103.424 Y111.284 E.01414
G1 X103.118 Y111.039 E.01414
G1 X102.885 Y110.722 E.01422
G1 X102.743 Y110.359 E.01405
G1 X102.7 Y109.97 E.01414
G1 X102.759 Y109.583 E.01414
G1 X102.916 Y109.224 E.01414
G1 X103.234 Y108.862 E.0174
G1 X103.475 Y108.686 E.01079
G1 X103.84 Y108.544 E.01414
G1 X104.229 Y108.5 E.01414
G1 X104.584 Y108.556 E.01296
G1 E-.35 F2400
;WIPE_START
G1 F3600
G1 X104.975 Y108.716 E-.0634
G1 X105.281 Y108.961 E-.05873
G1 X105.391 Y109.11 E-.02787
;WIPE_END
G1 X109.281 Y102.544 Z.6 F30000
G1 X111.768 Y98.346 Z.6
G1 Z.2
G1 E.5 F2400
;TYPE:Inner wall
G1 F3600
G1 X111.868 Y98.393 E.00399
G1 X112.25 Y98.728 E.01834
;WIDTH:0.478454
G1 X112.436 Y99.099 E.01428
;WIDTH:0.429332
G1 X112.622 Y99.47 E.01267
;WIDTH:0.42014
G1 X112.67 Y99.63 E.00498
;WIDTH:0.46007
G1 X112.719 Y99.79 E.0055
;WIDTH:0.499999
G1 X112.767 Y99.95 E.00603
G1 X112.724 Y100.458 E.01841
G1 X112.55 Y100.938 E.01843
G1 X112.258 Y101.357 E.01843
G1 X111.868 Y101.686 E.01842
G1 X111.406 Y101.902 E.01843
G1 X110.904 Y101.992 E.01842
G1 X110.395 Y101.949 E.01842
G1 X109.915 Y101.775 E.01842
G1 X109.497 Y101.483 E.01843
G1 X109.168 Y101.093 E.01842
G1 X108.905 Y100.458 E.02481
G1 X108.862 Y99.95 E.01843
G1 X108.951 Y99.449 E.01837
G1 X109.168 Y98.986 E.01847
G1 X109.497 Y98.595 E.01842
G1 X109.915 Y98.304 E.01843
G1 X110.395 Y98.13 E.01842
G1 X110.904 Y98.087 E.01843
G1 X111.397 Y98.173 E.01806
G1 X111.732 Y98.329 E.01336
G1 X111.231 Y98.599 F30000
;TYPE:Outer wall
G1 F3600
G1 X111.59 Y98.756 E.01414
G1 X111.896 Y99 E.01413
G1 X112.128 Y99.315 E.01414
G1 X112.27 Y99.68 E.01414
G1 X112.314 Y100.069 E.01413
G1 X112.255 Y100.456 E.01414
G1 X112.098 Y100.815 E.01414
G1 X111.853 Y101.121 E.01414
G1 X111.538 Y101.353 E.01414
G1 X111.173 Y101.496 E.01414
G1 X110.784 Y101.539 E.01414
G1 X110.397 Y101.48 E.01414
G1 X110.039 Y101.323 E.01414
G1 X109.733 Y101.079 E.01414
G1 X109.501 Y100.763 E.01413
G1 X109.358 Y100.399 E.01414
G1 X109.315 Y100.01 E.01414
G1 X109.374 Y99.622 E.01414
G1 X109.531 Y99.264 E.01414
G1 X109.775 Y98.958 E.01414
G1 X110.098 Y98.722 E.01444
G1 X110.455 Y98.583 E.01382
G1 X110.85 Y98.541 E.01436
G1 X111.192 Y98.593 E.01247
G1 E-.35 F2400
;WIPE_START
G1 F3600
G1 X111.59 Y98.756 E-.06455
G1 X111.896 Y99 E-.05872
M73 P4 R2
G1 X112.001 Y99.144 E-.02674
;WIPE_END
G1 X114.209 Y102.167 Z.6 F30000
G1 Z.2
G1 E.5 F2400
;TYPE:Bottom surface
;WIDTH:0.506755
G1 F6300
G1 X112.921 Y100.879 E.06673
G3 X112.697 Y101.311 I-2.082 J-.806 E.01786
G1 X114.437 Y103.051 E.09018
G1 X115.149 Y104.419 E.05652
G1 X112.397 Y101.667 E.1426
G3 X112.032 Y101.958 I-2.403 J-2.644 E.01712
G1 X115.862 Y105.788 E.19843
G1 X116.574 Y107.156 E.05652
G1 X111.585 Y102.167 E.25852
G3 X111.054 Y102.292 I-.53 J-1.059 E.02016
G1 X116.906 Y108.144 E.30322
G1 E-.35 F2400
;WIPE_START
G1 F6300
G1 X116.199 Y107.437 E-.15
;WIPE_END
G1 X116.748 Y111.922 Z.6 F30000
G1 Z.2
G1 E.5 F2400
G1 F6300
G1 X116.949 Y112.123 E.01043
G1 X116.725 Y112.554 E.01782
G1 X116.404 Y112.234 E.01661
G3 X115.772 Y112.257 I-.394 J-2.084 E.02328
G1 X116.653 Y113.138 E.04565
G1 E-.35 F2400
;WIPE_START
G1 F6300
G1 X115.946 Y112.431 E-.15
;WIPE_END
G1 X113.959 Y105.062 Z.6 F30000
G1 X112.072 Y98.062 Z.6
G1 Z.2
G1 E.5 F2400
G1 F6300
G1 X111.424 Y97.414 E.03357
G2 X110.628 Y97.274 I-.521 J.627 E.03099
G1 X111.158 Y97.804 E.02744
G1 X110.79 Y97.761 E.01356
G1 X110.494 Y97.796 E.01092
G1 X110.174 Y97.476 E.0166
G1 X109.727 Y97.685 E.01806
G1 X109.976 Y97.934 E.01289
G2 X109.547 Y98.161 I.272 J1.033 E.01794
M73 P5 R2
G1 X109.304 Y97.918 E.01261
G1 X108.884 Y98.154 E.01765
G1 X109.185 Y98.455 E.0156
G2 X108.895 Y98.821 I2.896 J2.589 E.01712
G1 X108.484 Y98.41 E.02133
G1 X108.089 Y98.671 E.01734
G1 X108.681 Y99.263 E.03067
G2 X108.559 Y99.797 I1.927 J.723 E.02012
G1 X107.711 Y98.948 E.04396
G1 X107.341 Y99.235 E.01713
G1 X108.593 Y100.487 E.06489
G1 X108.618 Y100.648 E.00596
G2 X110.188 Y102.23 I2.226 J-.638 E.08521
G1 X110.365 Y102.258 E.00657
G1 X115.84 Y107.734 E.28371
G2 X115.291 Y107.841 I.238 J2.673 E.02052
G1 X106.983 Y99.532 E.43053
G1 X106.637 Y99.843 E.01702
G1 X114.841 Y108.047 E.42512
G2 X114.462 Y108.323 I2.475 J3.801 E.01721
G1 X106.299 Y100.16 E.42298
G1 X105.977 Y100.494 E.017
G1 X114.16 Y108.678 E.42403
G2 X113.923 Y109.097 I.789 J.722 E.01779
G1 X105.658 Y100.832 E.42827
G1 X105.361 Y101.19 E.01707
G1 X113.766 Y109.596 E.43556
G1 X113.72 Y110 E.0149
G1 X113.747 Y110.232 E.00857
G1 X105.063 Y101.548 E.44997
M73 P6 R2
G2 X104.789 Y101.93 I2.473 J2.065 E.01724
G1 X116.276 Y113.417 E.59521
G1 X116.051 Y113.849 E.01782
G1 X104.515 Y102.313 E.59774
G2 X104.263 Y102.716 I2.629 J1.929 E.01745
G1 X109.282 Y107.735 E.26008
G1 X109.151 Y107.722 E.00482
G1 X108.676 Y107.786 E.01754
G1 X104.014 Y103.123 E.24158
G2 X103.784 Y103.549 I2.797 J1.786 E.01775
G1 X108.196 Y107.962 E.22863
G2 X107.799 Y108.22 I.883 J1.796 E.01742
G1 X103.562 Y103.983 E.21955
G2 X103.356 Y104.434 I2.982 J1.629 E.01816
G1 X107.468 Y108.546 E.21307
G1 X107.231 Y108.851 E.01419
G1 X107.197 Y108.93 E.00313
G1 X103.161 Y104.894 E.20911
G2 X102.983 Y105.373 I3.183 J1.453 E.01871
G1 X107.01 Y109.399 E.20863
G2 X106.927 Y109.972 I2.864 J.707 E.02125
G1 X106.402 Y109.447 E.02718
G1 X106.36 Y109.29 E.00595
G1 X106.168 Y108.851 E.01755
G1 X105.8 Y108.378 E.02199
G2 X104.751 Y107.796 I-1.625 J1.693 E.04446
G1 X102.817 Y105.862 E.10021
G2 X102.671 Y106.372 I3.415 J1.253 E.01945
G1 X104.035 Y107.736 E.07067
M73 P7 R2
G2 X103.485 Y107.842 I.206 J2.548 E.02056
G1 X102.535 Y106.892 E.04921
G2 X102.426 Y107.439 I3.683 J1.018 E.02045
G1 X103.036 Y108.049 E.03164
G2 X102.66 Y108.329 I1.903 J2.963 E.0172
G1 X102.324 Y107.993 E.01739
G1 X102.259 Y108.584 E.02178
G1 X102.501 Y108.826 E.01255
G1 E-.35 F2400
;WIPE_START
G1 F6300
G1 X102.259 Y108.584 E-.0514
G1 X102.324 Y107.993 E-.08918
G1 X102.368 Y108.037 E-.00943
;WIPE_END
G1 X109.873 Y109.431 Z.6 F30000
G1 X111.229 Y109.682 Z.6
G1 Z.2
G1 E.5 F2400
G1 F6300
G1 X115.827 Y114.28 E.23822
G1 X115.602 Y114.711 E.01782
G1 X111.41 Y110.519 E.21722
G1 X111.4 Y110.593 E.00274
G1 X111.238 Y111.003 E.01615
G1 X115.377 Y115.143 E.21449
G1 X115.153 Y115.574 E.01782
G1 X110.979 Y111.4 E.21628
G3 X110.657 Y111.734 I-.884 J-.529 E.01714
G1 X114.928 Y116.006 E.22132
G1 X114.704 Y116.437 E.01782
G1 X110.27 Y112.004 E.22972
G1 X109.805 Y112.195 E.01842
G1 X114.479 Y116.868 E.24217
