; HEADER_BLOCK_START
; generated by Creality_Print V5.1.6.10470 on 2024-12-11 at 15:47:12
; total layer number: 85
; filament_density: 1.24
; filament_diameter: 1.75
; max_z_height: 17.00
; HEADER_BLOCK_END

; MINX = 100.77
; MINY = 107.00
; MINZ = 0.00
; MAXX = 119.23
; MAXY = 113.00
; MAXZ = 17.10

; THUMBNAIL_BLOCK_START

;
; THUMBNAIL_BLOCK_END

; THUMBNAIL_BLOCK_START

;
; THUMBNAIL_BLOCK_END

; external perimeters extrusion width = 0.42mm
; perimeters extrusion width = 0.45mm
; infill extrusion width = 0.45mm
; solid infill extrusion width = 0.42mm
; top infill extrusion width = 0.42mm
; first layer extrusion width = 0.50mm

; EXECUTABLE_BLOCK_START
EXCLUDE_OBJECT_DEFINE NAME=Tail_Vertical_Mount.stl_id_0_copy_0 CENTER=110.001,110 POLYGON=[[100.773,110],[100.813,109.516],[100.93,109.045],[101.121,108.599],[101.382,108.189],[101.705,107.827],[102.083,107.522],[102.505,107.281],[102.96,107.112],[103.436,107.019],[103.922,107.004],[119.228,107.7],[119.228,112.3],[103.922,112.996],[103.436,112.981],[102.96,112.888],[102.505,112.719],[102.083,112.478],[101.705,112.173],[101.382,111.811],[101.121,111.401],[100.93,110.955],[100.813,110.484],[100.773,110]]
M73 P0 R6
M106 S0
M106 P2 S0
;TYPE:Custom
M140 S0
M104 S0 
START_PRINT EXTRUDER_TEMP=230 BED_TEMP=50
M141 S35;set chamber_temperature
G90
G21
M83 ; use relative distances for extrusion
; filament start gcode
M106 S0
;LAYER_CHANGE
;Z:0.2
;HEIGHT:0.2
;BEFORE_LAYER_CHANGE
;0.2
G92 E0

G1 E-.5 F2400
;AFTER_LAYER_CHANGE
;0.2
;_SET_FAN_SPEED_CHANGING_LAYER
SET_VELOCITY_LIMIT ACCEL=1000 ACCEL_TO_DECEL=1000
SET_VELOCITY_LIMIT SQUARE_CORNER_VELOCITY=20
; printing object Tail Vertical Mount.stl id:0 copy 0
EXCLUDE_OBJECT_START NAME=Tail_Vertical_Mount.stl_id_0_copy_0
G1 X98.9 Y104.384 F30000
G1 Z.4
G1 Z.2
G1 E.5 F2400
;TYPE:Brim
;WIDTH:0.5
G1 F3600
G1 X99.275 Y104.08 E.01744
G1 X99.87 Y103.671 E.02606
G1 X100.289 Y103.431 E.01745
G1 X100.941 Y103.125 E.02603
G1 X101.394 Y102.955 E.01744
G1 X102.088 Y102.758 E.02605
G1 X102.562 Y102.664 E.01744
G1 X103.29 Y102.58 E.02646
G1 X103.789 Y102.565 E.01802
G1 X104.509 Y102.6 E.02604
G1 X104.972 Y102.661 E.01687
G1 X105.666 Y102.809 E.02562
G1 X106.128 Y102.947 E.01742
G1 X106.871 Y103.242 E.02884
G1 X106.955 Y103.258 E.0031
G1 X116.073 Y103.258 E.32919
G1 X116.721 Y103.306 E.02348
G1 X117.344 Y103.446 E.02304
G1 X118.187 Y103.803 E.03307
G1 X118.805 Y104.2 E.02653
G1 X119.284 Y104.626 E.02313
G1 X119.695 Y105.119 E.02317
G1 X120.028 Y105.664 E.02308
G1 X120.339 Y106.45 E.03052
G1 X120.485 Y107.13 E.0251
G1 X120.523 Y107.708 E.02091
G1 X120.523 Y108.692 E.03553
G1 X120.475 Y109.34 E.02348
G1 X120.339 Y109.945 E.02238
G1 X120.338 Y110.043 E.00354
G1 X120.485 Y110.73 E.02536
G1 X120.523 Y111.308 E.02091
G1 X120.523 Y112.292 E.03553
G1 X120.475 Y112.94 E.02348
G1 X120.335 Y113.563 E.02304
G1 X119.978 Y114.406 E.03307
G1 X119.581 Y115.024 E.02653
G1 X119.155 Y115.503 E.02313
G1 X118.662 Y115.914 E.02317
G1 X118.117 Y116.247 E.02308
G1 X117.331 Y116.558 E.03052
G1 X116.651 Y116.704 E.0251
G1 X116.073 Y116.742 E.02091
G1 X106.958 Y116.742 E.32913
G1 X106.873 Y116.758 E.00311
G1 X106.165 Y117.041 E.02753
G1 X105.703 Y117.181 E.01742
G1 X104.999 Y117.334 E.02602
G1 X104.52 Y117.398 E.01744
G1 X103.8 Y117.436 E.02604
G1 X103.317 Y117.422 E.01744
G1 X102.6 Y117.343 E.02604
G1 X102.126 Y117.251 E.01745
G1 X101.431 Y117.057 E.02605
G1 X100.977 Y116.89 E.01744
G1 X100.323 Y116.587 E.02603
G1 X99.903 Y116.349 E.01745
G1 X99.306 Y115.944 E.02606
G1 X98.929 Y115.641 E.01744
G1 X98.406 Y115.145 E.02602
G1 X98.083 Y114.786 E.01745
G1 X97.646 Y114.212 E.02605
G1 X97.384 Y113.803 E.01752
G1 X97.117 Y113.323 E.01982
G1 X96.85 Y112.713 E.02406
G1 X96.624 Y112.042 E.02556
G1 X96.506 Y111.573 E.01745
G1 X96.388 Y110.862 E.02605
G1 X96.347 Y110.38 E.01744
G1 X96.346 Y109.659 E.02605
G1 X96.383 Y109.177 E.01744
G1 X96.498 Y108.465 E.02605
G1 X96.613 Y107.995 E.01745
G1 X96.841 Y107.312 E.02601
G1 X97.03 Y106.867 E.01744
G1 X97.365 Y106.228 E.02605
G1 X97.624 Y105.82 E.01744
G1 X98.058 Y105.244 E.02605
G1 X98.379 Y104.883 E.01745
G1 X98.871 Y104.412 E.02458
G1 X99.187 Y104.743 F30000
G1 F3600
G1 X99.207 Y104.724 E.00099
G1 X99.553 Y104.443 E.0161
G1 X100.108 Y104.062 E.02432
G1 X100.505 Y103.835 E.01651
G1 X101.124 Y103.544 E.02469
G1 X101.542 Y103.388 E.0161
G1 X102.19 Y103.204 E.02431
G1 X102.638 Y103.115 E.01649
G1 X103.317 Y103.037 E.02469
G1 X103.79 Y103.022 E.01708
G1 X104.473 Y103.057 E.0247
G1 X104.9 Y103.113 E.01554
G1 X105.548 Y103.251 E.02391
G1 X105.984 Y103.382 E.01645
G1 X106.69 Y103.662 E.02743
G1 X106.968 Y103.715 E.01021
G1 X116.051 Y103.715 E.32793
G1 X116.643 Y103.758 E.02146
G1 X117.214 Y103.888 E.02114
G1 X117.962 Y104.205 E.02932
G1 X118.536 Y104.573 E.02463
G1 X118.961 Y104.953 E.02058
G1 X119.316 Y105.378 E.01999
G1 X119.622 Y105.88 E.02122
G1 X119.902 Y106.594 E.02772
G1 X120.029 Y107.183 E.02176
G1 X120.066 Y107.718 E.01935
G1 X120.066 Y108.67 E.03435
G1 X120.023 Y109.262 E.02146
G1 X119.895 Y109.834 E.02113
G1 X119.882 Y110.031 E.00713
G1 X120.03 Y110.785 E.02777
G1 X120.066 Y111.318 E.01928
G1 X120.066 Y112.27 E.03435
G1 X120.023 Y112.862 E.02146
G1 X119.893 Y113.433 E.02114
G1 X119.576 Y114.181 E.02932
G1 X119.208 Y114.755 E.02463
G1 X118.828 Y115.18 E.02058
G1 X118.403 Y115.535 E.01999
G1 X117.922 Y115.83 E.02038
G1 X117.208 Y116.115 E.02774
G1 X116.598 Y116.248 E.02257
G1 X116.054 Y116.285 E.01968
G1 X106.971 Y116.285 E.32795
G1 X106.692 Y116.339 E.01025
G1 X106.019 Y116.607 E.02616
G1 X105.583 Y116.739 E.01646
G1 X104.925 Y116.882 E.02429
G1 X104.483 Y116.942 E.01611
G1 X103.8 Y116.978 E.0247
G1 X103.343 Y116.965 E.01651
G1 X102.663 Y116.889 E.0247
G1 X102.225 Y116.804 E.01611
G1 X101.566 Y116.62 E.02471
G1 X101.148 Y116.465 E.0161
G1 X100.528 Y116.177 E.02469
G1 X100.14 Y115.957 E.01611
G1 X99.573 Y115.572 E.02472
G1 X99.226 Y115.293 E.0161
G1 X98.73 Y114.822 E.02469
G1 X98.432 Y114.49 E.01611
G1 X98.018 Y113.945 E.02471
G1 X97.774 Y113.565 E.01629
G1 X97.524 Y113.114 E.0186
G1 X97.275 Y112.542 E.02253
G1 X97.061 Y111.908 E.02417
G1 X96.953 Y111.475 E.01613
G1 X96.841 Y110.799 E.02471
G1 X96.804 Y110.355 E.01611
G1 X96.803 Y109.67 E.02471
G1 X96.839 Y109.226 E.01611
G1 X96.948 Y108.55 E.02471
G1 X97.054 Y108.117 E.01611
G1 X97.267 Y107.479 E.02428
G1 X97.446 Y107.058 E.01651
G1 X97.764 Y106.453 E.02471
G1 X98.003 Y106.076 E.01611
G1 X98.415 Y105.529 E.02471
G1 X98.712 Y105.196 E.01611
G1 X99.158 Y104.77 E.02226
G1 X99.474 Y105.101 F30000
G1 F3600
G1 X99.513 Y105.064 E.00197
G1 X99.831 Y104.806 E.01477
G1 X100.347 Y104.453 E.02259
G1 X100.721 Y104.238 E.01557
G1 X101.307 Y103.964 E.02334
G1 X101.69 Y103.822 E.01477
G1 X102.292 Y103.65 E.02258
G1 X102.714 Y103.566 E.01555
G1 X103.345 Y103.494 E.02292
G1 X103.791 Y103.48 E.01613
G1 X104.437 Y103.513 E.02336
G1 X104.827 Y103.565 E.01421
G1 X105.429 Y103.693 E.02221
G1 X105.84 Y103.816 E.01548
G1 X106.51 Y104.082 E.02602
G1 X106.981 Y104.172 E.01733
G1 X116.029 Y104.172 E.32667
G1 X116.565 Y104.211 E.01942
G1 X117.085 Y104.329 E.01924
G1 X117.737 Y104.606 E.02559
G1 X118.25 Y104.932 E.02192
G1 X118.624 Y105.264 E.01809
G1 X118.937 Y105.637 E.01755
G1 X119.215 Y106.095 E.01935
G1 X119.466 Y106.738 E.02492
G1 X119.573 Y107.238 E.01847
G1 X119.608 Y107.729 E.01779
G1 X119.609 Y108.648 E.03317
G1 X119.57 Y109.185 E.01946
G1 X119.451 Y109.726 E.01997
G1 X119.427 Y109.993 E.00969
G1 X119.435 Y110.127 E.00486
G1 X119.574 Y110.837 E.02611
G1 X119.608 Y111.329 E.01783
G1 X119.609 Y112.248 E.03317
G1 X119.57 Y112.784 E.01942
G1 X119.452 Y113.304 E.01924
G1 X119.175 Y113.956 E.02559
G1 X118.849 Y114.469 E.02192
G1 X118.502 Y114.857 E.0188
G1 X118.127 Y115.168 E.01759
G1 X117.727 Y115.414 E.01698
G1 X117.085 Y115.672 E.02498
G1 X116.523 Y115.795 E.02076
G1 X116.034 Y115.828 E.01771
G1 X106.984 Y115.828 E.32675
M73 P1 R6
G1 X106.511 Y115.919 E.01739
G1 X105.873 Y116.173 E.02479
G1 X105.462 Y116.298 E.01551
G1 X104.852 Y116.431 E.02256
G1 X104.446 Y116.486 E.01477
G1 X103.8 Y116.52 E.02336
G1 X103.369 Y116.508 E.01556
G1 X102.727 Y116.436 E.02335
G1 X102.325 Y116.357 E.01477
G1 X101.702 Y116.183 E.02337
G1 X101.318 Y116.04 E.01477
G1 X100.732 Y115.768 E.02335
G1 X100.377 Y115.566 E.01477
G1 X99.85 Y115.208 E.02298
G1 X99.523 Y114.944 E.01517
G1 X99.054 Y114.499 E.02335
G1 X98.781 Y114.194 E.01477
G1 X98.39 Y113.678 E.02338
G1 X98.165 Y113.327 E.01506
G1 X97.932 Y112.906 E.01738
G1 X97.7 Y112.372 E.02101
G1 X97.499 Y111.774 E.02278
G1 X97.4 Y111.376 E.0148
G1 X97.295 Y110.738 E.02337
G1 X97.262 Y110.33 E.01477
G1 X97.261 Y109.683 E.02338
G1 X97.294 Y109.275 E.01477
G1 X97.397 Y108.636 E.02338
G1 X97.496 Y108.239 E.01477
G1 X97.693 Y107.646 E.02255
G1 X97.862 Y107.25 E.01557
G1 X98.163 Y106.677 E.02336
G1 X98.383 Y106.332 E.01477
G1 X98.773 Y105.815 E.02338
G1 X99.045 Y105.51 E.01477
G1 X99.445 Y105.129 E.01994
G1 X99.76 Y105.46 F30000
G1 F3600
G1 X99.82 Y105.404 E.00296
G1 X100.109 Y105.17 E.01343
G1 X100.586 Y104.843 E.02087
G1 X100.937 Y104.642 E.01462
G1 X101.489 Y104.384 E.02199
G1 X101.838 Y104.255 E.01343
G1 X102.394 Y104.097 E.02086
G1 X102.79 Y104.018 E.0146
G1 X103.372 Y103.951 E.02116
G1 X103.793 Y103.938 E.01517
G1 X104.401 Y103.969 E.022
G1 X104.755 Y104.017 E.01288
G1 X105.31 Y104.135 E.02052
G1 X105.695 Y104.251 E.01451
G1 X106.329 Y104.502 E.02462
G1 X106.994 Y104.629 E.02444
G1 X116.007 Y104.629 E.32542
G1 X116.487 Y104.664 E.01737
G1 X116.955 Y104.771 E.01733
G1 X117.514 Y105.008 E.02191
G1 X117.964 Y105.292 E.01924
G1 X118.288 Y105.577 E.01559
G1 X118.558 Y105.896 E.01506
G1 X118.808 Y106.309 E.01745
G1 X119.029 Y106.88 E.02211
G1 X119.12 Y107.312 E.01594
G1 X119.151 Y107.741 E.01552
G1 X119.152 Y108.626 E.03197
G1 X119.117 Y109.11 E.01749
G1 X119.007 Y109.618 E.0188
G1 X118.971 Y110.03 E.01492
G1 X118.988 Y110.222 E.00695
G1 X119.118 Y110.888 E.02453
G1 X119.151 Y111.341 E.01637
G1 X119.152 Y112.226 E.03198
G1 X119.117 Y112.706 E.01737
G1 X119.01 Y113.174 E.01733
G1 X118.773 Y113.733 E.02191
G1 X118.49 Y114.183 E.01921
G1 X118.176 Y114.534 E.01699
G1 X117.868 Y114.789 E.01446
G1 X117.53 Y114.998 E.01435
G1 X116.96 Y115.23 E.0222
G1 X116.448 Y115.342 E.01893
G1 X116.013 Y115.371 E.01573
G1 X106.996 Y115.371 E.3256
G1 X106.435 Y115.468 E.02053
G1 X105.716 Y115.743 E.0278
G1 X105.341 Y115.856 E.01414
G1 X104.777 Y115.979 E.02084
G1 X104.398 Y116.031 E.01384
G1 X103.8 Y116.062 E.02159
G1 X103.396 Y116.051 E.01461
G1 X102.79 Y115.983 E.022
G1 X102.426 Y115.911 E.01343
G1 X101.838 Y115.746 E.02204
G1 X101.49 Y115.616 E.01342
G1 X100.937 Y115.358 E.02202
G1 X100.614 Y115.174 E.01343
G1 X100.127 Y114.843 E.02125
G1 X99.82 Y114.596 E.01423
G1 X99.378 Y114.176 E.022
G1 X99.131 Y113.899 E.01343
G1 X98.762 Y113.412 E.02205
G1 X98.556 Y113.089 E.01383
G1 X98.34 Y112.697 E.01615
G1 X98.125 Y112.202 E.01949
G1 X97.937 Y111.641 E.02138
G1 X97.847 Y111.278 E.01347
G1 X97.748 Y110.676 E.02204
G1 X97.719 Y110.306 E.01342
G1 X97.718 Y109.695 E.02204
G1 X97.749 Y109.325 E.01342
G1 X97.847 Y108.722 E.02204
G1 X97.937 Y108.361 E.01344
G1 X98.119 Y107.813 E.02083
G1 X98.278 Y107.441 E.01462
G1 X98.562 Y106.902 E.022
G1 X98.762 Y106.588 E.01342
G1 X99.13 Y106.102 E.02204
G1 X99.378 Y105.824 E.01342
G1 X99.731 Y105.488 E.01762
G1 X100.047 Y105.819 F30000
G1 F3600
G1 X100.117 Y105.752 E.00351
G1 X100.378 Y105.54 E.01212
G1 X100.824 Y105.234 E.01955
G1 X101.143 Y105.051 E.01326
G1 X101.66 Y104.808 E.02062
G1 X101.975 Y104.691 E.01212
G1 X102.495 Y104.543 E.01954
G1 X102.855 Y104.471 E.01325
G1 X103.4 Y104.408 E.0198
G1 X103.794 Y104.396 E.01422
G1 X104.364 Y104.426 E.02063
G1 X104.681 Y104.469 E.01156
G1 X105.192 Y104.577 E.01883
G1 X105.549 Y104.684 E.01348
G1 X106.254 Y104.953 E.02724
G1 X107.006 Y105.086 E.02757
G1 X115.986 Y105.086 E.32421
G1 X116.409 Y105.116 E.01531
G1 X116.825 Y105.212 E.01541
G1 X117.291 Y105.41 E.01828
G1 X117.68 Y105.653 E.01658
G1 X117.953 Y105.891 E.01309
G1 X118.178 Y106.155 E.01252
G1 X118.401 Y106.523 E.01551
G1 X118.592 Y107.022 E.01929
G1 X118.667 Y107.385 E.01342
G1 X118.694 Y107.753 E.01329
G1 X118.695 Y108.605 E.03078
G1 X118.664 Y109.035 E.01554
G1 X118.562 Y109.513 E.01768
G1 X118.517 Y109.981 E.01696
G1 X118.541 Y110.318 E.01219
G1 X118.665 Y110.957 E.02353
G1 X118.694 Y111.352 E.01431
G1 X118.695 Y112.205 E.03078
G1 X118.665 Y112.628 E.0153
G1 X118.569 Y113.044 E.01541
G1 X118.371 Y113.51 E.01828
G1 X118.129 Y113.897 E.01648
G1 X117.85 Y114.21 E.01516
G1 X117.608 Y114.411 E.01136
G1 X117.332 Y114.583 E.01173
G1 X116.835 Y114.787 E.0194
G1 X116.373 Y114.889 E.01708
G1 X115.994 Y114.914 E.01374
G1 X107.007 Y114.914 E.32449
G1 X106.369 Y115.016 E.02332
G1 X105.564 Y115.311 E.03097
G1 X105.221 Y115.415 E.01291
G1 X104.703 Y115.527 E.01914
G1 X104.349 Y115.575 E.01291
G1 X103.8 Y115.605 E.01983
G1 X103.422 Y115.594 E.01365
G1 X102.866 Y115.531 E.02022
G1 X102.527 Y115.464 E.01249
G1 X101.985 Y115.312 E.0203
G1 X101.671 Y115.196 E.01209
G1 X101.152 Y114.954 E.02067
G1 X100.851 Y114.783 E.0125
G1 X100.404 Y114.479 E.01954
G1 X100.126 Y114.256 E.01287
G1 X99.711 Y113.862 E.02065
G1 X99.488 Y113.612 E.01209
G1 X99.141 Y113.155 E.02072
G1 X98.952 Y112.859 E.01267
G1 X98.748 Y112.49 E.01524
G1 X98.554 Y112.044 E.01756
G1 X98.378 Y111.518 E.02001
G1 X98.297 Y111.192 E.01215
G1 X98.203 Y110.626 E.0207
G1 X98.176 Y110.293 E.01209
G1 X98.175 Y109.719 E.0207
G1 X98.202 Y109.386 E.01209
G1 X98.294 Y108.82 E.0207
G1 X98.375 Y108.494 E.01213
G1 X98.545 Y107.981 E.01951
G1 X98.688 Y107.643 E.01326
G1 X98.955 Y107.137 E.02064
G1 X99.134 Y106.854 E.01209
G1 X99.48 Y106.397 E.0207
G1 X99.703 Y106.147 E.01209
G1 X100.018 Y105.846 E.01572
G1 X100.346 Y106.168 F30000
G1 F3600
G1 X100.402 Y106.111 E.00288
G1 X101.092 Y105.607 E.03086
G1 X101.835 Y105.232 E.03005
G1 X102.629 Y104.982 E.03006
G1 X103.443 Y104.862 E.02972
G1 X104.173 Y104.868 E.02632
G1 X104.904 Y104.978 E.02672
G1 X105.685 Y105.219 E.02951
G1 X106.311 Y105.509 E.02489
G1 X106.485 Y105.543 E.00641
G1 X116.037 Y105.543 E.3449
G1 X116.595 Y105.625 E.02036
G1 X117.015 Y105.78 E.01617
G1 X117.518 Y106.13 E.02212
G1 X117.609 Y106.214 E.00447
G1 X117.906 Y106.591 E.01732
G1 X118.119 Y107.05 E.01828
G1 X118.22 Y107.564 E.01889
G1 X118.237 Y108.642 E.03893
G1 X118.179 Y109.108 E.01697
G1 X117.984 Y109.662 E.02121
G1 X117.823 Y109.936 E.01145
G1 X117.826 Y110.079 E.00517
G1 X117.987 Y110.331 E.01081
G1 X118.094 Y110.57 E.00944
G1 X118.181 Y110.857 E.01084
G1 X118.225 Y111.19 E.01212
G1 X118.237 Y112.255 E.03845
G1 X118.217 Y112.526 E.00983
G1 X118.094 Y113.013 E.01813
G1 X117.956 Y113.323 E.01226
G1 X117.648 Y113.742 E.01879
G1 X117.281 Y114.063 E.01758
G1 X117.183 Y114.126 E.00421
G1 X116.711 Y114.348 E.01884
G1 X116.441 Y114.415 E.01004
G1 X116.198 Y114.447 E.00886
G1 X106.485 Y114.457 E.35067
G1 X106.312 Y114.491 E.00637
G1 X105.696 Y114.777 E.02452
G1 X105.106 Y114.972 E.02245
G1 X103.781 Y115.149 E.04826
G1 X103.196 Y115.117 E.02114
G1 X102.608 Y115.016 E.02155
G1 X101.433 Y114.584 E.04521
G1 X100.729 Y114.151 E.02983
G1 X100.1 Y113.605 E.03008
G1 X99.565 Y112.964 E.03014
G1 X99.139 Y112.237 E.03042
G1 X98.825 Y111.415 E.03177
G1 X98.661 Y110.6 E.03003
G1 X98.631 Y109.767 E.03008
G1 X98.736 Y108.941 E.03008
G1 X98.973 Y108.142 E.03007
G1 X99.336 Y107.392 E.03009
G1 X99.816 Y106.709 E.03012
G1 X100.318 Y106.197 E.02593
G1 X100.643 Y106.509 F30000
G1 F3600
G1 X100.667 Y106.483 E.00127
G1 X101.292 Y106.017 E.02816
G1 X101.967 Y105.669 E.0274
G1 X102.689 Y105.435 E.02743
G1 X103.435 Y105.319 E.02724
G1 X104.095 Y105.319 E.02383
G1 X104.846 Y105.432 E.02744
G1 X105.555 Y105.657 E.02683
G1 X106.185 Y105.955 E.02517
G1 X106.431 Y106 E.00903
G1 X116.047 Y106 E.34721
M73 P2 R6
G1 X116.536 Y106.078 E.01787
G1 X116.848 Y106.205 E.01218
G1 X117.255 Y106.503 E.01819
G1 X117.492 Y106.786 E.0133
G1 X117.671 Y107.141 E.01437
G1 X117.763 Y107.559 E.01546
G1 X117.78 Y108.659 E.03972
G1 X117.725 Y109.058 E.01457
G1 X117.553 Y109.509 E.01741
G1 X117.423 Y109.712 E.00872
G1 X117.244 Y109.909 E.00961
G1 X117.21 Y110.018 E.00413
G1 X117.247 Y110.097 E.00313
G1 X117.382 Y110.237 E.00702
G1 X117.57 Y110.518 E.01223
