; HEADER_BLOCK_START
; generated by Creality_Print V5.1.6.10470 on 2024-12-10 at 15:58:21
; total layer number: 10
; filament_density: 1.24
; filament_diameter: 1.75
; max_z_height: 2.00
; HEADER_BLOCK_END

; MINX = 99.95
; MINY = 40.24
; MINZ = -0.00
; MAXX = 120.05
; MAXY = 179.76
; MAXZ = 2.00

; THUMBNAIL_BLOCK_START

;
; THUMBNAIL_BLOCK_END

; THUMBNAIL_BLOCK_START

;
; THUMBNAIL_BLOCK_END

; external perimeters extrusion width = 0.42mm
; perimeters extrusion width = 0.45mm
; infill extrusion width = 0.45mm
; solid infill extrusion width = 0.42mm
; top infill extrusion width = 0.42mm
; support material extrusion width = 0.42mm
; first layer extrusion width = 0.50mm

; EXECUTABLE_BLOCK_START
EXCLUDE_OBJECT_DEFINE NAME=Bottom_protector.stl_id_0_copy_0 CENTER=110,110 POLYGON=[[99.9541,63.299],[99.9898,62.3002],[100.097,61.3066],[100.274,60.3231],[100.521,59.3547],[100.837,58.4065],[101.219,57.4832],[101.667,56.5895],[102.177,55.73],[102.746,54.9091],[103.374,54.1309],[104.055,53.3995],[116.925,40.5294],[117.132,40.3705],[117.373,40.2706],[117.632,40.2365],[117.891,40.2706],[118.132,40.3705],[118.339,40.5294],[119.753,41.9436],[119.912,42.1508],[120.012,42.3919],[120.046,42.6508],[120.046,177.349],[120.012,177.608],[119.912,177.849],[119.753,178.056],[118.339,179.471],[118.132,179.629],[117.891,179.729],[117.632,179.763],[117.373,179.729],[117.132,179.629],[116.925,179.471],[104.055,166.601],[103.374,165.869],[102.746,165.091],[102.177,164.27],[101.667,163.41],[101.219,162.517],[100.837,161.594],[100.521,160.645],[100.274,159.677],[100.097,158.693],[99.9898,157.7],[99.9541,156.701],[99.9541,63.299]]
M73 P0 R2
M106 S0
M106 P2 S0
;TYPE:Custom
M140 S0
M104 S0 
START_PRINT EXTRUDER_TEMP=230 BED_TEMP=50
M141 S35;set chamber_temperature
G90
G21
M83 ; use relative distances for extrusion
; filament start gcode
M106 S0
;LAYER_CHANGE
;Z:0.2
;HEIGHT:0.2
;BEFORE_LAYER_CHANGE
;0.2
G92 E0

G1 E-.5 F2400
;AFTER_LAYER_CHANGE
;0.2
;_SET_FAN_SPEED_CHANGING_LAYER
SET_VELOCITY_LIMIT ACCEL=1000 ACCEL_TO_DECEL=1000
SET_VELOCITY_LIMIT SQUARE_CORNER_VELOCITY=20
; printing object Bottom protector.stl id:0 copy 0
EXCLUDE_OBJECT_START NAME=Bottom_protector.stl_id_0_copy_0
G1 X116.991 Y178.324 F30000
G1 Z.4
G1 Z.2
G1 E.5 F2400
;TYPE:Inner wall
;WIDTH:0.499999
G1 F3600
G1 X104.671 Y166.005 E.62903
G3 X100.811 Y156.686 I9.392 J-9.349 E.37364
M73 P1 R2
G1 X100.811 Y132.858 E.86032
G2 X100.793 Y131.525 I-26.113 J-.317 E.04816
G1 X100.908 Y131.627 E.00558
G1 X101.364 Y131.857 E.01841
G1 X101.858 Y131.949 E.01815
G1 X102.379 Y131.902 E.01888
G1 X102.871 Y131.705 E.01915
G1 X103.115 Y131.525 E.01097
G2 X103.098 Y133.099 I26.537 J1.088 E.05686
G1 X103.097 Y156.721 E.85288
G1 X103.141 Y157.677 E.03457
G2 X106.274 Y164.375 I10.982 J-1.054 E.27227
G1 X119.116 Y177.22 E.65577
M73 P2 R2
G1 X119.179 Y177.367 E.00579
G1 X119.107 Y177.49 E.00515
G1 X117.782 Y178.815 E.06765
G1 X117.632 Y178.899 E.00623
G1 X117.491 Y178.825 E.00575
G1 X117.019 Y178.353 E.0241
G1 E-.35 F2400
;WIPE_START
G1 F3600
G1 X116.312 Y177.646 E-.15
;WIPE_END
G1 X114.125 Y170.333 Z.6 F30000
G1 X101.5 Y128.11 Z.6
G1 Z.2
G1 E.5 F2400
G1 F3600
G1 X101.037 Y128.295 E.01799
G1 X100.793 Y128.475 E.01097
G2 X100.811 Y127.731 I-8.528 J-.578 E.02688
G1 X100.811 Y92.858 E1.25915
M73 P3 R2
G2 X100.793 Y91.525 I-26.923 J-.303 E.04814
G1 X100.863 Y91.589 E.00345
G1 X101.336 Y91.845 E.0194
G1 X101.858 Y91.949 E.01921
G1 X102.379 Y91.902 E.01888
G1 X102.871 Y91.705 E.01915
G1 X103.115 Y91.525 E.01097
G2 X103.097 Y92.269 I8.528 J.578 E.02688
G1 X103.097 Y127.142 E1.25915
G2 X103.115 Y128.475 I26.922 J.303 E.04815
G1 X103.045 Y128.411 E.00345
G1 X102.572 Y128.155 E.0194
G1 X102.05 Y128.051 E.01921
G1 X101.537 Y128.097 E.0186
G1 E-.35 F2400
;WIPE_START
G1 F3600
G1 X101.037 Y128.295 E-.08068
G1 X100.793 Y128.475 E-.04556
G1 X100.797 Y128.317 E-.02376
;WIPE_END
G1 X102.965 Y131.042 Z.6 F30000
G1 Z.2
M73 P4 R2
G1 E.5 F2400
;TYPE:Outer wall
G1 F3600
G1 X102.678 Y131.291 E.0137
G1 X102.315 Y131.45 E.01432
G1 X101.922 Y131.496 E.01427
G1 X101.529 Y131.43 E.01438
G1 X101.172 Y131.252 E.0144
;WIDTH:0.500118
G1 X100.883 Y130.967 E.01466
;WIDTH:0.511431
G1 X100.712 Y130.624 E.01421
G1 X100.624 Y130.039 E.02187
;WIDTH:0.510177
G1 X100.712 Y129.376 E.02469
G1 X100.932 Y128.968 E.01712
;WIDTH:0.499999
G1 X101.23 Y128.709 E.01426
G1 X101.594 Y128.55 E.01432
G1 X101.986 Y128.504 E.01427
G1 X102.379 Y128.57 E.01438
G1 X102.736 Y128.748 E.0144
G1 X102.976 Y128.968 E.01177
;WIDTH:0.510178
G1 X103.196 Y129.376 E.01712
G1 X103.286 Y129.96 E.02181
;WIDTH:0.511431
G1 X103.197 Y130.624 E.02477
G1 X102.988 Y131.01 E.01626
G1 E-.35 F2400
;WIPE_START
G1 F3600
G1 X102.678 Y131.291 E-.0627
G1 X102.315 Y131.45 E-.05949
G1 X102.13 Y131.471 E-.0278
;WIPE_END
G1 X101.924 Y123.842 Z.6 F30000
G1 X100.964 Y88.348 Z.6
G1 Z.2
G1 E.5 F2400
;TYPE:Inner wall
;WIDTH:0.499999
G1 F3600
G1 X100.793 Y88.475 E.00771
G2 X100.811 Y87.773 I-7.659 J-.546 E.02536
G1 X100.811 Y63.314 E.88312
G3 X104.671 Y53.995 I13.252 J.03 E.37364
M73 P5 R2
G1 X117.481 Y41.185 E.65408
G1 X117.632 Y41.101 E.00623
G1 X117.773 Y41.175 E.00575
G1 X119.097 Y42.5 E.06765
G1 X119.181 Y42.651 E.00623
G1 X119.107 Y42.792 E.00575
G1 X106.263 Y55.636 E.65585
G1 X105.618 Y56.343 E.03457
G2 X103.097 Y63.295 I8.509 J7.019 E.27227
G1 X103.098 Y87.142 E.86101
M73 P6 R2
G2 X103.115 Y88.475 I26.114 J.317 E.04816
G1 X103 Y88.373 E.00558
G1 X102.545 Y88.143 E.01841
G1 X102.05 Y88.051 E.01815
G1 X101.529 Y88.098 E.01888
G1 X101.037 Y88.295 E.01915
G1 X100.997 Y88.325 E.00182
G1 X101.58 Y88.556 F30000
;TYPE:Outer wall
G1 F3600
G1 X101.594 Y88.55 E.00055
G1 X101.986 Y88.504 E.01427
G1 X102.379 Y88.57 E.01438
G1 X102.736 Y88.748 E.0144
G1 X103.025 Y89.033 E.01466
;WIDTH:0.511431
G1 X103.197 Y89.376 E.01421
G1 X103.285 Y89.961 E.02187
;WIDTH:0.510177
G1 X103.196 Y90.624 E.02469
G1 X102.976 Y91.032 E.01712
;WIDTH:0.499999
G1 X102.678 Y91.291 E.01426
G1 X102.315 Y91.45 E.01432
G1 X101.922 Y91.496 E.01427
G1 X101.529 Y91.43 E.01438
G1 X101.172 Y91.252 E.0144
G1 X100.883 Y90.967 E.01466
;WIDTH:0.510177
G1 X100.712 Y90.624 E.01417
G1 X100.622 Y90.04 E.02181
;WIDTH:0.511431
G1 X100.712 Y89.376 E.02477
G1 X100.932 Y88.968 E.01717
;WIDTH:0.499999
G1 X101.23 Y88.709 E.01426
G1 X101.543 Y88.572 E.01233
G1 E-.35 F2400
;WIPE_START
G1 F3600
G1 X101.594 Y88.55 E-.00827
G1 X101.986 Y88.504 E-.05929
G1 X102.379 Y88.57 E-.05975
G1 X102.514 Y88.637 E-.02268
;WIPE_END
G1 X105.183 Y81.487 Z.6 F30000
G1 X119.622 Y42.805 Z.6
G1 Z.2
G1 E.5 F2400
G1 F3600
G1 X119.452 Y43.094 E.0121
G1 X106.594 Y55.951 E.65654
G2 X103.554 Y63.295 I7.481 J7.398 E.29428
M73 P7 R2
G1 X103.555 Y87.776 E.88392
G2 X103.595 Y88.807 I10.13 J.119 E.03726
;WIDTH:0.511431
G3 X103.707 Y90.248 I-9.37 J1.455 E.05356
;WIDTH:0.514416
G3 X103.589 Y91.255 I-85.455 J-9.586 E.03773
;WIDTH:0.499999
G2 X103.554 Y92.266 I10.941 J.876 E.03656
G1 X103.554 Y127.142 E1.25923
G2 X103.566 Y128.354 I31.834 J.296 E.04376
;WIDTH:0.510528
G2 X103.707 Y129.722 I24.558 J-1.83 E.05079
;WIDTH:0.491244
G1 X103.706 Y130.087 E.01295
;WIDTH:0.512742
G3 X103.593 Y131.211 I-10.502 J-.485 E.04195
;WIDTH:0.499999
G2 X103.555 Y133.099 I21.759 J1.388 E.0682
G1 X103.554 Y156.71 E.85249
M73 P8 R2
G2 X106.597 Y164.052 I10.521 J-.059 E.29428
G1 X119.452 Y176.906 E.65635
G1 X119.622 Y177.195 E.0121
G1 X119.622 Y177.504 E.01115
G1 X119.452 Y177.792 E.0121
G1 X118.075 Y179.169 E.07032
G1 X117.786 Y179.34 E.0121
G1 X117.477 Y179.34 E.01115
G1 X117.189 Y179.169 E.0121
G1 X104.342 Y166.323 E.65596
G3 X100.354 Y156.694 I9.721 J-9.667 E.38601
M73 P9 R2
G1 X100.353 Y132.224 E.88352
M73 P9 R1
G2 X100.313 Y131.193 I-10.129 J-.119 E.03726
;WIDTH:0.511431
G3 X100.201 Y129.752 I9.369 J-1.455 E.05356
;WIDTH:0.51353
G3 X100.32 Y128.745 I59.617 J6.533 E.03766
;WIDTH:0.499999
G2 X100.354 Y127.734 I-10.941 J-.876 E.03656
G1 X100.354 Y92.858 E1.25923
G2 X100.342 Y91.646 I-31.835 J-.296 E.04376
;WIDTH:0.511614
G2 X100.202 Y90.278 I-23.199 J1.69 E.05091
;WIDTH:0.491243
G1 X100.202 Y89.913 E.01295
;WIDTH:0.51274
G3 X100.315 Y88.789 I10.501 J.485 E.04194
;WIDTH:0.499999
G2 X100.353 Y87.776 I-10.195 J-.895 E.0366
G1 X100.354 Y63.306 E.88352
M73 P10 R1
G3 X104.342 Y53.677 I13.709 J.038 E.38601
G1 X117.189 Y40.831 E.65596
G1 X117.477 Y40.66 E.0121
G1 X117.786 Y40.66 E.01115
G1 X118.075 Y40.831 E.0121
G1 X119.452 Y42.208 E.07032
G1 X119.622 Y42.496 E.0121
G1 X119.622 Y42.765 E.00971
G1 X118.94 Y42.797 F30000
;TYPE:Bottom surface
;WIDTH:0.503456
G1 F6300
G1 X117.63 Y41.488 E.06736
G1 X117.305 Y41.814 E.01675
G1 X118.469 Y42.978 E.05988
G1 X118.143 Y43.303 E.01675
G1 X116.979 Y42.139 E.05988
G1 X116.654 Y42.465 E.01675
G1 X117.817 Y43.629 E.05988
G1 X117.492 Y43.955 E.01675
G1 X116.328 Y42.791 E.05988
G1 X116.002 Y43.116 E.01675
G1 X117.166 Y44.28 E.05988
G1 X116.84 Y44.606 E.01675
G1 X115.677 Y43.442 E.05988
M73 P11 R1
G1 X115.351 Y43.768 E.01675
G1 X116.515 Y44.932 E.05988
G1 X116.189 Y45.257 E.01675
G1 X115.025 Y44.093 E.05988
G1 X114.7 Y44.419 E.01675
G1 X115.863 Y45.583 E.05988
G1 X115.538 Y45.908 E.01675
G1 X114.374 Y44.745 E.05988
G1 X114.048 Y45.07 E.01675
G1 X115.212 Y46.234 E.05988
G1 X114.887 Y46.56 E.01675
G1 X113.723 Y45.396 E.05988
G1 X113.397 Y45.722 E.01675
G1 X114.561 Y46.885 E.05988
G1 X114.235 Y47.211 E.01675
G1 X113.071 Y46.047 E.05988
G1 X112.746 Y46.373 E.01675
G1 X113.91 Y47.537 E.05988
G1 X113.584 Y47.862 E.01675
G1 X112.42 Y46.699 E.05988
G1 X112.094 Y47.024 E.01675
G1 X113.258 Y48.188 E.05988
G1 X112.933 Y48.514 E.01675
G1 X111.769 Y47.35 E.05988
G1 X111.443 Y47.675 E.01675
G1 X112.607 Y48.839 E.05988
G1 X112.281 Y49.165 E.01675
G1 X111.118 Y48.001 E.05988
G1 X110.792 Y48.327 E.01675
G1 X111.956 Y49.491 E.05988
G1 X111.63 Y49.816 E.01675
G1 X110.466 Y48.652 E.05988
G1 X110.141 Y48.978 E.01675
G1 X111.304 Y50.142 E.05988
G1 X110.979 Y50.468 E.01675
G1 X109.815 Y49.304 E.05988
G1 X109.489 Y49.629 E.01675
G1 X110.653 Y50.793 E.05988
M73 P12 R1
G1 X110.327 Y51.119 E.01675
G1 X109.164 Y49.955 E.05988
G1 X108.838 Y50.281 E.01675
G1 X110.002 Y51.445 E.05988
G1 X109.676 Y51.77 E.01675
G1 X108.512 Y50.606 E.05988
G1 X108.187 Y50.932 E.01675
G1 X109.351 Y52.096 E.05988
G1 X109.025 Y52.421 E.01675
G1 X107.861 Y51.258 E.05988
G1 X107.535 Y51.583 E.01675
G1 X108.699 Y52.747 E.05988
G1 X108.374 Y53.073 E.01675
G1 X107.21 Y51.909 E.05988
G1 X106.884 Y52.235 E.01675
G1 X108.048 Y53.398 E.05988
G1 X107.722 Y53.724 E.01675
G1 X106.558 Y52.56 E.05988
G1 X106.233 Y52.886 E.01675
G1 X107.397 Y54.05 E.05988
G1 X107.071 Y54.375 E.01675
G1 X105.907 Y53.211 E.05988
G1 X105.581 Y53.537 E.01675
G1 X106.745 Y54.701 E.05988
G1 X106.42 Y55.027 E.01675
G1 X105.256 Y53.863 E.05988
G1 X104.93 Y54.188 E.01675
G1 X106.094 Y55.352 E.05988
G2 X105.78 Y55.69 I3.789 J3.836 E.01677
G1 X104.615 Y54.525 E.05994
G1 X104.301 Y54.862 E.01676
G1 X105.469 Y56.029 E.06006
G2 X105.18 Y56.393 I1.969 J1.858 E.01689
G1 X104.008 Y55.22 E.06033
G1 X103.717 Y55.58 E.01685
G1 X104.897 Y56.76 E.0607
G2 X104.633 Y57.147 I2.028 J1.668 E.01707
G1 X103.448 Y55.963 E.06095
M73 P13 R1
G1 X103.181 Y56.347 E.01702
G1 X104.379 Y57.545 E.06164
G2 X104.144 Y57.961 I2.288 J1.568 E.01741
G1 X102.937 Y56.755 E.06208
G2 X102.695 Y57.164 I2.737 J1.894 E.01731
G1 X103.92 Y58.389 E.06303
G2 X103.717 Y58.836 I2.487 J1.403 E.01791
G1 X102.478 Y57.598 E.06372
G2 X102.264 Y58.036 I2.957 J1.714 E.01773
G1 X103.525 Y59.296 E.06485
G2 X103.357 Y59.78 I2.67 J1.197 E.01864
G1 X102.074 Y58.496 E.06603
G2 X101.891 Y58.965 I3.185 J1.508 E.01832
G1 X103.2 Y60.274 E.06734
G2 X103.071 Y60.796 I2.839 J.98 E.01959
G1 X101.729 Y59.454 E.06905
G2 X101.582 Y59.958 I3.456 J1.279 E.01913
G1 X102.953 Y61.329 E.07053
G2 X102.875 Y61.902 I3.279 J.739 E.02107
G1 X101.449 Y60.477 E.07332
G2 X101.344 Y61.023 I3.757 J1.01 E.02024
G1 X102.813 Y62.492 E.07557
G1 X102.784 Y63.115 E.02269
G1 X101.251 Y61.581 E.07889
G1 X101.188 Y62.169 E.02152
G1 X102.778 Y63.759 E.0818
G1 X102.778 Y64.411 E.0237
G1 X101.15 Y62.783 E.08373
G2 X101.131 Y63.415 I8.872 J.586 E.02301
G1 X102.778 Y65.062 E.08472
G1 X102.778 Y65.713 E.0237
G1 X101.131 Y64.066 E.08473
G1 X101.131 Y64.718 E.02369
G1 X102.778 Y66.365 E.08474
M73 P14 R1
G1 X102.778 Y67.016 E.0237
G1 X101.131 Y65.369 E.08475
G1 X101.131 Y66.02 E.02369
G1 X102.778 Y67.668 E.08476
G1 X102.778 Y68.319 E.0237
G1 X101.131 Y66.671 E.08477
G1 X101.13 Y67.322 E.02369
G1 X102.778 Y68.97 E.08478
G1 X102.778 Y69.622 E.0237
G1 X101.13 Y67.974 E.08479
G1 X101.13 Y68.625 E.02369
G1 X102.779 Y70.273 E.0848
G1 X102.779 Y70.925 E.0237
G1 X101.13 Y69.276 E.08481
G1 X101.13 Y69.927 E.02369
G1 X102.779 Y71.576 E.08482
G1 X102.779 Y72.227 E.0237
G1 X101.13 Y70.578 E.08483
G1 X101.13 Y71.23 E.02369
G1 X102.779 Y72.879 E.08484
G1 X102.779 Y73.53 E.0237
G1 X101.13 Y71.881 E.08486
G1 X101.13 Y72.532 E.02369
G1 X102.779 Y74.181 E.08487
G1 X102.779 Y74.833 E.0237
G1 X101.129 Y73.183 E.08488
G1 X101.129 Y73.834 E.02369
G1 X102.779 Y75.484 E.08489
G1 X102.779 Y76.136 E.0237
G1 X101.129 Y74.485 E.0849
G1 X101.129 Y75.137 E.02369
G1 X102.779 Y76.787 E.08491
M73 P15 R1
G1 X102.78 Y77.438 E.0237
G1 X101.129 Y75.788 E.08492
G1 X101.129 Y76.439 E.02369
G1 X102.78 Y78.09 E.08493
G1 X102.78 Y78.741 E.0237
G1 X101.129 Y77.09 E.08494
G1 X101.129 Y77.741 E.02369
G1 X102.78 Y79.393 E.08495
G1 X102.78 Y80.044 E.0237
G1 X101.129 Y78.393 E.08496
G1 X101.129 Y79.044 E.02369
G1 X102.78 Y80.695 E.08497
G1 X102.78 Y81.347 E.0237
G1 X101.128 Y79.695 E.08498
G1 X101.128 Y80.346 E.02369
G1 X102.78 Y81.998 E.08499
G1 X102.78 Y82.649 E.0237
G1 X101.128 Y80.997 E.085
G1 X101.128 Y81.649 E.02369
G1 X102.78 Y83.301 E.08501
G1 X102.78 Y83.952 E.0237
G1 X101.128 Y82.3 E.08502
G1 X101.128 Y82.951 E.02369
G1 X102.781 Y84.604 E.08503
G1 X102.781 Y85.255 E.0237
G1 X101.128 Y83.602 E.08504
G1 X101.128 Y84.253 E.02369
G1 X102.781 Y85.906 E.08505
G1 X102.781 Y86.558 E.0237
G1 X101.128 Y84.905 E.08506
G1 X101.127 Y85.556 E.02369
G1 X102.781 Y87.209 E.08507
M73 P16 R1
G1 X102.781 Y87.861 E.0237
G1 X101.127 Y86.207 E.08508
G1 X101.127 Y86.858 E.02369
G1 X101.998 Y87.729 E.04482
G1 X101.417 Y87.799 E.02131
G1 X100.922 Y87.304 E.02548
G1 E-.35 F2400
;WIPE_START
G1 F6300
G1 X101.417 Y87.799 E-.10505
G1 X101.714 Y87.763 E-.04495
;WIPE_END
G1 X102.984 Y92.698 Z.6 F30000
G1 Z.2
G1 E.5 F2400
;WIDTH:0.505831
G1 F6300
G1 X102.489 Y92.203 E.0256
G1 X101.954 Y92.276 E.01974
G1 X101.901 Y92.27 E.00196
G1 X102.778 Y93.147 E.04537
G1 X102.778 Y93.802 E.02394
G1 X101.128 Y92.151 E.08537
G1 X101.128 Y92.806 E.02394
G1 X102.778 Y94.456 E.08537
G1 X102.778 Y95.111 E.02394
G1 X101.128 Y93.46 E.08537
G1 X101.128 Y94.115 E.02394
G1 X102.778 Y95.766 E.08537
G1 X102.779 Y96.42 E.02394
G1 X101.128 Y94.769 E.08538
G1 X101.128 Y95.424 E.02394
G1 X102.779 Y97.075 E.08538
G1 X102.779 Y97.73 E.02394
G1 X101.128 Y96.079 E.08538
G1 X101.128 Y96.733 E.02394
G1 X102.779 Y98.385 E.08538
G1 X102.779 Y99.039 E.02394
G1 X101.128 Y97.388 E.08539
G1 X101.128 Y98.043 E.02394
M73 P17 R1
G1 X102.779 Y99.694 E.08539
G1 X102.779 Y100.349 E.02394
G1 X101.128 Y98.697 E.08539
G1 X101.128 Y99.352 E.02394
G1 X102.779 Y101.003 E.08539
G1 X102.779 Y101.658 E.02394
G1 X101.128 Y100.007 E.08539
G1 X101.128 Y100.661 E.02394
G1 X102.779 Y102.313 E.0854
G1 X102.779 Y102.967 E.02394
G1 X101.128 Y101.316 E.0854
G1 X101.128 Y101.971 E.02394
G1 X102.779 Y103.622 E.0854
G1 X102.779 Y104.277 E.02394
G1 X101.128 Y102.625 E.0854
G1 X101.128 Y103.28 E.02394
G1 X102.779 Y104.932 E.08541
G1 X102.779 Y105.586 E.02394
G1 X101.128 Y103.935 E.08541
G1 X101.128 Y104.589 E.02394
G1 X102.779 Y106.241 E.08541
G1 X102.779 Y106.896 E.02394
G1 X101.128 Y105.244 E.08541
G1 X101.128 Y105.899 E.02394
G1 X102.779 Y107.55 E.08541
G1 X102.779 Y108.205 E.02394
G1 X101.128 Y106.553 E.08542
G1 X101.128 Y107.208 E.02394
G1 X102.779 Y108.86 E.08542
G1 X102.779 Y109.514 E.02394
G1 X101.128 Y107.863 E.08542
M73 P18 R1
G1 X101.128 Y108.517 E.02394
G1 X102.779 Y110.169 E.08542
G1 X102.779 Y110.824 E.02394
G1 X101.128 Y109.172 E.08542
G1 X101.128 Y109.827 E.02394
G1 X102.779 Y111.478 E.08543
G1 X102.78 Y112.133 E.02394
G1 X101.128 Y110.481 E.08543
G1 X101.128 Y111.136 E.02394
