; HEADER_BLOCK_START
; generated by Creality_Print V5.1.6.10470 on 2024-12-10 at 15:59:56
; total layer number: 20
; filament_density: 1.24
; filament_diameter: 1.75
; max_z_height: 4.00
; HEADER_BLOCK_END

; MINX = 98.75
; MINY = 99.10
; MINZ = 0.00
; MAXX = 121.25
; MAXY = 120.90
; MAXZ = 4.00

; THUMBNAIL_BLOCK_START

;
; THUMBNAIL_BLOCK_END

; THUMBNAIL_BLOCK_START

;
; THUMBNAIL_BLOCK_END

; external perimeters extrusion width = 0.42mm
; perimeters extrusion width = 0.45mm
; infill extrusion width = 0.45mm
; solid infill extrusion width = 0.42mm
; top infill extrusion width = 0.42mm
; support material extrusion width = 0.42mm
; first layer extrusion width = 0.50mm

; EXECUTABLE_BLOCK_START
EXCLUDE_OBJECT_DEFINE NAME=Brushless_Motor_Pinion.stl_id_0_copy_0 CENTER=110,110 POLYGON=[[98.75,109.989],[98.7697,109.335],[98.8188,109.147],[100.464,104.1],[100.535,103.918],[100.905,103.378],[101.305,102.861],[101.456,102.737],[105.753,99.6214],[105.918,99.5168],[106.534,99.2972],[107.162,99.1138],[107.357,99.1023],[112.665,99.1075],[112.859,99.1194],[113.487,99.304],[114.103,99.5249],[114.267,99.6298],[118.558,102.754],[118.709,102.878],[119.108,103.396],[119.476,103.937],[119.547,104.118],[121.183,109.168],[121.232,109.357],[121.25,110.011],[121.23,110.665],[121.181,110.853],[119.536,115.9],[119.465,116.082],[119.095,116.622],[118.695,117.139],[118.544,117.263],[114.246,120.379],[114.082,120.483],[113.466,120.703],[112.838,120.886],[112.643,120.898],[107.335,120.892],[107.141,120.881],[106.513,120.696],[105.897,120.475],[105.733,120.37],[101.442,117.246],[101.291,117.122],[100.892,116.604],[100.524,116.063],[100.453,115.882],[98.8171,110.832],[98.7684,110.643],[98.75,109.989]]
M73 P0 R2
M106 S0
M106 P2 S0
;TYPE:Custom
M140 S0
M104 S0 
START_PRINT EXTRUDER_TEMP=230 BED_TEMP=50
M141 S35;set chamber_temperature
G90
G21
M83 ; use relative distances for extrusion
; filament start gcode
M106 S0
;LAYER_CHANGE
;Z:0.2
;HEIGHT:0.2
;BEFORE_LAYER_CHANGE
;0.2
G92 E0

G1 E-.5 F2400
;AFTER_LAYER_CHANGE
;0.2
;_SET_FAN_SPEED_CHANGING_LAYER
SET_VELOCITY_LIMIT ACCEL=1000 ACCEL_TO_DECEL=1000
SET_VELOCITY_LIMIT SQUARE_CORNER_VELOCITY=20
; printing object Brushless Motor Pinion.stl id:0 copy 0
EXCLUDE_OBJECT_START NAME=Brushless_Motor_Pinion.stl_id_0_copy_0
G1 X105.137 Y104.398 F30000
G1 Z.4
G1 Z.2
G1 E.5 F2400
;TYPE:Inner wall
;WIDTH:0.499999
G1 F3600
G1 X106.329 Y103.531 E.05322
G1 X106.574 Y103.192 E.01511
G1 X106.704 Y102.794 E.01511
G1 X106.714 Y102.521 E.00989
G3 X106.461 Y100.233 I12.048 J-2.491 E.08322
G1 X107.142 Y100.013 E.02583
G3 X108.308 Y102.07 I-10.983 J7.589 E.0855
G1 X108.604 Y102.365 E.01511
G1 X108.977 Y102.557 E.01511
G1 X109.303 Y102.61 E.01194
G2 X110.832 Y102.609 I.749 J-33.698 E.05523
G1 X111.23 Y102.479 E.01511
G1 X111.569 Y102.233 E.01511
G1 X111.738 Y102.018 E.00989
G3 X112.878 Y100.018 I11.211 J5.067 E.08322
G1 X113.558 Y100.24 E.02583
G3 X113.317 Y102.323 I-9.969 J-.098 E.07584
G1 X113.294 Y102.703 E.01376
G1 X113.397 Y103.117 E.01541
G1 X113.602 Y103.454 E.01424
G2 X115.018 Y104.51 I15.42 J-19.206 E.06378
G1 X115.416 Y104.638 E.01511
G1 X115.834 Y104.639 E.01511
G1 X116.098 Y104.564 E.00989
G3 X118.195 Y103.616 I6.092 J10.689 E.08322
G1 X118.615 Y104.195 E.02583
M73 P1 R2
G3 X117.196 Y105.739 I-8.007 J-5.938 E.07584
G1 X116.954 Y106.033 E.01376
G1 X116.794 Y106.428 E.01541
G1 X116.766 Y106.869 E.01593
G2 X117.286 Y108.508 I40.881 J-12.086 E.0621
G1 X117.533 Y108.846 E.01511
G1 X117.871 Y109.092 E.01511
G1 X118.129 Y109.186 E.00989
G3 X120.382 Y109.653 I-1.354 J12.228 E.08322
G1 X120.382 Y110.368 E.02583
G3 X118.327 Y110.782 I-2.988 J-9.511 E.07584
G1 X117.958 Y110.878 E.01376
G1 X117.595 Y111.104 E.01541
G1 X117.345 Y111.393 E.0138
G2 X116.772 Y113.076 I22.391 J8.564 E.06421
G1 X116.773 Y113.494 E.0151
G1 X116.902 Y113.892 E.01511
G1 X117.054 Y114.12 E.00989
G3 X118.604 Y115.822 I-8.284 J9.097 E.08322
G1 X118.183 Y116.4 E.02583
G3 X116.03 Y115.422 I4.425 J-12.595 E.0855
G1 X115.617 Y115.356 E.01511
G1 X115.203 Y115.42 E.0151
G1 X114.955 Y115.534 E.00985
G2 X113.671 Y116.469 I147.001 J203.426 E.05735
G1 X113.426 Y116.808 E.01511
G1 X113.296 Y117.205 E.01511
G1 X113.286 Y117.479 E.00989
G3 X113.539 Y119.767 I-12.049 J2.491 E.08322
G1 X112.858 Y119.987 E.02583
G3 X111.692 Y117.93 I10.982 J-7.588 E.0855
G1 X111.396 Y117.635 E.01511
G1 X111.023 Y117.443 E.01511
G1 X110.709 Y117.39 E.01152
G2 X109.168 Y117.391 I-.754 J34.171 E.05566
G1 X108.77 Y117.521 E.01511
G1 X108.431 Y117.767 E.01511
G1 X108.262 Y117.982 E.00989
G3 X107.122 Y119.982 I-11.211 J-5.067 E.08322
G1 X106.442 Y119.76 E.02583
G3 X106.683 Y117.677 I9.969 J.098 E.07584
G1 X106.706 Y117.297 E.01376
G1 X106.603 Y116.883 E.01541
G1 X106.398 Y116.546 E.01424
G2 X104.982 Y115.49 I-15.426 J19.213 E.06378
G1 X104.584 Y115.362 E.01511
G1 X104.166 Y115.361 E.01511
G1 X103.902 Y115.436 E.00989
G3 X101.805 Y116.384 I-6.092 J-10.69 E.08322
G1 X101.385 Y115.805 E.02583
G3 X102.804 Y114.261 I8.008 J5.939 E.07584
G1 X103.046 Y113.967 E.01376
G1 X103.206 Y113.572 E.01541
G1 X103.234 Y113.131 E.01593
G2 X102.714 Y111.492 I-40.882 J12.086 E.0621
G1 X102.467 Y111.154 E.01511
G1 X102.129 Y110.908 E.01511
G1 X101.871 Y110.814 E.00989
G3 X99.618 Y110.347 I1.354 J-12.228 E.08322
G1 X99.618 Y109.632 E.02583
G3 X101.673 Y109.218 I2.988 J9.511 E.07584
M73 P2 R2
G1 X102.042 Y109.122 E.01376
G1 X102.405 Y108.896 E.01541
G1 X102.652 Y108.612 E.01359
G2 X103.228 Y106.924 I-21.254 J-8.201 E.06441
G1 X103.227 Y106.506 E.01511
G1 X103.098 Y106.108 E.01511
G1 X102.946 Y105.88 E.00989
G3 X101.396 Y104.178 I8.284 J-9.097 E.08322
G1 X101.817 Y103.6 E.02583
G3 X103.97 Y104.578 I-4.425 J12.595 E.0855
G1 X104.383 Y104.644 E.01511
G1 X104.797 Y104.58 E.0151
G1 X105.045 Y104.466 E.00985
G1 X105.105 Y104.422 E.00269
G1 X104.42 Y104.188 F30000
;TYPE:Outer wall
G1 F3600
G1 X104.692 Y104.135 E.00999
G2 X105.993 Y103.217 I-22.707 J-33.585 E.0575
G1 X106.184 Y102.954 E.01173
G1 X106.26 Y102.687 E.01004
G2 X106.091 Y101.537 I-10.433 J.948 E.04199
G1 X106.01 Y100.585 E.03448
G1 X106.011 Y99.963 E.02246
G1 X106.112 Y99.872 E.00492
G3 X107.287 Y99.508 I2.939 J7.41 E.04446
G1 X107.4 Y99.584 E.0049
G3 X108.697 Y101.829 I-11.206 J7.971 E.09376
G1 X108.901 Y102.018 E.01003
G1 X109.242 Y102.153 E.01325
G2 X110.794 Y102.154 I.83 J-121.859 E.05601
G2 X111.427 Y101.618 I-.161 J-.832 E.03129
G3 X112.672 Y99.535 I11.292 J5.338 E.08776
G1 X112.808 Y99.521 E.00492
G3 X113.969 Y99.914 I-2.059 J7.998 E.04431
G1 X114.019 Y100.042 E.00494
G3 X113.749 Y102.624 I-13.755 J-.135 E.09388
G2 X113.938 Y103.139 I.899 J-.037 E.02015
G2 X115.254 Y104.119 I16.313 J-20.556 E.05925
G2 X116.081 Y104.058 I.359 J-.768 E.03129
G3 X118.313 Y103.104 I5.997 J10.955 E.08776
G1 X118.431 Y103.173 E.00492
G3 X119.139 Y104.174 I-6.367 J5.26 E.04431
G1 X119.105 Y104.306 E.00494
G3 X117.368 Y106.236 I-11.047 J-8.194 E.09388
G2 X117.218 Y106.764 I.749 J.498 E.02015
G2 X117.708 Y108.33 I29.827 J-8.463 E.05924
G2 X118.413 Y108.767 I.742 J-.41 E.03129
G3 X120.778 Y109.308 I-1.587 J12.389 E.08776
G1 X120.834 Y109.432 E.00492
G3 X120.819 Y110.658 I-8.243 J.513 E.04431
G1 X120.713 Y110.745 E.00494
G3 X118.174 Y111.286 I-4.121 J-13.123 E.09388
G2 X117.645 Y111.868 I.282 J.787 E.02956
G3 X117.217 Y113.18 I-199.195 J-64.207 E.04981
G2 X117.531 Y113.947 I.841 J.104 E.03129
G3 X119.127 Y115.775 I-8.566 J9.09 E.08776
G1 X119.098 Y115.909 E.00492
G3 X118.366 Y116.892 I-6.97 J-4.43 E.04431
M73 P3 R2
G1 X118.229 Y116.9 E.00494
G3 X115.857 Y115.845 I4.379 J-13.039 E.09388
G2 X115.308 Y115.865 I-.242 J.867 E.02015
G2 X114.007 Y116.783 I22.688 J33.56 E.0575
G1 X113.816 Y117.046 E.01173
G1 X113.74 Y117.313 E.01003
G2 X113.909 Y118.463 I10.419 J-.946 E.042
G1 X113.99 Y119.415 E.03448
G1 X113.989 Y120.037 E.02246
G1 X113.888 Y120.128 E.00492
G3 X112.717 Y120.493 I-3.036 J-7.682 E.04431
G1 X112.602 Y120.419 E.00494
G3 X111.303 Y118.171 I11.206 J-7.975 E.09388
G1 X111.099 Y117.982 E.01003
G1 X110.758 Y117.847 E.01325
G2 X109.206 Y117.846 I-.83 J121.886 E.05601
G2 X108.573 Y118.382 I.161 J.832 E.03129
G3 X107.328 Y120.465 I-11.291 J-5.337 E.08776
G1 X107.192 Y120.479 E.00492
G3 X106.031 Y120.086 I2.059 J-7.999 E.04431
G1 X105.981 Y119.958 E.00494
G3 X106.251 Y117.376 I13.753 J.135 E.09388
G2 X106.062 Y116.861 I-.899 J.037 E.02015
G2 X104.746 Y115.881 I-16.317 J20.562 E.05925
G2 X103.919 Y115.942 I-.359 J.768 E.03129
G3 X101.687 Y116.896 I-5.998 J-10.956 E.08776
G1 X101.569 Y116.827 E.00492
G3 X100.861 Y115.826 I6.366 J-5.259 E.04431
G1 X100.895 Y115.694 E.00494
G3 X102.632 Y113.764 I11.047 J8.194 E.09388
G2 X102.782 Y113.236 I-.75 J-.498 E.02015
G2 X102.292 Y111.67 I-29.828 J8.463 E.05924
G2 X101.587 Y111.233 I-.742 J.41 E.03129
G3 X99.222 Y110.692 I1.587 J-12.389 E.08776
G1 X99.166 Y110.568 E.00492
G3 X99.181 Y109.342 I8.242 J-.513 E.04431
G1 X99.287 Y109.255 E.00494
G3 X101.826 Y108.714 I4.121 J13.123 E.09388
G2 X102.355 Y108.132 I-.282 J-.787 E.02957
G3 X102.783 Y106.82 I197.625 J63.696 E.0498
G2 X102.469 Y106.053 I-.841 J-.104 E.03129
G3 X100.873 Y104.225 I8.566 J-9.09 E.08776
G1 X100.902 Y104.091 E.00492
G3 X101.634 Y103.108 I6.972 J4.432 E.04431
G1 X101.771 Y103.1 E.00494
G3 X104.143 Y104.155 I-4.379 J13.039 E.09388
G2 X104.381 Y104.189 I.242 J-.867 E.00868
G1 E-.35 F2400
;WIPE_START
G1 F3600
G1 X104.692 Y104.135 E-.04739
G1 X105.251 Y103.741 E-.10261
;WIPE_END
G1 X109.264 Y110.233 Z.6 F30000
G1 X111.245 Y113.437 Z.6
M73 P4 R2
G1 Z.2
G1 E.5 F2400
;TYPE:Inner wall
G1 F3600
G1 X111.24 Y113.439 E.00018
G1 X110.657 Y113.596 E.0218
G1 X110.057 Y113.655 E.0218
G1 X109.454 Y113.615 E.0218
G1 X108.867 Y113.476 E.0218
G1 X108.31 Y113.242 E.0218
G1 X107.803 Y112.922 E.02164
G1 X107.41 Y112.573 E.01898
G1 X107.001 Y112.086 E.02296
G1 X106.675 Y111.52 E.02357
G1 X106.47 Y110.952 E.0218
G1 X106.374 Y110.431 E.01913
G1 X106.352 Y109.755 E.02445
G1 X106.443 Y109.157 E.02181
G1 X106.636 Y108.57 E.02231
G1 X106.909 Y108.048 E.02127
G1 X107.272 Y107.566 E.0218
G1 X107.71 Y107.15 E.0218
G1 X108.188 Y106.827 E.02085
G1 X108.836 Y106.533 E.02568
G3 X112.59 Y107.427 I1.152 J3.491 E.14669
G1 X112.999 Y107.914 E.02296
G1 X113.325 Y108.48 E.02357
G1 X113.53 Y109.048 E.0218
G1 X113.626 Y109.569 E.01913
G1 X113.646 Y110.26 E.02497
G1 X113.557 Y110.842 E.02127
G1 X113.37 Y111.416 E.0218
G1 X113.091 Y111.952 E.0218
G1 X112.728 Y112.434 E.0218
G1 X112.29 Y112.85 E.0218
G1 X111.812 Y113.173 E.02085
G1 X111.281 Y113.42 E.02112
G1 X111.506 Y112.816 F30000
;TYPE:Outer wall
G1 F3600
G1 X111.057 Y113.02 E.01783
G3 X108.438 Y107.209 I-1.057 J-3.019 E.34282
G1 X108.98 Y106.967 E.02142
G3 X111.562 Y112.791 I1.014 J3.034 E.34103
G1 X111.543 Y112.799 E.00075
G1 E-.35 F2400
;WIPE_START
G1 F3600
G1 X111.057 Y113.02 E-.08007
G1 X110.606 Y113.137 E-.06993
;WIPE_END
G1 X111.836 Y105.605 Z.6 F30000
G1 X112.666 Y100.524 Z.6
G1 Z.2
G1 E.5 F2400
;TYPE:Bottom surface
;WIDTH:0.507007
G1 F6300
G1 X113.196 Y101.054 E.02749
G3 X113.122 Y101.636 I-3.504 J-.15 E.02154
G1 X112.575 Y101.089 E.02836
G2 X112.345 Y101.516 I3.484 J2.145 E.01778
G1 X113.199 Y102.37 E.04425
G1 E-.35 F2400
;WIPE_START
G1 F6300
G1 X112.492 Y101.663 E-.15
;WIPE_END
G1 X117.469 Y104.014 Z.6 F30000
M73 P5 R2
G1 Z.2
G1 E.5 F2400
G1 F6300
G1 X117.963 Y104.508 E.02562
G1 X117.652 Y104.854 E.01704
G1 X117.169 Y104.371 E.02504
G2 X116.734 Y104.592 I1.646 J3.778 E.01791
G1 X117.322 Y105.181 E.0305
G1 X116.984 Y105.499 E.01702
G1 X116.301 Y104.815 E.03544
G1 X116.159 Y104.888 E.00586
G3 X115.79 Y104.961 I-.369 J-.906 E.01386
G1 X116.694 Y105.865 E.04688
G2 X116.494 Y106.321 I1.066 J.739 E.01838
G1 X115.035 Y104.862 E.07565
G3 X114.593 Y104.619 I.51 J-1.451 E.01857
G1 X113.481 Y103.787 E.05093
G3 X112.993 Y102.82 I1.138 J-1.181 E.04045
G1 X112.125 Y101.952 E.04499
G1 X111.978 Y102.245 E.012
G1 X111.878 Y102.361 E.00563
G1 X116.753 Y107.237 E.25277
G1 E-.35 F2400
;WIPE_START
G1 F6300
G1 X116.046 Y106.529 E-.15
;WIPE_END
G1 X119.764 Y109.591 Z.6 F30000
G1 Z.2
G1 E.5 F2400
G1 F6300
G1 X120.067 Y109.894 E.01572
G1 X120.067 Y110.129 E.0086
G3 X119.739 Y110.223 I-.722 J-1.903 E.01251
G1 X118.941 Y109.424 E.0414
G1 E-.35 F2400
;WIPE_START
G1 F6300
G1 X119.648 Y110.131 E-.15
;WIPE_END
G1 X119.372 Y110.512 Z.6 F30000
G1 Z.2
G1 E.5 F2400
G1 F6300
G1 X118.413 Y109.553 E.04971
G3 X116.887 Y108.376 I.081 J-1.682 E.07521
G1 X116.747 Y107.887 E.01864
G1 X111.531 Y102.67 E.27045
G1 X111.475 Y102.714 E.00259
G1 X111.082 Y102.878 E.01561
M73 P6 R2
G1 X118.626 Y110.422 E.39108
G2 X118.062 Y110.515 I.215 J3.058 E.02096
G1 X110.494 Y102.946 E.39239
G1 X109.825 Y102.934 E.0245
G1 X117.606 Y110.715 E.40337
G2 X117.248 Y111.013 I.408 J.852 E.01726
G1 X109.157 Y102.922 E.41947
G3 X107.934 Y102.073 I.227 J-1.632 E.05665
G1 X107.589 Y101.354 E.02922
G1 X106.787 Y100.552 E.0416
G2 X106.844 Y101.265 I4.277 J.016 E.02627
G1 X116.983 Y111.405 E.52566
G1 X116.816 Y111.893 E.01894
G1 X113.81 Y108.887 E.15584
G1 X113.849 Y108.996 E.00424
G1 X113.958 Y109.692 E.02583
G1 X116.648 Y112.382 E.13947
G2 X116.494 Y112.884 I1.774 J.822 E.0193
G1 X113.961 Y110.351 E.13132
G1 X113.868 Y110.914 E.02093
G1 X116.453 Y113.5 E.13402
M73 P7 R2
G1 X116.454 Y113.526 E.00097
G2 X116.826 Y114.343 I1.585 J-.227 E.03336
G3 X118.21 Y115.831 I-8.395 J9.201 E.07457
G1 X118.177 Y115.879 E.00217
G1 X113.708 Y111.411 E.23167
G1 X113.671 Y111.526 E.00444
G1 X113.497 Y111.857 E.01369
G1 X117.384 Y115.743 E.20148
G1 X117.13 Y115.63 E.01018
G1 X116.427 Y115.245 E.02941
G2 X116.095 Y115.111 I-.544 J.87 E.01316
G1 X113.256 Y112.271 E.14722
G1 X112.969 Y112.64 E.01714
G1 X115.384 Y115.056 E.12521
G2 X114.877 Y115.206 I.324 J2.026 E.01941
G1 X112.634 Y112.962 E.11632
G3 X112.268 Y113.253 I-.992 J-.872 E.01721
G1 X114.491 Y115.476 E.11526
G1 X114.105 Y115.746 E.01728
G1 X111.865 Y113.506 E.11612
G1 X111.411 Y113.708 E.01823
G1 X113.719 Y116.016 E.11966
G2 X113.373 Y116.327 I1.552 J2.074 E.01706
G1 X110.909 Y113.862 E.12778
G3 X110.337 Y113.946 I-.56 J-1.821 E.02128
G1 X113.112 Y116.722 E.14389
G1 X112.983 Y117.135 E.01588
G1 X112.975 Y117.241 E.00387
G1 X109.684 Y113.95 E.17062
G3 X108.877 Y113.8 I.011 J-2.297 E.03024
G1 X113.293 Y118.216 E.22895
G1 E-.35 F2400
;WIPE_START
M73 P8 R2
G1 F6300
G1 X112.586 Y117.509 E-.15
;WIPE_END
G1 X111.802 Y109.916 Z.6 F30000
G1 X111.453 Y106.53 Z.6
G1 Z.2
G1 E.5 F2400
G1 F6300
G1 X106.956 Y102.033 E.23315
G1 X107.042 Y102.563 E.01969
G1 X107.025 Y102.759 E.00721
G1 X110.321 Y106.055 E.17083
G2 X109.658 Y106.048 I-.351 J2.058 E.0244
G1 X106.888 Y103.278 E.1436
G3 X106.627 Y103.673 I-1.16 J-.484 E.01747
G1 X109.094 Y106.141 E.12792
G2 X108.592 Y106.295 I.237 J1.661 E.01933
G1 X106.281 Y103.983 E.11984
G1 X105.888 Y104.248 E.01733
G1 X108.134 Y106.494 E.11645
G1 X107.732 Y106.748 E.01744
G1 X105.507 Y104.523 E.11534
G1 X105.186 Y104.757 E.01457
G1 X105.116 Y104.788 E.00281
G1 X107.366 Y107.038 E.11666
G1 X107.031 Y107.36 E.01702
G1 X104.616 Y104.944 E.12521
G3 X104.006 Y104.925 I-.255 J-1.597 E.0225
G1 X103.902 Y104.887 E.00407
G1 X106.744 Y107.729 E.14733
G1 X106.67 Y107.823 E.0044
G1 X106.502 Y108.143 E.01325
G1 X102.616 Y104.257 E.20148
M73 P9 R2
G2 X101.93 Y103.978 I-2.005 J3.948 E.0272
G2 X101.823 Y104.121 I1.173 J.983 E.00653
G1 X106.293 Y108.591 E.23174
G1 X106.132 Y109.086 E.01909
G1 X103.542 Y106.496 E.13429
G3 X103.506 Y107.116 I-1.297 J.236 E.023
G1 X106.039 Y109.649 E.13134
G1 X106.041 Y110.307 E.02413
G1 X103.352 Y107.618 E.13941
G1 X103.184 Y108.107 E.01894
G1 X106.532 Y111.455 E.17357
G1 E-.35 F2400
;WIPE_START
G1 F6300
G1 X105.825 Y110.748 E-.15
;WIPE_END
G1 X102.855 Y108.433 Z.6 F30000
G1 Z.2
G1 E.5 F2400
G1 F6300
G1 X113.156 Y118.735 E.53407
G3 X113.213 Y119.448 I-4.219 J.697 E.02627
G1 X112.412 Y118.647 E.04151
G2 X111.961 Y117.757 I-4.988 J1.97 E.03667
G2 X110.844 Y117.079 I-1.384 J1.02 E.04914
G1 X102.752 Y108.987 E.41951
G3 X102.394 Y109.285 I-.765 J-.553 E.01726
G1 X110.175 Y117.066 E.4034
M73 P10 R2
G1 X109.506 Y117.054 E.02452
G1 X101.938 Y109.485 E.39239
G3 X101.374 Y109.578 I-.778 J-2.965 E.02096
G1 X108.918 Y117.122 E.39108
G1 X108.525 Y117.286 E.01561
G1 X108.469 Y117.33 E.00259
G1 X103.253 Y112.113 E.27044
