; HEADER_BLOCK_START
; generated by Creality_Print V5.1.6.10470 on 2024-12-10 at 16:01:34
; total layer number: 5
; filament_density: 1.24
; filament_diameter: 1.75
; max_z_height: 1.00
; HEADER_BLOCK_END

; MINX = 90.07
; MINY = 117.34
; MINZ = 0.00
; MAXX = 125.97
; MAXY = 129.99
; MAXZ = 1.00

; THUMBNAIL_BLOCK_START

;
; THUMBNAIL_BLOCK_END

; THUMBNAIL_BLOCK_START

;
; THUMBNAIL_BLOCK_END

; external perimeters extrusion width = 0.42mm
; perimeters extrusion width = 0.45mm
; infill extrusion width = 0.45mm
; solid infill extrusion width = 0.42mm
; top infill extrusion width = 0.42mm
; support material extrusion width = 0.42mm
; first layer extrusion width = 0.50mm

; external perimeters extrusion width = 0.42mm
; perimeters extrusion width = 0.45mm
; infill extrusion width = 0.45mm
; solid infill extrusion width = 0.42mm
; top infill extrusion width = 0.42mm
; support material extrusion width = 0.42mm
; first layer extrusion width = 0.50mm

; external perimeters extrusion width = 0.42mm
; perimeters extrusion width = 0.45mm
; infill extrusion width = 0.45mm
; solid infill extrusion width = 0.42mm
; top infill extrusion width = 0.42mm
; support material extrusion width = 0.42mm
; first layer extrusion width = 0.50mm

; external perimeters extrusion width = 0.42mm
; perimeters extrusion width = 0.45mm
; infill extrusion width = 0.45mm
; solid infill extrusion width = 0.42mm
; top infill extrusion width = 0.42mm
; support material extrusion width = 0.42mm
; first layer extrusion width = 0.50mm

; EXECUTABLE_BLOCK_START
EXCLUDE_OBJECT_DEFINE NAME=Connector.stl_id_0_copy_0 CENTER=103.017,123.659 POLYGON=[[100.017,120.359],[100.054,119.889],[100.164,119.432],[100.344,118.997],[100.59,118.595],[100.896,118.237],[101.254,117.932],[101.655,117.686],[102.09,117.505],[102.548,117.396],[103.017,117.359],[103.487,117.396],[103.944,117.505],[104.379,117.686],[104.781,117.932],[105.139,118.237],[105.444,118.595],[105.69,118.997],[105.871,119.432],[105.98,119.889],[106.017,120.359],[106.017,126.959],[105.98,127.428],[105.871,127.886],[105.69,128.321],[105.444,128.722],[105.139,129.08],[104.781,129.386],[104.379,129.632],[103.944,129.812],[103.487,129.922],[103.017,129.959],[102.548,129.922],[102.09,129.812],[101.655,129.632],[101.254,129.386],[100.896,129.08],[100.59,128.722],[100.344,128.321],[100.164,127.886],[100.054,127.428],[100.017,126.959],[100.017,120.359]]
EXCLUDE_OBJECT_DEFINE NAME=Connector.stl_id_1_copy_0 CENTER=93.0686,123.694 POLYGON=[[90.0686,120.394],[90.1055,119.925],[90.2154,119.467],[90.3956,119.032],[90.6416,118.631],[90.9473,118.273],[91.3052,117.967],[91.7066,117.721],[92.1416,117.541],[92.5993,117.431],[93.0686,117.394],[93.5379,117.431],[93.9956,117.541],[94.4306,117.721],[94.832,117.967],[95.1899,118.273],[95.4956,118.631],[95.7416,119.032],[95.9218,119.467],[96.0317,119.925],[96.0686,120.394],[96.0686,126.994],[96.0317,127.463],[95.9218,127.921],[95.7416,128.356],[95.4956,128.757],[95.1899,129.115],[94.832,129.421],[94.4306,129.667],[93.9956,129.847],[93.5379,129.957],[93.0686,129.994],[92.5993,129.957],[92.1416,129.847],[91.7066,129.667],[91.3052,129.421],[90.9473,129.115],[90.6416,128.757],[90.3956,128.356],[90.2154,127.921],[90.1055,127.463],[90.0686,126.994],[90.0686,120.394]]
EXCLUDE_OBJECT_DEFINE NAME=Connector.stl_id_2_copy_0 CENTER=113.017,123.638 POLYGON=[[110.017,120.338],[110.054,119.869],[110.164,119.411],[110.344,118.976],[110.59,118.575],[110.896,118.217],[111.254,117.911],[111.655,117.665],[112.09,117.485],[112.548,117.375],[113.017,117.338],[113.486,117.375],[113.944,117.485],[114.379,117.665],[114.78,117.911],[115.138,118.217],[115.444,118.575],[115.69,118.976],[115.87,119.411],[115.98,119.869],[116.017,120.338],[116.017,126.938],[115.98,127.407],[115.87,127.865],[115.69,128.3],[115.444,128.701],[115.138,129.059],[114.78,129.365],[114.379,129.611],[113.944,129.791],[113.486,129.901],[113.017,129.938],[112.548,129.901],[112.09,129.791],[111.655,129.611],[111.254,129.365],[110.896,129.059],[110.59,128.701],[110.344,128.3],[110.164,127.865],[110.054,127.407],[110.017,126.938],[110.017,120.338]]
EXCLUDE_OBJECT_DEFINE NAME=Connector.stl_id_3_copy_0 CENTER=122.969,123.636 POLYGON=[[119.969,120.336],[120.005,119.867],[120.115,119.409],[120.296,118.974],[120.542,118.573],[120.847,118.215],[121.205,117.909],[121.607,117.663],[122.042,117.483],[122.499,117.373],[122.969,117.336],[123.438,117.373],[123.896,117.483],[124.331,117.663],[124.732,117.909],[125.09,118.215],[125.396,118.573],[125.642,118.974],[125.822,119.409],[125.932,119.867],[125.969,120.336],[125.969,126.936],[125.932,127.406],[125.822,127.863],[125.642,128.298],[125.396,128.7],[125.09,129.058],[124.732,129.363],[124.331,129.609],[123.896,129.789],[123.438,129.899],[122.969,129.936],[122.499,129.899],[122.042,129.789],[121.607,129.609],[121.205,129.363],[120.847,129.058],[120.542,128.7],[120.296,128.298],[120.115,127.863],[120.005,127.406],[119.969,126.936],[119.969,120.336]]
M73 P0 R1
M106 S0
M106 P2 S0
;TYPE:Custom
M140 S0
M104 S0 
START_PRINT EXTRUDER_TEMP=230 BED_TEMP=50
M141 S35;set chamber_temperature
G90
G21
M83 ; use relative distances for extrusion
; filament start gcode
M106 S0
;LAYER_CHANGE
;Z:0.2
;HEIGHT:0.2
;BEFORE_LAYER_CHANGE
;0.2
G92 E0

G1 E-.5 F2400
;AFTER_LAYER_CHANGE
;0.2
;_SET_FAN_SPEED_CHANGING_LAYER
SET_VELOCITY_LIMIT ACCEL=1000 ACCEL_TO_DECEL=1000
SET_VELOCITY_LIMIT SQUARE_CORNER_VELOCITY=20
; printing object Connector.stl id:1 copy 0
EXCLUDE_OBJECT_START NAME=Connector.stl_id_1_copy_0
G1 X94.394 Y118.637 F30000
M73 P1 R1
G1 Z.4
G1 Z.2
G1 E.5 F2400
;TYPE:Inner wall
;WIDTH:0.367272
G1 F3600
G1 X94.705 Y118.918 E.01075
;WIDTH:0.364469
G1 X95.041 Y119.403 E.01498
G1 X95.222 Y119.926 E.01405
;WIDTH:0.364087
G1 X95.28 Y120.431 E.0129
;WIDTH:0.391395
G1 X95.266 Y120.863 E.01188
;WIDTH:0.427597
G1 X95.248 Y121.033 E.00521
;WIDTH:0.463798
G1 X95.23 Y121.204 E.0057
;WIDTH:0.499999
G1 X95.212 Y121.374 E.00619
G1 X95.212 Y125.772 E.15879
G1 X95.224 Y126.059 E.01039
;WIDTH:0.474292
G1 X95.237 Y126.347 E.0098
;WIDTH:0.448584
G1 X95.258 Y126.658 E.01
;WIDTH:0.406336
G1 X95.279 Y126.969 E.00896
;WIDTH:0.364023
G1 X95.204 Y127.541 E.01462
G1 X95.027 Y128.012 E.01277
G1 X94.679 Y128.501 E.01521
;WIDTH:0.361368
G1 X94.26 Y128.848 E.01367
;WIDTH:0.364454
G1 X93.763 Y129.089 E.01406
;WIDTH:0.367264
G1 X93.426 Y129.171 E.00887
G1 X92.955 Y129.195 E.01209
;WIDTH:0.364021
G1 X92.404 Y129.099 E.01419
G1 X91.945 Y128.891 E.01277
;WIDTH:0.362174
G1 X91.498 Y128.547 E.01423
G1 X91.172 Y128.117 E.0136
;WIDTH:0.364052
G1 X90.964 Y127.659 E.01277
G1 X90.864 Y127.067 E.01522
;WIDTH:0.388775
G1 X90.87 Y126.56 E.01387
;WIDTH:0.42585
G1 X90.889 Y126.378 E.00553
;WIDTH:0.462925
G1 X90.907 Y126.196 E.00606
;WIDTH:0.499999
G1 X90.926 Y126.014 E.0066
G1 X90.926 Y121.374 E.16754
G1 X90.907 Y121.192 E.0066
;WIDTH:0.462925
M73 P2 R1
G1 X90.889 Y121.01 E.00606
;WIDTH:0.42585
G1 X90.87 Y120.828 E.00553
;WIDTH:0.388775
G1 X90.868 Y120.28 E.01497
;WIDTH:0.364052
G1 X90.964 Y119.729 E.01419
G1 X91.172 Y119.271 E.01277
;WIDTH:0.362175
G1 X91.516 Y118.824 E.01423
G1 X91.945 Y118.497 E.0136
;WIDTH:0.36402
G1 X92.404 Y118.289 E.01277
G1 X92.995 Y118.19 E.01521
;WIDTH:0.361355
G1 X93.537 Y118.241 E.01367
;WIDTH:0.364462
G1 X94.06 Y118.422 E.01406
;WIDTH:0.367272
G1 X94.355 Y118.602 E.00887
G1 X94.364 Y118.61 E.00032
G1 E-.35 F2400
;WIPE_START
G1 F3600
G1 X94.705 Y118.918 E-.06893
G1 X95.013 Y119.363 E-.08107
;WIPE_END
G1 X92.938 Y118.529 Z.6 F30000
G1 Z.2
G1 E.5 F2400
;WIDTH:0.36151
G1 F3600
G1 X93.149 Y118.51 E.00532
;WIDTH:0.364455
G1 X93.64 Y118.596 E.01265
G1 X94.08 Y118.803 E.01237
;WIDTH:0.361503
G1 X94.458 Y119.119 E.01239
;WIDTH:0.364469
G1 X94.744 Y119.526 E.01265
G1 X94.909 Y119.984 E.01236
;WIDTH:0.366985
G1 X94.955 Y120.475 E.01262
;WIDTH:0.403724
G1 X94.93 Y120.725 E.00716
;WIDTH:0.440462
G1 X94.904 Y120.975 E.00789
;WIDTH:0.470231
G1 X94.854 Y121.134 E.00563
;WIDTH:0.499999
G1 X94.804 Y121.293 E.00602
G1 X94.513 Y121.712 E.01842
G1 X94.123 Y122.04 E.01842
G1 X93.66 Y122.257 E.01843
G1 X93.158 Y122.347 E.01842
G1 X92.65 Y122.303 E.01842
G1 X92.17 Y122.13 E.01842
G1 X91.751 Y121.838 E.01843
G1 X91.422 Y121.448 E.01842
G3 X91.293 Y121.131 I.477 J-.379 E.01254
;WIDTH:0.462925
G1 X91.254 Y120.968 E.00554
;WIDTH:0.42585
G1 X91.214 Y120.806 E.00505
;WIDTH:0.388775
G1 X91.185 Y120.314 E.01347
;WIDTH:0.364482
G1 X91.27 Y119.823 E.01265
G1 X91.477 Y119.382 E.01237
;WIDTH:0.362175
G1 X91.733 Y119.058 E.01041
;WIDTH:0.364033
G1 X92.196 Y118.721 E.01453
G1 X92.659 Y118.554 E.01249
;WIDTH:0.36151
M73 P3 R1
G1 X92.899 Y118.532 E.00606
G1 X92.709 Y118.938 F30000
;TYPE:Outer wall
;WIDTH:0.499999
G1 F3600
G1 X93.098 Y118.895 E.01414
G1 X93.491 Y118.956 E.01433
G1 X93.844 Y119.11 E.01394
G1 X94.15 Y119.355 E.01414
G1 X94.384 Y119.675 E.01433
G1 X94.525 Y120.035 E.01393
G1 X94.568 Y120.424 E.01414
G1 X94.509 Y120.811 E.01414
G1 X94.352 Y121.17 E.01414
G1 X94.108 Y121.476 E.01414
G1 X93.793 Y121.708 E.01414
G1 X93.428 Y121.85 E.01414
G1 X93.039 Y121.894 E.01414
G1 X92.652 Y121.835 E.01414
G1 X92.293 Y121.678 E.01414
G1 X91.987 Y121.433 E.01414
G1 X91.755 Y121.118 E.01414
G1 X91.613 Y120.753 E.01414
G1 X91.569 Y120.364 E.01414
G1 X91.63 Y119.972 E.01433
G1 X91.785 Y119.619 E.01394
G1 X92.007 Y119.332 E.01308
G1 X92.35 Y119.078 E.0154
G1 X92.672 Y118.953 E.01249
G1 E-.35 F2400
;WIPE_START
G1 F3600
G1 X93.098 Y118.895 E-.06454
G1 X93.491 Y118.956 E-.05954
G1 X93.649 Y119.025 E-.02592
;WIPE_END
G1 X92.204 Y126.519 Z.6 F30000
G1 X91.841 Y128.405 Z.6
G1 Z.2
G1 E.5 F2400
;TYPE:Inner wall
;WIDTH:0.361504
G1 F3600
G1 X91.68 Y128.269 E.0053
;WIDTH:0.36447
G1 X91.393 Y127.862 E.01265
G1 X91.228 Y127.404 E.01236
;WIDTH:0.366985
G1 X91.182 Y126.913 E.01262
;WIDTH:0.407785
G1 X91.206 Y126.663 E.00725
;WIDTH:0.448585
M73 P4 R1
G1 X91.229 Y126.412 E.00807
;WIDTH:0.474292
G1 X91.326 Y126.176 E.00868
;WIDTH:0.499999
G1 X91.422 Y125.94 E.0092
G1 X91.751 Y125.55 E.01842
G1 X92.17 Y125.258 E.01843
G1 X92.65 Y125.085 E.01842
G1 X93.158 Y125.041 E.01842
G1 X93.66 Y125.131 E.01842
G1 X94.123 Y125.348 E.01843
G1 X94.513 Y125.677 E.01842
G1 X94.804 Y126.095 E.01842
G1 X94.856 Y126.254 E.00602
;WIDTH:0.474292
G1 X94.908 Y126.412 E.00568
;WIDTH:0.448584
G1 X94.932 Y126.663 E.00807
;WIDTH:0.407785
G1 X94.955 Y126.913 E.00725
;WIDTH:0.366985
G1 X94.896 Y127.467 E.01426
;WIDTH:0.359257
G1 X94.696 Y127.952 E.01311
;WIDTH:0.36098
G1 X94.369 Y128.363 E.01318
;WIDTH:0.364031
G1 X93.941 Y128.667 E.01331
G1 X93.479 Y128.835 E.01249
;WIDTH:0.361511
G1 X92.988 Y128.878 E.01239
;WIDTH:0.364457
G1 X92.498 Y128.792 E.01265
G1 X92.057 Y128.585 E.01237
;WIDTH:0.361504
G1 X91.872 Y128.43 E.00608
G1 X92.293 Y128.278 F30000
;TYPE:Outer wall
;WIDTH:0.499999
G1 F3600
G1 X91.987 Y128.033 E.01414
G1 X91.753 Y127.713 E.01433
G1 X91.613 Y127.353 E.01393
G1 X91.569 Y126.964 E.01414
G1 X91.628 Y126.577 E.01414
G1 X91.785 Y126.219 E.01414
G1 X92.029 Y125.913 E.01414
G1 X92.345 Y125.681 E.01414
G1 X92.709 Y125.538 E.01414
G1 X93.098 Y125.495 E.01414
G1 X93.486 Y125.553 E.01414
G1 X93.844 Y125.71 E.01414
G1 X94.15 Y125.955 E.01414
G1 X94.382 Y126.27 E.01414
G1 X94.525 Y126.635 E.01414
G1 X94.568 Y127.024 E.01414
G1 X94.507 Y127.416 E.01433
G1 X94.352 Y127.77 E.01394
G1 X94.108 Y128.076 E.01414
G1 X93.788 Y128.31 E.01433
G1 X93.428 Y128.45 E.01394
G1 X93.039 Y128.494 E.01414
G1 X92.647 Y128.433 E.01433
G1 X92.33 Y128.294 E.01249
G1 E-.35 F2400
;WIPE_START
G1 F3600
G1 X91.987 Y128.033 E-.06454
G1 X91.753 Y127.713 E-.05955
G1 X91.69 Y127.552 E-.02591
;WIPE_END
G1 X93.715 Y120.193 Z.6 F30000
M73 P5 R1
G1 X94.29 Y118.104 Z.6
G1 Z.2
G1 E.5 F2400
G1 F3600
G1 X94.796 Y118.463 E.0224
G1 X95.143 Y118.834 E.01833
G1 X95.401 Y119.254 E.01782
G1 X95.599 Y119.836 E.02218
G1 X95.669 Y120.431 E.02166
G1 X95.669 Y126.56 E.22127
G3 X95.401 Y128.134 I-3.54 J.207 E.05815
G1 X95.171 Y128.522 E.01627
G1 X94.827 Y128.899 E.01844
G1 X94.394 Y129.221 E.01948
G1 X93.912 Y129.449 E.01927
G1 X93.432 Y129.564 E.01782
G1 X92.924 Y129.582 E.01833
G1 X92.313 Y129.477 E.0224
G1 X91.847 Y129.284 E.01821
G1 X91.341 Y128.926 E.0224
G1 X90.994 Y128.555 E.01833
G1 X90.737 Y128.134 E.01782
G1 X90.538 Y127.553 E.02218
G1 X90.469 Y126.978 E.02088
G1 X90.469 Y120.828 E.22205
M73 P6 R0
G3 X90.737 Y119.254 I3.54 J-.207 E.05815
G1 X90.966 Y118.867 E.01627
G1 X91.31 Y118.489 E.01844
G1 X91.743 Y118.168 E.01948
G1 X92.226 Y117.939 E.01927
G1 X92.706 Y117.824 E.01782
G1 X93.213 Y117.807 E.01833
G1 X93.824 Y117.911 E.02239
G1 X94.253 Y118.089 E.01676
G1 E-.35 F2400
;WIPE_START
G1 F3600
G1 X94.796 Y118.463 E-.09891
G1 X95.029 Y118.712 E-.05109
;WIPE_END
G1 X95.097 Y122.675 Z.6 F30000
G1 Z.2
G1 E.5 F2400
;TYPE:Bottom surface
;WIDTH:0.521886
G1 F6300
G1 X94.543 Y122.121 E.02964
G3 X94.142 Y122.397 I-1.248 J-1.387 E.01848
G1 X94.892 Y123.146 E.04012
G1 X94.892 Y123.824 E.02563
G1 X93.658 Y122.59 E.06599
G1 X93.063 Y122.673 E.02273
G1 X94.892 Y124.501 E.09784
G1 X94.892 Y125.178 E.02563
G1 X92.203 Y122.49 E.14384
M73 P7 R0
G3 X91.308 Y121.824 I.873 J-2.109 E.04266
G1 X91.246 Y121.845 E.00248
G1 X91.246 Y122.21 E.0138
G1 X93.934 Y124.898 E.14383
G2 X93.587 Y124.776 I-.762 J1.621 E.01394
G1 X93.074 Y124.716 E.01953
G1 X91.246 Y122.887 E.09783
G1 X91.246 Y123.565 E.02563
G1 X92.479 Y124.798 E.06599
G2 X91.995 Y124.992 I1.056 J3.334 E.01973
G1 X91.246 Y124.242 E.04012
G1 X91.246 Y124.919 E.02563
G1 X91.741 Y125.414 E.02648
G1 E-.35 F2400
;WIPE_START
G1 F6300
G1 X91.246 Y124.919 E-.10498
G1 X91.246 Y124.619 E-.04502
;WIPE_END
G1 X94.983 Y125.505 Z.6 F30000
M73 P8 R0
G1 Z.2
G1 E.5 F2400
;TYPE:Gap infill
;WIDTH:0.21457
G1 F3600
G3 X94.832 Y125.558 I-.314 J-.665 E.00218
G2 X94.312 Y125.079 I-10.356 J10.732 E.00958
;WIDTH:0.243828
G1 X94.172 Y124.972 E.00279
; stop printing object Connector.stl id:1 copy 0
; printing object Connector.stl id:0 copy 0
G1 E-.38262 F2400
;WIPE_START
G1 F3600
G1 X94.312 Y125.079 E-.11738
;WIPE_END
EXCLUDE_OBJECT_END NAME=Connector.stl_id_1_copy_0
EXCLUDE_OBJECT_START NAME=Connector.stl_id_0_copy_0
G1 X100.724 Y120.939 Z.6 F30000
G1 X104.343 Y118.602 Z.6
G1 Z.2
G1 E.5 F2400
;TYPE:Inner wall
;WIDTH:0.367272
G1 F3600
G1 X104.654 Y118.883 E.01075
;WIDTH:0.364469
G1 X104.99 Y119.368 E.01498
G1 X105.171 Y119.891 E.01405
;WIDTH:0.364087
G1 X105.228 Y120.396 E.0129
;WIDTH:0.391395
G1 X105.215 Y120.827 E.01188
;WIDTH:0.427597
G1 X105.196 Y120.998 E.00521
;WIDTH:0.463798
G1 X105.178 Y121.168 E.0057
;WIDTH:0.499999
G1 X105.16 Y121.338 E.00619
G1 X105.16 Y125.736 E.15879
G1 X105.173 Y126.024 E.01039
;WIDTH:0.474292
G1 X105.186 Y126.311 E.0098
;WIDTH:0.448584
G1 X105.207 Y126.622 E.01
;WIDTH:0.406336
G1 X105.228 Y126.934 E.00896
;WIDTH:0.364023
G1 X105.153 Y127.506 E.01462
G1 X104.976 Y127.977 E.01277
G1 X104.628 Y128.465 E.01521
;WIDTH:0.361368
G1 X104.209 Y128.812 E.01367
;WIDTH:0.364454
M73 P9 R0
G1 X103.711 Y129.054 E.01406
;WIDTH:0.367264
G1 X103.375 Y129.135 E.00887
G1 X102.904 Y129.159 E.01209
;WIDTH:0.364021
G1 X102.353 Y129.063 E.01419
G1 X101.894 Y128.855 E.01277
;WIDTH:0.362174
G1 X101.447 Y128.511 E.01423
G1 X101.121 Y128.082 E.0136
;WIDTH:0.364052
G1 X100.913 Y127.623 E.01277
G1 X100.813 Y127.032 E.01522
;WIDTH:0.388775
G1 X100.819 Y126.524 E.01387
;WIDTH:0.42585
G1 X100.837 Y126.342 E.00553
;WIDTH:0.462925
G1 X100.856 Y126.161 E.00606
;WIDTH:0.499999
G1 X100.874 Y125.979 E.0066
G1 X100.874 Y121.338 E.16754
G1 X100.856 Y121.157 E.0066
;WIDTH:0.462925
G1 X100.837 Y120.975 E.00606
;WIDTH:0.42585
G1 X100.819 Y120.793 E.00553
;WIDTH:0.388775
G1 X100.817 Y120.245 E.01497
;WIDTH:0.364052
G1 X100.913 Y119.694 E.01419
G1 X101.121 Y119.235 E.01277
;WIDTH:0.362175
G1 X101.465 Y118.788 E.01423
G1 X101.894 Y118.462 E.0136
;WIDTH:0.36402
G1 X102.353 Y118.254 E.01277
G1 X102.944 Y118.154 E.01521
;WIDTH:0.361355
G1 X103.485 Y118.205 E.01367
;WIDTH:0.364462
G1 X104.008 Y118.386 E.01406
;WIDTH:0.367272
G1 X104.304 Y118.567 E.00887
G1 X104.313 Y118.575 E.00032
G1 E-.35 F2400
;WIPE_START
G1 F3600
G1 X104.654 Y118.883 E-.06893
G1 X104.962 Y119.327 E-.08107
;WIPE_END
G1 X102.887 Y118.493 Z.6 F30000
G1 Z.2
G1 E.5 F2400
;WIDTH:0.36151
G1 F3600
