; HEADER_BLOCK_START
; generated by Creality_Print V5.1.6.10470 on 2024-12-10 at 16:05:02
; total layer number: 66
; filament_density: 1.24
; filament_diameter: 1.75
; max_z_height: 12.00
; HEADER_BLOCK_END

; MINX = 76.03
; MINY = 78.76
; MINZ = -0.00
; MAXX = 138.31
; MAXY = 141.24
; MAXZ = 12.00

; THUMBNAIL_BLOCK_START

;
; THUMBNAIL_BLOCK_END

; THUMBNAIL_BLOCK_START

;
; THUMBNAIL_BLOCK_END

; external perimeters extrusion width = 0.42mm
; perimeters extrusion width = 0.45mm
; infill extrusion width = 0.45mm
; solid infill extrusion width = 0.42mm
; top infill extrusion width = 0.42mm
; support material extrusion width = 0.42mm
; first layer extrusion width = 0.50mm

; EXECUTABLE_BLOCK_START
EXCLUDE_OBJECT_DEFINE NAME=Gear_2.stl_id_0_copy_0 CENTER=107.172,110 POLYGON=[[76.0328,107.366],[76.1656,106.102],[77.2609,100.949],[77.6535,99.7411],[79.7963,94.9283],[80.4314,93.8282],[83.5281,89.566],[84.3781,88.622],[88.2932,85.0968],[89.3209,84.3501],[93.8834,81.7159],[95.0439,81.1993],[100.054,79.5713],[101.297,79.3071],[106.536,78.7565],[107.807,78.7565],[113.046,79.3071],[114.289,79.5713],[119.299,81.1993],[120.46,81.7159],[125.022,84.3501],[126.05,85.0968],[129.965,88.622],[130.815,89.566],[133.912,93.8282],[134.547,94.9283],[136.69,99.7411],[137.082,100.949],[138.178,106.102],[138.31,107.366],[138.31,112.634],[138.178,113.898],[137.082,119.051],[136.69,120.259],[134.547,125.072],[133.912,126.172],[130.815,130.434],[129.965,131.378],[126.05,134.903],[125.022,135.65],[120.46,138.284],[119.299,138.801],[114.289,140.429],[113.046,140.693],[107.807,141.244],[106.536,141.244],[101.297,140.693],[100.054,140.429],[95.0439,138.801],[93.8834,138.284],[89.3209,135.65],[88.2932,134.903],[84.3781,131.378],[83.5281,130.434],[80.4314,126.172],[79.7963,125.072],[77.6535,120.259],[77.2609,119.051],[76.1656,113.898],[76.0328,112.634],[76.0328,107.366]]
M73 P0 R15
M106 S0
M106 P2 S0
;TYPE:Custom
M140 S0
M104 S0 
START_PRINT EXTRUDER_TEMP=230 BED_TEMP=50
M141 S35;set chamber_temperature
G90
G21
M83 ; use relative distances for extrusion
; filament start gcode
M106 S0
;LAYER_CHANGE
;Z:0.2
;HEIGHT:0.2
;BEFORE_LAYER_CHANGE
;0.2
G92 E0

G1 E-.5 F2400
;AFTER_LAYER_CHANGE
;0.2
;_SET_FAN_SPEED_CHANGING_LAYER
SET_VELOCITY_LIMIT ACCEL=1000 ACCEL_TO_DECEL=1000
SET_VELOCITY_LIMIT SQUARE_CORNER_VELOCITY=20
; printing object Gear 2.stl id:0 copy 0
EXCLUDE_OBJECT_START NAME=Gear_2.stl_id_0_copy_0
G1 X104.631 Y107.799 F30000
G1 Z.4
G1 Z.2
G1 E.5 F2400
;TYPE:Support
;WIDTH:0.5
G1 F3600
G3 X106.189 Y106.844 I2.359 J2.102 E.06692
G3 X106.854 Y109.885 I-.559 J1.715 E.13555
G2 X107.365 Y110.24 I.305 J.107 E.03031
G3 X110.396 Y110.962 I1.31 J1.223 E.13636
G3 X107.912 Y113.106 I-2.853 J-.795 E.12556
G2 X106.92 Y112.407 I-3.169 J3.444 E.04391
G3 X105.354 Y112.828 I-1.022 J-.679 E.06397
G3 X103.931 Y110.412 I2.094 J-2.86 E.10406
G2 X104.3 Y109.782 I-1.971 J-1.576 E.02646
G3 X103.946 Y109.053 I.816 J-.847 E.02987
G3 X104.605 Y107.828 I3.044 J.848 E.05064
G1 X105.046 Y108.162 F30000
G1 F3600
G3 X106.205 Y107.342 I2.486 J2.285 E.05164
G3 X106.409 Y109.684 I-.593 J1.232 E.10221
G2 X107.958 Y110.338 I.783 J.309 E.09399
G3 X109.909 Y110.926 I.721 J1.14 E.08339
G3 X107.958 Y112.611 I-2.283 J-.671 E.09835
G3 X107.396 Y111.979 I.938 J-1.401 E.03085
G1 X106.726 Y111.937 E.02425
G3 X105.607 Y112.434 I-.834 J-.369 E.04846
G3 X104.364 Y110.565 I1.425 J-2.295 E.08358
G2 X104.416 Y109.146 I-.489 J-.729 E.05976
G3 X105.02 Y108.191 I3.116 J1.301 E.04097
G1 X105.338 Y108.411 F30000
G1 F3600
G3 X106.14 Y107.811 I1.645 J1.362 E.03649
G1 X106.28 Y107.951 E.00714
G3 X106.316 Y109.125 I-.649 J.608 E.04633
G2 X106.23 Y110.759 I.502 J.846 E.06974
G1 X106.633 Y111.351 E.02587
G3 X105.912 Y112.093 I-2.632 J-1.834 E.0375
G3 X104.885 Y110.652 I1.064 J-1.846 E.06591
G1 X105.18 Y110.357 E.01508
G1 X105.234 Y109.495 E.03118
G1 X104.948 Y109.126 E.01686
G3 X105.313 Y108.442 I2.035 J.647 E.02815
G1 X108 Y110.926 F30000
G1 F3600
G1 X108.148 Y110.738 E.00864
G3 X108.735 Y110.588 I.601 J1.127 E.0221
G3 X109.239 Y111.288 I.119 J.446 E.04022
G3 X108.124 Y112.175 I-1.532 J-.783 E.05303
G3 X107.558 Y111.404 I2.208 J-2.215 E.03466
G1 X107.973 Y110.956 E.02205
G1 E-.35 F2400
;WIPE_START
G1 F3600
G1 X108.148 Y110.738 E-.04186
G1 X108.735 Y110.588 E-.09093
G1 X108.836 Y110.642 E-.01721
;WIPE_END
G1 X115.484 Y106.891 Z.6 F30000
G1 X131.724 Y97.726 Z.6
G1 Z.2
G1 E.5 F2400
;TYPE:Inner wall
;WIDTH:0.499999
G1 F3600
G1 X131.793 Y97.992 E.00989
G3 X132.548 Y99.687 I-24.643 J12.003 E.06704
G1 X132.782 Y100.083 E.0166
G1 X133.177 Y100.402 E.01832
G1 X133.647 Y100.551 E.01782
G2 X134.848 Y100.379 I-.725 J-9.326 E.04382
G1 X135.962 Y100.275 E.0404
G1 X136.18 Y100.945 E.02543
G3 X134.518 Y101.837 I-5.511 J-8.276 E.06819
G1 X134.145 Y102.082 E.01614
G1 X133.852 Y102.479 E.01782
G1 X133.73 Y102.876 E.01498
G1 X133.751 Y103.373 E.01797
G3 X134.149 Y105.243 I-27.389 J6.799 E.06903
G1 X134.284 Y105.625 E.01462
G1 X134.604 Y106.018 E.01832
G1 X135.033 Y106.263 E.01782
G2 X136.243 Y106.344 I1.23 J-9.273 E.04382
G1 X137.355 Y106.473 E.0404
G1 X137.428 Y107.174 E.02543
G3 X135.618 Y107.701 I-3.669 J-9.241 E.06819
G1 X135.201 Y107.863 E.01614
G1 X134.833 Y108.191 E.01782
G1 X134.631 Y108.553 E.01498
G1 X134.548 Y109.043 E.01792
G3 X134.548 Y110.956 I-28.244 J.957 E.06908
G1 X134.601 Y111.357 E.01462
G1 X134.833 Y111.809 E.01832
G1 X135.201 Y112.137 E.01782
G2 X136.368 Y112.468 I3.131 J-8.815 E.04382
G1 X137.428 Y112.826 E.0404
G1 X137.355 Y113.527 E.02543
G3 X135.474 Y113.665 I-1.668 J-9.802 E.06819
G1 X135.033 Y113.737 E.01614
G1 X134.604 Y113.982 E.01782
G1 X134.332 Y114.294 E.01498
G1 X134.149 Y114.757 E.01797
G3 X133.751 Y116.627 I-27.787 J-4.929 E.06903
G1 X133.72 Y117.031 E.01462
G1 X133.852 Y117.521 E.01832
G1 X134.145 Y117.918 E.01782
G2 X135.217 Y118.484 I4.895 J-7.971 E.04382
G1 X136.18 Y119.055 E.0404
G1 X135.962 Y119.724 E.02541
G3 X134.094 Y119.47 I.394 J-9.869 E.06819
G1 X133.647 Y119.449 E.01614
G1 X133.177 Y119.598 E.01782
G1 X132.845 Y119.847 E.01498
G1 X132.57 Y120.262 E.01797
G3 X131.793 Y122.008 I-26.164 J-10.602 E.06903
G1 X131.678 Y122.397 E.01462
G1 X131.705 Y122.903 E.01832
G1 X131.909 Y123.353 E.01782
G2 X132.84 Y124.13 I6.445 J-6.778 E.04382
G1 X133.663 Y124.888 E.0404
G1 X133.311 Y125.498 E.02543
G3 X131.537 Y124.86 I2.463 J-9.633 E.06819
G1 X131.104 Y124.747 E.01614
G1 X130.613 Y124.795 E.01782
G1 X130.237 Y124.97 E.01498
G1 X129.882 Y125.318 E.01797
G3 X128.758 Y126.865 I-23.391 J-15.813 E.06903
G1 X128.565 Y127.221 E.01462
G1 X128.486 Y127.722 E.01832
G1 X128.592 Y128.204 E.01782
G2 X129.341 Y129.158 I7.714 J-5.291 E.04382
G1 X129.989 Y130.071 E.0404
G1 X129.518 Y130.594 E.02541
G3 X127.915 Y129.601 I4.375 J-8.856 E.06819
G1 X127.515 Y129.4 E.01614
G1 X127.025 Y129.346 E.01782
G1 X126.621 Y129.438 E.01498
G1 X126.2 Y129.705 E.01797
G3 X124.78 Y130.984 I-19.592 J-20.33 E.06903
G1 X124.517 Y131.293 E.01462
G1 X124.336 Y131.767 E.01832
G1 X124.339 Y132.26 E.01782
G2 X124.874 Y133.349 I8.645 J-3.571 E.04382
G1 X125.317 Y134.376 E.0404
G1 X124.747 Y134.79 E.02543
G3 X123.386 Y133.485 I6.169 J-7.799 E.06819
G1 X123.037 Y133.206 E.01614
G1 X122.569 Y133.051 E.01782
G1 X122.154 Y133.057 E.01498
G1 X121.688 Y133.231 E.01797
G3 X120.118 Y134.139 I-14.181 J-22.7 E.06547
G1 X119.711 Y134.434 E.01816
G1 X119.435 Y134.86 E.01832
G1 X119.336 Y135.343 E.01782
G2 X119.633 Y136.519 I9.199 J-1.696 E.04382
G1 X119.853 Y137.616 E.0404
G1 X119.209 Y137.903 E.02543
G3 X118.149 Y136.343 I7.655 J-6.346 E.06819
G1 X117.866 Y135.998 E.01614
G1 X117.44 Y135.748 E.01782
G1 X117.033 Y135.668 E.01498
G1 X116.54 Y135.741 E.01797
G3 X114.722 Y136.332 I-9.624 J-26.527 E.06903
G1 X114.357 Y136.507 E.01463
G1 X113.999 Y136.866 E.01832
G1 X113.801 Y137.318 E.01782
G2 X113.847 Y138.53 I9.351 J.254 E.04382
G1 X113.834 Y139.649 E.04041
G1 X113.145 Y139.796 E.02543
G3 X112.432 Y138.05 I8.808 J-4.616 E.06819
G1 X112.227 Y137.653 E.01614
G1 X111.862 Y137.32 E.01782
G1 X111.481 Y137.158 E.01497
G1 X110.984 Y137.127 E.01797
G3 X109.083 Y137.327 I-3.899 J-27.951 E.06903
G1 X108.689 Y137.421 E.01462
G1 X108.264 Y137.699 E.01832
G1 X107.976 Y138.1 E.01782
G2 X107.769 Y139.295 I9.096 J2.193 E.04382
G1 X107.524 Y140.386 E.04041
G1 X106.819 Y140.386 E.02543
G3 X106.485 Y138.531 I9.574 J-2.683 E.06819
G1 X106.367 Y138.1 E.01614
G1 X106.079 Y137.699 E.01782
G1 X105.74 Y137.46 E.01498
G1 X105.264 Y137.327 E.01786
G3 X103.359 Y137.127 I2.001 J-28.2 E.06914
G1 X102.954 Y137.138 E.01462
G1 X102.481 Y137.32 E.01832
G1 X102.116 Y137.653 E.01782
G2 X101.665 Y138.779 I8.437 J4.034 E.04382
G1 X101.198 Y139.796 E.0404
G1 X100.509 Y139.649 E.02543
G3 X100.568 Y137.764 I9.924 J-.634 E.06819
G1 X100.542 Y137.318 E.01614
G1 X100.344 Y136.866 E.01782
G1 X100.062 Y136.562 E.01498
G1 X99.621 Y136.332 E.01797
G3 X97.803 Y135.741 I7.808 J-27.124 E.06903
G1 X97.404 Y135.668 E.01462
G1 X96.903 Y135.748 E.01832
G1 X96.478 Y135.998 E.01782
G2 X95.802 Y137.005 I7.415 J5.701 E.04382
G1 X95.134 Y137.903 E.0404
G1 X94.491 Y137.616 E.02543
G3 X94.94 Y135.785 I9.838 J1.443 E.06819
G1 X95.007 Y135.343 E.01614
G1 X94.908 Y134.86 E.01782
G1 X94.695 Y134.504 E.01498
G1 X94.311 Y134.187 E.01797
G3 X92.656 Y133.231 I13.279 J-24.912 E.06903
G1 X92.281 Y133.076 E.01462
G1 X91.774 Y133.051 E.01832
G1 X91.306 Y133.206 E.01782
G2 X90.436 Y134.051 I6.068 J7.118 E.04382
G1 X89.596 Y134.79 E.0404
G1 X89.026 Y134.376 E.02543
G3 X89.846 Y132.678 I9.323 J3.457 E.06819
G1 X90.004 Y132.26 E.01614
G1 X90.007 Y131.767 E.01782
G1 X89.873 Y131.374 E.01498
G1 X89.563 Y130.984 E.01797
G3 X88.143 Y129.705 I18.173 J-21.612 E.06903
G1 X87.809 Y129.476 E.01462
G1 X87.318 Y129.346 E.01832
G1 X86.828 Y129.4 E.01782
G2 X85.801 Y130.046 I4.455 J8.225 E.04382
G1 X84.826 Y130.594 E.0404
G1 X84.354 Y130.071 E.02543
G3 X85.51 Y128.58 I8.401 J5.319 E.06819
G1 X85.751 Y128.204 E.01614
G1 X85.857 Y127.722 E.01782
G1 X85.807 Y127.311 E.01497
G1 X85.585 Y126.865 E.01797
G3 X84.462 Y125.318 I22.273 J-17.364 E.06904
G1 X84.182 Y125.025 E.01462
G1 X83.73 Y124.795 E.01832
G1 X83.239 Y124.747 E.01782
G2 X82.1 Y125.165 I2.614 J8.879 E.04382
G1 X81.032 Y125.498 E.0404
G1 X80.68 Y124.888 E.02543
G3 X82.12 Y123.671 I7.111 J6.95 E.06819
G1 X82.434 Y123.353 E.01614
G1 X82.638 Y122.903 E.01782
G1 X82.674 Y122.49 E.01498
G1 X82.551 Y122.008 E.01797
G3 X81.795 Y120.313 I24.648 J-12.005 E.06704
G1 X81.561 Y119.917 E.0166
G1 X81.166 Y119.598 E.01832
G1 X80.696 Y119.449 E.01782
G2 X79.495 Y119.621 I.725 J9.324 E.04382
G1 X78.381 Y119.725 E.0404
G1 X78.163 Y119.055 E.02543
G3 X79.825 Y118.163 I5.511 J8.277 E.06819
G1 X80.199 Y117.918 E.01614
G1 X80.491 Y117.521 E.01782
G1 X80.613 Y117.124 E.01497
G1 X80.592 Y116.627 E.01797
G3 X80.194 Y114.757 I27.398 J-6.801 E.06904
G1 X80.059 Y114.375 E.01462
G1 X79.739 Y113.982 E.01832
G1 X79.31 Y113.737 E.01782
G2 X78.1 Y113.656 I-1.23 J9.272 E.04382
G1 X76.988 Y113.527 E.0404
G1 X76.915 Y112.827 E.02541
G3 X78.725 Y112.299 I3.654 J9.176 E.06819
G1 X79.142 Y112.137 E.01614
G1 X79.511 Y111.809 E.01782
G1 X79.712 Y111.447 E.01498
G1 X79.795 Y110.957 E.01792
G3 X79.795 Y109.044 I28.228 J-.957 E.06908
G1 X79.742 Y108.643 E.01463
G1 X79.511 Y108.191 E.01832
G1 X79.142 Y107.863 E.01782
G2 X77.975 Y107.532 I-3.131 J8.815 E.04382
G1 X76.915 Y107.174 E.0404
G1 X76.988 Y106.473 E.02543
G3 X78.869 Y106.335 I1.668 J9.802 E.06819
G1 X79.31 Y106.263 E.01614
G1 X79.739 Y106.018 E.01782
G1 X80.011 Y105.706 E.01497
G1 X80.194 Y105.243 E.01797
G3 X80.592 Y103.373 I27.793 J4.93 E.06903
G1 X80.623 Y102.969 E.01462
G1 X80.491 Y102.479 E.01832
G1 X80.199 Y102.082 E.01782
G2 X79.126 Y101.516 I-4.895 J7.971 E.04382
G1 X78.163 Y100.945 E.0404
G1 X78.381 Y100.276 E.02541
G3 X80.249 Y100.53 I-.394 J9.869 E.06819
G1 X80.696 Y100.551 E.01614
G1 X81.166 Y100.402 E.01782
G1 X81.498 Y100.153 E.01498
G1 X81.773 Y99.738 E.01797
G3 X82.551 Y97.992 I26.167 J10.604 E.06903
G1 X82.665 Y97.603 E.01462
G1 X82.638 Y97.097 E.01832
G1 X82.434 Y96.647 E.01782
G2 X81.503 Y95.87 I-6.446 J6.779 E.04382
G1 X80.68 Y95.112 E.0404
G1 X81.032 Y94.502 E.02543
G3 X82.807 Y95.14 I-2.463 J9.633 E.06819
G1 X83.239 Y95.253 E.01614
G1 X83.73 Y95.205 E.01782
G1 X84.106 Y95.03 E.01498
G1 X84.462 Y94.682 E.01797
G3 X85.585 Y93.135 I23.396 J15.816 E.06903
G1 X85.778 Y92.779 E.01462
G1 X85.857 Y92.278 E.01832
G1 X85.751 Y91.796 E.01782
G2 X85.002 Y90.842 I-7.713 J5.29 E.04382
G1 X84.354 Y89.929 E.0404
G1 X84.826 Y89.406 E.02543
G3 X86.429 Y90.399 I-4.412 J8.91 E.06819
G1 X86.828 Y90.6 E.01614
G1 X87.318 Y90.654 E.01782
G1 X87.723 Y90.562 E.01498
G1 X88.143 Y90.295 E.01797
G3 X89.563 Y89.016 I19.595 J20.334 E.06903
G1 X89.826 Y88.707 E.01462
G1 X90.007 Y88.233 E.01832
G1 X90.004 Y87.74 E.01782
G2 X89.469 Y86.651 I-8.645 J3.571 E.04382
G1 X89.026 Y85.624 E.0404
G1 X89.596 Y85.21 E.02543
G3 X90.957 Y86.515 I-6.168 J7.798 E.06819
G1 X91.306 Y86.794 E.01614
G1 X91.774 Y86.949 E.01782
G1 X92.189 Y86.943 E.01498
G1 X92.656 Y86.769 E.01797
G3 X94.225 Y85.861 I14.181 J22.7 E.06546
G1 X94.632 Y85.566 E.01816
G1 X94.908 Y85.14 E.01832
G1 X95.007 Y84.657 E.01782
G2 X94.711 Y83.481 I-9.199 J1.696 E.04382
G1 X94.491 Y82.384 E.0404
G1 X95.134 Y82.097 E.02543
G3 X96.194 Y83.657 I-7.654 J6.345 E.06819
G1 X96.478 Y84.002 E.01614
G1 X96.903 Y84.252 E.01782
G1 X97.31 Y84.332 E.01498
G1 X97.803 Y84.259 E.01797
G3 X99.621 Y83.668 I9.629 J26.541 E.06903
G1 X99.986 Y83.493 E.01462
G1 X100.344 Y83.134 E.01832
G1 X100.542 Y82.682 E.01782
G2 X100.496 Y81.47 I-9.351 J-.254 E.04382
G1 X100.509 Y80.351 E.0404
G1 X101.198 Y80.204 E.02543
G3 X101.911 Y81.95 I-8.807 J4.615 E.06819
G1 X102.116 Y82.347 E.01614
G1 X102.481 Y82.68 E.01782
M73 P1 R15
G1 X102.863 Y82.842 E.01498
G1 X103.359 Y82.873 E.01797
G3 X105.261 Y82.673 I3.9 J27.965 E.06903
G1 X105.654 Y82.578 E.01462
G1 X106.079 Y82.301 E.01832
G1 X106.367 Y81.9 E.01782
G2 X106.574 Y80.705 I-9.092 J-2.192 E.04382
G1 X106.819 Y79.614 E.0404
G1 X107.524 Y79.614 E.02544
G3 X107.858 Y81.469 I-9.574 J2.683 E.06817
G1 X107.976 Y81.9 E.01614
G1 X108.264 Y82.301 E.01782
G1 X108.603 Y82.54 E.01498
G1 X109.08 Y82.673 E.01786
G3 X110.984 Y82.873 I-2.002 J28.216 E.06914
G1 X111.389 Y82.862 E.01462
G1 X111.862 Y82.68 E.01832
G1 X112.227 Y82.347 E.01782
G2 X112.678 Y81.221 I-8.439 J-4.035 E.04382
G1 X113.145 Y80.204 E.0404
G1 X113.834 Y80.351 E.02543
G3 X113.775 Y82.236 I-9.922 J.634 E.06819
G1 X113.801 Y82.682 E.01614
G1 X113.999 Y83.134 E.01782
G1 X114.281 Y83.438 E.01498
G1 X114.722 Y83.668 E.01797
G3 X116.54 Y84.259 I-7.808 J27.124 E.06903
G1 X116.939 Y84.332 E.01463
G1 X117.44 Y84.252 E.01832
G1 X117.866 Y84.002 E.01782
G2 X118.541 Y82.995 I-7.415 J-5.701 E.04382
G1 X119.209 Y82.097 E.0404
G1 X119.853 Y82.384 E.02543
G3 X119.403 Y84.215 I-9.838 J-1.443 E.06819
G1 X119.336 Y84.657 E.01614
G1 X119.435 Y85.14 E.01782
G1 X119.649 Y85.496 E.01497
G1 X120.032 Y85.813 E.01797
G3 X121.688 Y86.769 I-13.274 J24.903 E.06904
G1 X122.062 Y86.924 E.01462
G1 X122.569 Y86.949 E.01832
G1 X123.037 Y86.794 E.01782
G2 X123.907 Y85.949 I-6.068 J-7.119 E.04382
G1 X124.747 Y85.21 E.0404
G1 X125.317 Y85.624 E.02543
G3 X124.497 Y87.322 I-9.324 J-3.457 E.06819
G1 X124.339 Y87.74 E.01614
G1 X124.336 Y88.233 E.01782
G1 X124.471 Y88.626 E.01498
G1 X124.78 Y89.016 E.01797
G3 X126.2 Y90.295 I-18.169 J21.607 E.06903
G1 X126.534 Y90.524 E.01462
G1 X127.025 Y90.654 E.01832
G1 X127.515 Y90.6 E.01782
G2 X128.542 Y89.954 I-4.456 J-8.225 E.04382
G1 X129.517 Y89.406 E.0404
G1 X129.989 Y89.929 E.02543
G3 X128.833 Y91.42 I-8.401 J-5.32 E.06819
G1 X128.592 Y91.796 E.01614
G1 X128.486 Y92.278 E.01782
G1 X128.536 Y92.689 E.01498
G1 X128.758 Y93.135 E.01797
G3 X129.882 Y94.682 I-22.265 J17.358 E.06903
G1 X130.161 Y94.975 E.01462
G1 X130.613 Y95.205 E.01832
G1 X131.104 Y95.253 E.01782
G2 X132.243 Y94.835 I-2.648 J-8.972 E.04382
G1 X133.311 Y94.502 E.0404
G1 X133.663 Y95.112 E.02543
G3 X132.223 Y96.329 I-7.111 J-6.95 E.06819
G1 X131.909 Y96.647 E.01614
G1 X131.705 Y97.097 E.01782
G1 X131.669 Y97.51 E.01498
G1 X131.714 Y97.688 E.00664
G1 X132.172 Y97.144 F30000
;TYPE:Outer wall
G1 F3600
G1 X132.166 Y97.154 E.00042
G1 X132.126 Y97.47 E.01151
G1 X132.207 Y97.799 E.01221
