; HEADER_BLOCK_START
; generated by Creality_Print V5.1.6.10470 on 2024-12-10 at 17:01:04
; total layer number: 10
; filament_density: 1.24
; filament_diameter: 1.75
; max_z_height: 2.00
; HEADER_BLOCK_END

; MINX = 97.53
; MINY = 15.03
; MINZ = 0.00
; MAXX = 122.47
; MAXY = 204.97
; MAXZ = 2.00

; THUMBNAIL_BLOCK_START

;
; THUMBNAIL_BLOCK_END

; THUMBNAIL_BLOCK_START

;
; THUMBNAIL_BLOCK_END

; external perimeters extrusion width = 0.42mm
; perimeters extrusion width = 0.45mm
; infill extrusion width = 0.45mm
; solid infill extrusion width = 0.42mm
; top infill extrusion width = 0.42mm
; support material extrusion width = 0.42mm
; first layer extrusion width = 0.50mm

; EXECUTABLE_BLOCK_START
EXCLUDE_OBJECT_DEFINE NAME=Link_2.stl_id_0_copy_0 CENTER=110,110 POLYGON=[[97.5341,25.2233],[97.5555,24.7457],[97.6501,24.2772],[97.8156,23.8287],[98.0481,23.411],[98.3421,23.034],[98.6905,22.7067],[99.0851,22.4369],[99.5165,22.2309],[118.329,15.2108],[118.793,15.0852],[119.269,15.0325],[119.749,15.054],[120.219,15.1493],[120.669,15.316],[121.088,15.5502],[121.466,15.8462],[121.793,16.197],[122.063,16.5941],[122.268,17.0281],[122.403,17.4884],[122.466,17.9642],[122.455,18.4439],[109.339,204.166],[109.311,204.399],[109.214,204.612],[109.055,204.784],[108.851,204.899],[108.621,204.946],[108.118,204.968],[107.885,204.941],[107.672,204.844],[107.499,204.686],[107.383,204.482],[107.336,204.252],[97.5341,25.2233]]
M73 P0 R2
M106 S0
M106 P2 S0
;TYPE:Custom
M140 S0
M104 S0 
START_PRINT EXTRUDER_TEMP=230 BED_TEMP=50
M141 S35;set chamber_temperature
G90
G21
M83 ; use relative distances for extrusion
; filament start gcode
M106 S0
;LAYER_CHANGE
;Z:0.2
;HEIGHT:0.2
;BEFORE_LAYER_CHANGE
;0.2
G92 E0

G1 E-.5 F2400
;AFTER_LAYER_CHANGE
;0.2
;_SET_FAN_SPEED_CHANGING_LAYER
SET_VELOCITY_LIMIT ACCEL=1000 ACCEL_TO_DECEL=1000
SET_VELOCITY_LIMIT SQUARE_CORNER_VELOCITY=20
; printing object Link 2.stl id:0 copy 0
EXCLUDE_OBJECT_START NAME=Link_2.stl_id_0_copy_0
G1 X117.171 Y17.51 F30000
G1 Z.4
G1 Z.2
G1 E.5 F2400
;TYPE:Inner wall
;WIDTH:0.435691
G1 F3600
G1 X117.312 Y17.147 E.0121
;WIDTH:0.41647
G1 X117.507 Y16.815 E.01136
G1 X117.845 Y16.439 E.01493
;WIDTH:0.412691
G1 X118.294 Y16.118 E.01611
G1 X118.778 Y15.93 E.01516
;WIDTH:0.412333
G1 X119.321 Y15.849 E.01604
G1 X119.844 Y15.903 E.01535
;WIDTH:0.416778
G1 X120.313 Y16.054 E.01454
G1 X120.647 Y16.239 E.01128
;WIDTH:0.415232
G1 X121.06 Y16.602 E.01618
;WIDTH:0.412155
G1 X121.36 Y17.011 E.0148
G1 X121.565 Y17.517 E.01592
;WIDTH:0.414465
G1 X121.65 Y18.027 E.01517
;WIDTH:0.41411
G1 X121.593 Y18.64 E.01804
;WIDTH:0.440248
G1 X121.454 Y19.145 E.01644
;WIDTH:0.470124
G1 X121.369 Y19.411 E.00945
;WIDTH:0.499999
G1 X121.284 Y19.678 E.01011
G2 X120.82 Y21.475 I77.201 J20.872 E.06701
;WIDTH:0.486297
G1 X120.753 Y21.802 E.01169
;WIDTH:0.450341
G1 X120.686 Y22.129 E.01074
;WIDTH:0.414385
G1 X106.307 Y77.033 E1.66536
;WIDTH:0.457185
M73 P1 R2
G1 X106.213 Y77.308 E.00952
;WIDTH:0.499999
G1 X106.119 Y77.583 E.0105
G1 X103.971 Y85.785 E.30614
G2 X103.79 Y87.478 I6.495 J1.549 E.06163
G1 X104.098 Y95.147 E.27711
;WIDTH:0.544635
G1 X104.079 Y95.228 E.00329
;WIDTH:0.589271
G1 X104.06 Y95.309 E.00358
;WIDTH:0.633907
G1 X104.041 Y95.389 E.00388
;WIDTH:0.678543
G1 X104.022 Y95.47 E.00417
;WIDTH:0.723178
G1 X104.003 Y95.551 E.00446
G1 X104.648 Y111.06 E.8341
;WIDTH:0.679472
G1 X105.294 Y126.569 E.78051
;WIDTH:0.635766
G1 X105.939 Y142.078 E.72692
;WIDTH:0.59206
G1 X106.584 Y157.587 E.67333
;WIDTH:0.548354
M73 P2 R2
G1 X107.23 Y173.096 E.61974
;WIDTH:0.504648
G1 X107.875 Y188.605 E.56615
;WIDTH:0.460941
G1 X108.52 Y204.114 E.51256
;WIDTH:0.417235
G1 X108.148 Y204.147 E.01106
G1 X108.139 Y203.952 E.00577
;WIDTH:0.460941
G1 X107.451 Y188.47 E.51172
;WIDTH:0.504648
G1 X106.763 Y172.988 E.56522
;WIDTH:0.548354
G1 X106.075 Y157.507 E.61872
;WIDTH:0.59206
M73 P3 R2
G1 X105.387 Y142.025 E.67223
;WIDTH:0.635766
G1 X104.699 Y126.544 E.72573
;WIDTH:0.679472
G1 X104.011 Y111.062 E.77923
;WIDTH:0.723178
G1 X103.323 Y95.58 E.83273
G1 X103.297 Y95.501 E.00446
;WIDTH:0.678543
G1 X103.271 Y95.422 E.00417
;WIDTH:0.633907
G1 X103.245 Y95.344 E.00388
;WIDTH:0.589271
G1 X103.22 Y95.265 E.00358
;WIDTH:0.544635
G1 X103.194 Y95.186 E.00329
;WIDTH:0.499999
G1 X100.131 Y28.383 E2.4145
M73 P4 R2
G2 X99.747 Y27.354 I-2.12 J.203 E.04013
G1 X99.556 Y27.193 E.00901
;WIDTH:0.460486
G1 X99.366 Y27.032 E.00823
;WIDTH:0.420973
G1 X98.94 Y26.648 E.01713
;WIDTH:0.412802
G1 X98.617 Y26.196 E.01623
G1 X98.431 Y25.715 E.01506
;WIDTH:0.413
G1 X98.35 Y25.183 E.01574
G1 X98.415 Y24.594 E.01731
;WIDTH:0.411839
G1 X98.606 Y24.081 E.01596
;WIDTH:0.413851
G1 X98.929 Y23.605 E.01686
;WIDTH:0.417309
G1 X99.192 Y23.354 E.01074
G1 X99.601 Y23.092 E.01436
;WIDTH:0.413988
G1 X100.148 Y22.892 E.01708
G1 X100.65 Y22.844 E.0148
;WIDTH:0.412257
G1 X101.196 Y22.909 E.01603
;WIDTH:0.412534
G1 X101.669 Y23.092 E.0148
;WIDTH:0.447797
G1 X101.894 Y23.225 E.00837
;WIDTH:0.483059
G1 X102.119 Y23.359 E.0091
;WIDTH:0.499999
G1 X102.539 Y23.481 E.01581
G1 X102.963 Y23.493 E.0153
G1 X103.443 Y23.388 E.01775
G1 X116.11 Y18.661 E.48817
G2 X117.014 Y17.925 I-.843 J-1.959 E.04263
G1 X117.071 Y17.772 E.0059
;WIDTH:0.467845
G1 X117.129 Y17.619 E.00548
;WIDTH:0.435691
G1 X117.156 Y17.548 E.00238
G1 E-.35 F2400
;WIPE_START
G1 F3600
G1 X117.312 Y17.147 E-.06451
G1 X117.507 Y16.815 E-.05774
G1 X117.631 Y16.677 E-.02775
;WIPE_END
G1 X120.223 Y16.441 Z.6 F30000
G1 Z.2
G1 E.5 F2400
;WIDTH:0.415232
G1 F3600
G1 X120.419 Y16.534 E.00635
M73 P5 R2
G1 X120.779 Y16.84 E.01392
;WIDTH:0.411631
G1 X121.065 Y17.249 E.01453
;WIDTH:0.414408
G1 X121.238 Y17.721 E.01473
G1 X121.279 Y18.215 E.01455
;WIDTH:0.417524
G1 X121.195 Y18.707 E.01478
;WIDTH:0.445996
G1 X121.101 Y18.942 E.00806
;WIDTH:0.474467
G1 X121.007 Y19.177 E.00863
;WIDTH:0.499999
G1 X120.688 Y19.575 E.01841
G1 X120.269 Y19.867 E.01842
G1 X119.789 Y20.04 E.01843
G1 X119.538 Y20.043 E.00909
;WIDTH:0.46237
G1 X119.286 Y20.046 E.00834
;WIDTH:0.42474
G1 X118.795 Y19.953 E.01505
;WIDTH:0.418521
G1 X118.341 Y19.745 E.01482
;WIDTH:0.45926
G1 X118.134 Y19.597 E.00839
;WIDTH:0.499999
G1 X117.926 Y19.448 E.00921
G1 X117.596 Y18.935 E.02203
G1 X117.458 Y18.529 E.01548
G1 X117.418 Y18.041 E.01768
G1 X117.482 Y17.799 E.00904
;WIDTH:0.457734
G1 X117.546 Y17.557 E.0082
;WIDTH:0.415468
G1 X117.759 Y17.104 E.01476
;WIDTH:0.412155
G1 X118.08 Y16.722 E.01455
;WIDTH:0.412561
G1 X118.488 Y16.435 E.01457
;WIDTH:0.41577
G1 X119.002 Y16.257 E.01602
G1 X119.454 Y16.222 E.01335
;WIDTH:0.412047
G1 X119.945 Y16.308 E.01454
;WIDTH:0.415232
G1 X120.187 Y16.424 E.00788
G1 E-.35 F2400
;WIPE_START
G1 F3600
G1 X120.419 Y16.534 E-.0384
G1 X120.779 Y16.84 E-.07102
G1 X120.934 Y17.062 E-.04058
;WIPE_END
G1 X113.682 Y19.441 Z.6 F30000
G1 X98.939 Y24.277 Z.6
G1 Z.2
G1 E.5 F2400
;WIDTH:0.41506
G1 F3600
G1 X99.032 Y24.079 E.00644
G1 X99.342 Y23.714 E.01406
;WIDTH:0.411516
G1 X99.751 Y23.428 E.01452
;WIDTH:0.413993
G1 X100.219 Y23.256 E.01463
G1 X100.716 Y23.214 E.01461
;WIDTH:0.411783
G1 X101.207 Y23.301 E.01454
;WIDTH:0.419883
G1 X101.662 Y23.508 E.01488
;WIDTH:0.459941
G1 X101.869 Y23.657 E.0084
;WIDTH:0.499999
G1 X102.077 Y23.806 E.00921
G1 X102.368 Y24.224 E.01842
G1 X102.542 Y24.704 E.01842
G1 X102.58 Y25.212 E.01838
;WIDTH:0.488828
G1 X102.518 Y25.455 E.00885
;WIDTH:0.45243
G1 X102.457 Y25.699 E.00812
;WIDTH:0.416032
G1 X102.232 Y26.168 E.01534
;WIDTH:0.415321
G1 X101.924 Y26.533 E.01405
;WIDTH:0.441614
G1 X101.725 Y26.689 E.00796
;WIDTH:0.468582
G1 X101.525 Y26.844 E.0085
;WIDTH:0.499999
G1 X101.051 Y27.032 E.01841
G1 X100.543 Y27.076 E.01841
G1 X100.041 Y26.986 E.01843
G1 X99.822 Y26.862 E.00909
;WIDTH:0.460486
G1 X99.603 Y26.738 E.0083
;WIDTH:0.420973
G1 X99.224 Y26.413 E.01491
;WIDTH:0.4127
G1 X98.937 Y26.005 E.01457
;WIDTH:0.415968
G1 X98.758 Y25.488 E.01613
G1 X98.724 Y25.039 E.01325
;WIDTH:0.412013
G1 X98.81 Y24.548 E.01454
;WIDTH:0.41506
G1 X98.922 Y24.313 E.00766
G1 E-.35 F2400
;WIPE_START
G1 F3600
G1 X99.032 Y24.079 E-.03885
G1 X99.342 Y23.714 E-.07172
G1 X99.557 Y23.563 E-.03943
;WIPE_END
G1 X106.794 Y21.137 Z.6 F30000
G1 X116.452 Y17.897 Z.6
G1 Z.2
G1 E.5 F2400
;TYPE:Outer wall
;WIDTH:0.499999
G1 F3600
G1 X116.648 Y17.652 E.01135
G3 X117.045 Y16.776 I12.099 J4.964 E.03471
M73 P6 R2
G1 X117.352 Y16.349 E.019
G1 X117.732 Y15.986 E.01896
G1 X118.174 Y15.718 E.01865
G1 X118.67 Y15.533 E.01913
G1 X119.199 Y15.444 E.01938
G1 X119.7 Y15.452 E.01808
G1 X120.224 Y15.578 E.01944
G1 X120.699 Y15.791 E.01881
G1 X121.158 Y16.113 E.02026
G1 X121.506 Y16.486 E.01841
G1 X121.776 Y16.923 E.01855
G1 X121.997 Y17.527 E.02321
G1 X122.059 Y18.253 E.0263
G1 X121.978 Y18.83 E.02104
G1 X104.416 Y85.889 E2.50288
G2 X104.247 Y87.46 I5.92 J1.433 E.05721
G1 X108.942 Y204.259 E4.22055
M73 P8 R2
G1 X108.804 Y204.467 E.00902
G1 X108.58 Y204.526 E.00835
G1 X107.993 Y204.551 E.0212
G1 X107.816 Y204.433 E.00769
G1 X107.734 Y204.203 E.00882
G1 X99.674 Y28.404 E6.35404
M73 P10 R2
G2 X99.297 Y27.522 I-1.55 J.14 E.03523
G3 X98.484 Y26.756 I2.969 J-3.97 E.04042
G1 X98.219 Y26.319 E.01844
G1 X98.034 Y25.822 E.01914
G1 X97.945 Y25.296 E.01926
G1 X97.954 Y24.795 E.01812
G1 X98.079 Y24.271 E.01945
G1 X98.291 Y23.797 E.01874
G1 X98.61 Y23.341 E.02009
G1 X98.98 Y22.993 E.01834
G1 X99.423 Y22.719 E.01879
G1 X99.896 Y22.535 E.01833
G1 X100.426 Y22.435 E.01946
G1 X100.888 Y22.436 E.01669
G1 X101.417 Y22.548 E.01953
G3 X102.411 Y22.985 I-4.104 J10.673 E.03923
G1 X102.842 Y23.038 E.01566
G1 X103.283 Y22.96 E.01618
G1 X115.95 Y18.233 E.48817
G2 X116.421 Y17.923 I-.62 J-1.453 E.02047
G1 E-.35 F2400
;WIPE_START
G1 F3600
G1 X116.648 Y17.652 E-.05304
G1 X116.915 Y17.063 E-.09696
;WIPE_END
G1 X115.244 Y24.51 Z.6 F30000
G1 X103.466 Y76.996 Z.6
G1 Z.2
G1 E.5 F2400
;TYPE:Inner wall
G1 F3600
G1 X103.415 Y76.899 E.00396
G1 X103.351 Y76.561 E.01243
G1 X101.412 Y28.328 E1.74289
M73 P11 R2
G1 X101.462 Y27.84 E.01771
G1 X101.612 Y27.431 E.01574
G1 X101.738 Y27.262 E.00762
;WIDTH:0.473042
G1 X101.865 Y27.093 E.00717
;WIDTH:0.446085
G1 X102.246 Y26.737 E.01663
;WIDTH:0.413781
G1 X102.553 Y26.354 E.01436
;WIDTH:0.416032
G1 X102.802 Y25.84 E.01683
;WIDTH:0.45243
G1 X102.887 Y25.6 E.00824
;WIDTH:0.488828
G1 X102.973 Y25.36 E.00898
;WIDTH:0.499999
G1 X103.272 Y24.987 E.01726
G3 X103.893 Y24.593 I1.295 J1.352 E.02672
G1 X116.561 Y19.866 E.4882
G1 X117.053 Y19.761 E.01816
G1 X117.463 Y19.773 E.01484
G1 X117.883 Y19.896 E.01581
;WIDTH:0.48112
G1 X118.109 Y20.029 E.00906
;WIDTH:0.446756
G1 X118.334 Y20.162 E.00835
;WIDTH:0.413033
G1 X118.814 Y20.346 E.01502
;WIDTH:0.4302
G1 X119.314 Y20.438 E.01554
;WIDTH:0.4651
G1 X119.502 Y20.478 E.00641
;WIDTH:0.499999
G1 X119.69 Y20.518 E.00694
G1 X120.046 Y20.791 E.0162
G1 X120.223 Y21.036 E.0109
G1 X120.378 Y21.477 E.01689
;WIDTH:0.486297
G1 X120.352 Y21.756 E.00981
;WIDTH:0.450341
G1 X120.327 Y22.035 E.00902
;WIDTH:0.414385
G1 X105.974 Y76.839 E1.66234
;WIDTH:0.43979
M73 P12 R2
G1 X105.919 Y76.999 E.00531
;WIDTH:0.46521
G1 X105.865 Y77.159 E.00565
;WIDTH:0.499999
G1 X105.741 Y77.365 E.00867
G1 X105.372 Y77.671 E.0173
G1 X104.92 Y77.828 E.01729
G1 X104.453 Y77.822 E.01687
G1 X103.995 Y77.643 E.01775
G1 X103.638 Y77.323 E.01731
G1 X103.485 Y77.032 E.01189
G1 X104.014 Y77.062 F30000
;TYPE:Outer wall
G1 F3600
G1 X103.861 Y76.8 E.01095
G1 X103.808 Y76.542 E.00951
G1 X101.869 Y28.31 E1.74289
G3 X102.227 Y27.34 I1.493 J0 E.03811
G1 X102.644 Y26.922 E.02133
G1 X102.971 Y26.457 E.02053
G2 X103.355 Y25.602 I-12.099 J-5.948 E.03384
G3 X104.052 Y25.021 I1.318 J.873 E.03326
G1 X116.72 Y20.294 E.4882
M73 P13 R2
G1 X117.161 Y20.216 E.01615
G1 X117.592 Y20.268 E.01568
G2 X118.59 Y20.707 I5.047 J-10.132 E.03936
G3 X119.467 Y20.918 I-3.478 J16.347 E.0326
G1 X119.714 Y21.108 E.01124
G1 X119.882 Y21.37 E.01124
G1 X119.951 Y21.674 E.01124
G1 X119.926 Y21.93 E.00929
G1 X105.573 Y76.734 E2.04547
G1 X105.419 Y77.041 E.01239
G1 X105.183 Y77.254 E.0115
G1 X104.888 Y77.372 E.01149
G1 X104.574 Y77.382 E.01135
G1 X104.268 Y77.277 E.01165
G1 X104.041 Y77.091 E.0106
G1 E-.35 F2400
;WIPE_START
G1 F3600
G1 X103.861 Y76.8 E-.05126
G1 X103.808 Y76.542 E-.03951
G1 X103.792 Y76.148 E-.05923
;WIPE_END
G1 X103.111 Y68.546 Z.6 F30000
G1 X99.188 Y24.731 Z.6
M73 P14 R2
G1 Z.2
G1 E.5 F2400
G1 F3600
G1 X99.192 Y24.706 E.00089
G1 X99.361 Y24.331 E.01486
G1 X99.593 Y24.042 E.01339
G1 X99.909 Y23.809 E.01414
G1 X100.273 Y23.667 E.01414
G1 X100.752 Y23.635 E.01733
G1 X101.049 Y23.682 E.01086
G1 X101.408 Y23.839 E.01414
G1 X101.714 Y24.084 E.01414
G1 X101.946 Y24.399 E.01414
G1 X102.091 Y24.784 E.01487
G1 X102.132 Y25.153 E.01339
G1 X102.073 Y25.54 E.01414
G1 X101.903 Y25.916 E.0149
G1 X101.672 Y26.205 E.01335
G1 X101.283 Y26.467 E.01693
G1 X100.992 Y26.579 E.01127
G1 X100.603 Y26.623 E.01413
G1 X100.155 Y26.539 E.01646
G1 X99.857 Y26.407 E.01175
G1 X99.551 Y26.162 E.01414
G1 X99.319 Y25.847 E.01414
G1 X99.17 Y25.434 E.01587
G1 X99.133 Y25.093 E.01236
G1 X99.182 Y24.77 E.0118
G1 E-.35 F2400
;WIPE_START
G1 F3600
G1 X99.192 Y24.706 E-.00972
G1 X99.361 Y24.331 E-.06175
G1 X99.593 Y24.042 E-.05562
G1 X99.716 Y23.951 E-.02291
;WIPE_END
G1 X106.892 Y21.352 Z.6 F30000
G1 X119.77 Y16.688 Z.6
G1 Z.2
G1 E.5 F2400
G1 F3600
G1 X119.787 Y16.69 E.00063
G1 X120.166 Y16.863 E.01503
G1 X120.452 Y17.092 E.01322
G1 X120.684 Y17.407 E.01414
G1 X120.827 Y17.775 E.01424
G1 X120.87 Y18.161 E.01403
G1 X120.811 Y18.548 E.01414
G1 X120.654 Y18.906 E.01414
G1 X120.41 Y19.212 E.01414
G1 X120.09 Y19.446 E.01431
G1 X119.73 Y19.587 E.01395
G1 X119.341 Y19.63 E.01414
G1 X118.953 Y19.572 E.01414
G1 X118.595 Y19.415 E.01414
G1 X118.289 Y19.17 E.01414
G1 X118.148 Y18.987 E.00835
G1 X117.93 Y18.548 E.0177
G1 X117.871 Y18.101 E.01627
G1 X117.93 Y17.714 E.01414
G1 X118.129 Y17.3 E.01659
G1 X118.331 Y17.049 E.01162
G1 X118.646 Y16.817 E.01414
G1 X119.057 Y16.669 E.01575
G1 X119.4 Y16.631 E.01248
G1 X119.731 Y16.682 E.01207
G1 E-.35 F2400
;WIPE_START
G1 F3600
G1 X119.787 Y16.69 E-.0086
G1 X120.166 Y16.863 E-.06243
G1 X120.452 Y17.092 E-.05492
G1 X120.547 Y17.221 E-.02405
;WIPE_END
G1 X116.815 Y18.345 Z.6 F30000
G1 Z.2
G1 E.5 F2400
;TYPE:Bottom surface
;WIDTH:0.503503
G1 F6300
G1 X117.169 Y18.698 E.01817
G1 X117.191 Y18.79 E.00343
G2 X117.506 Y19.444 I2.57 J-.838 E.02649
G1 X117.261 Y19.442 E.00892
G1 X116.595 Y18.775 E.0343
G1 X116.577 Y18.787 E.00077
G3 X116.154 Y18.986 I-1.211 J-2.024 E.01703
G1 X116.675 Y19.507 E.02681
G2 X116.182 Y19.665 I.494 J2.388 E.01888
M73 P15 R2
G1 X115.68 Y19.163 E.02584
G1 X115.205 Y19.34 E.01842
G1 X115.708 Y19.842 E.02584
G1 X115.233 Y20.019 E.01842
G1 X114.731 Y19.517 E.02584
G1 X114.257 Y19.694 E.01842
G1 X114.759 Y20.196 E.02584
G1 X114.284 Y20.373 E.01842
G1 X113.782 Y19.871 E.02584
G1 X113.308 Y20.048 E.01842
G1 X113.81 Y20.55 E.02584
G1 X113.336 Y20.727 E.01842
G1 X112.834 Y20.225 E.02584
G1 X112.359 Y20.402 E.01842
G1 X112.861 Y20.904 E.02584
G1 X112.387 Y21.081 E.01842
G1 X111.885 Y20.579 E.02584
G1 X111.411 Y20.756 E.01842
G1 X111.913 Y21.258 E.02584
G1 X111.438 Y21.435 E.01842
G1 X110.936 Y20.933 E.02584
G1 X110.462 Y21.11 E.01842
G1 X110.964 Y21.613 E.02584
G1 X110.49 Y21.79 E.01842
G1 X109.988 Y21.287 E.02584
G1 X109.513 Y21.464 E.01842
G1 X110.015 Y21.967 E.02584
G1 X109.541 Y22.144 E.01842
G1 X109.039 Y21.641 E.02584
G1 X108.564 Y21.818 E.01842
G1 X109.067 Y22.321 E.02584
G1 X108.592 Y22.498 E.01842
G1 X108.09 Y21.995 E.02584
G1 X107.616 Y22.172 E.01842
G1 X108.118 Y22.675 E.02584
G1 X107.644 Y22.852 E.01842
G1 X107.141 Y22.349 E.02584
G1 X106.667 Y22.526 E.01842
G1 X107.169 Y23.029 E.02584
G1 X106.695 Y23.206 E.01842
G1 X106.193 Y22.703 E.02584
G1 X105.718 Y22.88 E.01842
G1 X106.22 Y23.383 E.02584
G1 X105.746 Y23.56 E.01842
G1 X105.244 Y23.057 E.02584
G1 X104.77 Y23.235 E.01842
G1 X105.272 Y23.737 E.02584
G1 X104.797 Y23.914 E.01842
G1 X104.295 Y23.412 E.02584
G1 X103.821 Y23.589 E.01842
G1 X104.323 Y24.091 E.02584
G1 X103.849 Y24.268 E.01842
G1 X103.329 Y23.748 E.02673
G3 X102.741 Y23.812 I-.485 J-1.734 E.0216
G1 X103.409 Y24.48 E.03437
G2 X103.042 Y24.764 I1.858 J2.788 E.01691
G1 X102.473 Y24.195 E.02927
G1 X102.382 Y23.718 F30000
;TYPE:Gap infill
;WIDTH:0.106874
G1 F3600
G2 X102.562 Y24.013 I.774 J-.27 E.00176
