; HEADER_BLOCK_START
; generated by Creality_Print V5.1.6.10470 on 2024-12-10 at 17:00:12
; total layer number: 33
; filament_density: 1.24
; filament_diameter: 1.75
; max_z_height: 6.60
; HEADER_BLOCK_END

; MINX = 0.98
; MINY = 1.10
; MINZ = -0.00
; MAXX = 218.90
; MAXY = 219.02
; MAXZ = 6.60

; THUMBNAIL_BLOCK_START

;
; THUMBNAIL_BLOCK_END

; THUMBNAIL_BLOCK_START

;
; THUMBNAIL_BLOCK_END

; external perimeters extrusion width = 0.42mm
; perimeters extrusion width = 0.45mm
; infill extrusion width = 0.45mm
; solid infill extrusion width = 0.42mm
; top infill extrusion width = 0.42mm
; support material extrusion width = 0.42mm
; first layer extrusion width = 0.50mm

; EXECUTABLE_BLOCK_START
EXCLUDE_OBJECT_DEFINE NAME=Link_1.stl_id_0_copy_0 CENTER=109.943,110.06 POLYGON=[[0.984765,2.51575],[2.39898,1.10154],[218.901,217.604],[217.487,219.018],[0.984765,2.51575]]
M73 P0 R6
M106 S0
M106 P2 S0
;TYPE:Custom
M140 S0
M104 S0 
START_PRINT EXTRUDER_TEMP=230 BED_TEMP=50
M141 S35;set chamber_temperature
G90
G21
M83 ; use relative distances for extrusion
; filament start gcode
M106 S0
;LAYER_CHANGE
;Z:0.2
;HEIGHT:0.2
;BEFORE_LAYER_CHANGE
;0.2
G92 E0

G1 E-.5 F2400
;AFTER_LAYER_CHANGE
;0.2
;_SET_FAN_SPEED_CHANGING_LAYER
SET_VELOCITY_LIMIT ACCEL=1000 ACCEL_TO_DECEL=1000
SET_VELOCITY_LIMIT SQUARE_CORNER_VELOCITY=20
; printing object Link 1.stl id:0 copy 0
EXCLUDE_OBJECT_START NAME=Link_1.stl_id_0_copy_0
G1 X.532 Y.611 F30000
G1 Z.4
G1 Z.2
G1 E.5 F2400
;TYPE:Support
;WIDTH:0.5
G1 F3600
G1 X.933 Y.262 E.01917
G3 X1.944 Y.229 I.55 J1.342 E.03731
G1 X1.901 Y.258 E.00187
G1 X1.501 Y.684 E.02111
G2 X.229 Y1.908 I154.97 J162.269 E.06376
G1 X.229 Y.875 E.03729
G1 X.502 Y.637 E.01311
G1 E-.35 F2400
;WIPE_START
G1 F3600
G1 X.933 Y.262 E-.08565
G1 X1.361 Y.248 E-.06435
;WIPE_END
G1 X1.378 Y1.427 Z.6 F30000
G1 Z.2
G1 E.5 F2400
;WIDTH:0.42
G1 F3600
G1 X2.126 Y.703 E.03102
G3 X2.804 Y.383 I1.748 J2.825 E.02238
G1 X2.874 Y.385 E.0021
G3 X3.365 Y.533 I-.095 J1.198 E.01539
G1 X2.532 Y.607 E.02491
G1 X1.94 Y1.161 E.02416
G2 X.385 Y3.045 I2.951 J4.018 E.0735
G1 X.417 Y3.482 E.01305
G3 X1.026 Y1.817 I1.028 J-.568 E.05987
G1 X1.351 Y1.457 E.01444
G1 X1.345 Y1.451 F30000
;WIDTH:0.5
G1 F3600
G1 X2.208 Y.699 E.0413
G3 X2.804 Y.423 I1.727 J2.94 E.02377
G1 X2.872 Y.425 E.00246
G3 X3.073 Y.457 I-.089 J1.215 E.00736
G1 X2.367 Y.649 E.02643
G1 X1.904 Y1.143 E.02442
G2 X.346 Y3.042 I2.615 J3.736 E.08981
G1 X.34 Y3.19 E.00535
G3 X1.22 Y1.576 I2.155 J.129 E.06854
G1 X1.317 Y1.479 E.00496
G1 X1.758 Y1.968 F30000
;TYPE:Support interface
G1 F3600
G1 X2.168 Y1.519 E.02198
G3 X2.857 Y.936 I13.25 J14.968 E.03258
G3 X3.136 Y.917 I.201 J.9 E.01013
G3 X4.544 Y2.365 I-1.066 J2.446 E.07481
G3 X5.568 Y3.406 I-.152 J1.174 E.0568
G3 X6.895 Y5.111 I-.398 J1.678 E.0843
G3 X4.834 Y7.054 I-8.626 J-7.085 E.10253
G3 X3.354 Y5.491 I.255 J-1.724 E.08377
G2 X4.323 Y6.035 I.786 J-.264 E.04396
G1 X5.918 Y4.44 E.08148
G2 X5.918 Y4.015 I-.63 J-.212 E.0156
G1 X3.865 Y1.961 E.10486
G2 X3.44 Y1.961 I-.212 J.63 E.0156
G1 X1.845 Y3.557 E.08148
G2 X2.389 Y4.526 I.808 J.183 E.04396
G1 X2.383 Y4.527 E.00021
G3 X.923 Y2.721 I-.032 J-1.467 E.09675
G1 X1.728 Y1.995 E.03913
G1 E-.35 F2400
;WIPE_START
G1 F3600
G1 X2.168 Y1.519 E-.09727
G1 X2.389 Y1.245 E-.05273
;WIPE_END
G1 X3.073 Y1.739 Z.6 F30000
G1 Z.2
G1 E.5 F2400
;WIDTH:0.42
G1 F3600
G3 X3.448 Y1.509 I.302 J.073 E.01455
G1 X2.939 Y1.345 E.01592
G1 X2.939 Y1.872 E.01569
G1 X2.062 Y2.749 E.03695
G1 X2.062 Y2.142 E.01809
G1 X1.985 Y2.233 E.00357
G3 X1.226 Y3.068 I-2.224 J-1.26 E.03389
G1 X1.393 Y3.565 E.01562
G1 X1.929 Y2.883 E.02585
G1 E-.35 F2400
;WIPE_START
G1 F3600
G1 X1.393 Y3.565 E-.13019
G1 X1.351 Y3.44 E-.01981
;WIPE_END
G1 X4.56 Y6.387 Z.6 F30000
G1 Z.2
G1 E.5 F2400
G1 F3600
G3 X4.314 Y6.487 I-.173 J-.073 E.00878
G1 X4.694 Y6.648 E.01228
G1 X4.694 Y6.254 E.01174
G1 X5.571 Y5.377 E.03695
G1 X5.571 Y5.908 E.01582
G3 X6.336 Y5.17 I1.814 J1.116 E.03201
G1 X6.448 Y4.527 E.01944
G1 E-.35 F2400
;WIPE_START
G1 F3600
G1 X6.336 Y5.17 E-.09791
G1 X6.025 Y5.324 E-.05209
;WIPE_END
G1 X7.667 Y4.576 Z.6 F30000
G1 Z.2
G1 E.5 F2400
;TYPE:Support
;WIDTH:0.5
G1 F3600
G3 X8.141 Y6.672 I-.805 J1.284 E.08622
G1 X198.95 Y197.481 E9.74303
M73 P1 R6
G3 X201.812 Y198.702 I.957 J1.722 E.12951
G1 X200.829 Y198.725 E.03548
G1 X200.098 Y199.369 E.03519
G2 X198.512 Y201.383 I2.332 J3.47 E.09406
G1 X198.573 Y201.924 E.01967
G3 X197.364 Y199.067 I.494 J-1.893 E.12932
G1 X6.555 Y8.258 E9.74303
M73 P2 R6
G3 X4.445 Y7.758 I-.814 J-1.27 E.08738
G1 X5.306 Y7.75 E.03111
G1 X6.019 Y7.229 E.03188
G2 X7.692 Y4.795 I-1.667 J-2.938 E.11036
G1 X7.671 Y4.616 E.00652
M73 P3 R6
G1 E-.35 F2400
;WIPE_START
G1 F3600
G1 X8.289 Y5.402 E-.15
;WIPE_END
G1 X6.69 Y5.928 Z.6 F30000
G1 Z.2
G1 E.5 F2400
;WIDTH:0.42
G1 F3600
G1 X6.668 Y5.956 E.00105
G3 X5.811 Y6.806 I-1.124 J-.276 E.03782
G2 X6.667 Y5.961 I-1.846 J-2.725 E.03605
G1 X6.604 Y6.015 F30000
;WIDTH:0.5
G1 F3600
G1 X6.562 Y6.133 E.00453
G3 X5.898 Y6.721 I-.931 J-.382 E.03316
G1 X6.576 Y6.043 E.03462
G1 X7.348 Y6.584 F30000
G1 F3600
G1 X7.4 Y6.511 E.00323
G1 X7.666 Y6.557 E.00975
G1 X7.707 Y6.884 E.01192
G1 X198.743 Y197.921 E9.75462
M73 P4 R6
G2 X199.939 Y197.664 I-.115 J-3.451 E.04439
G3 X200.965 Y198.19 I.037 J1.193 E.04346
G2 X198.556 Y200.186 I4.177 J7.497 E.1136
G1 X198.189 Y200.765 E.02475
G2 X198.073 Y201.082 I4.997 J1.99 E.0122
G3 X197.85 Y199.352 I.607 J-.958 E.07189
G1 X197.804 Y198.86 E.01782
G1 X6.768 Y7.824 E9.75462
M73 P5 R6
G1 X6.44 Y7.783 E.01192
G1 X6.394 Y7.516 E.00975
G2 X6.957 Y7.142 I-.783 J-1.789 E.02454
G1 X7.325 Y6.617 E.02318
G1 X7.461 Y7.285 F30000
G1 F3600
G1 X198.537 Y198.36 E9.75661
M73 P6 R6
G1 X199.603 Y198.461 E.03868
G3 X198.344 Y199.72 I-13.787 J-12.529 E.0643
G1 X198.243 Y198.653 E.03868
G1 X7.168 Y7.578 E9.75661
M73 P7 R6
G1 X7.433 Y7.313 E.01353
G1 E-.35 F2400
;WIPE_START
G1 F3600
G1 X8.14 Y8.02 E-.15
;WIPE_END
G1 X13.513 Y13.441 Z.6 F30000
G1 X199.187 Y200.765 Z.6
G1 Z.2
G1 E.5 F2400
;WIDTH:0.42
G1 F3600
G3 X199.669 Y200.451 I.793 J.689 E.01736
G3 X201.352 Y199.043 I2.96 J1.83 E.06649
G1 X201.416 Y199.045 E.00189
G3 X202.108 Y199.383 I-.065 J1.012 E.02353
G1 X201.489 Y199.464 E.01859
G1 X201.019 Y199.783 E.01692
G2 X199.605 Y201.197 I.905 J2.319 E.0613
G1 X199.322 Y201.676 E.01657
G1 X199.266 Y202.225 E.01642
G3 X199.162 Y200.795 I.714 J-.771 E.047
G1 E-.35 F2400
;WIPE_START
G1 F3600
G1 X199.669 Y200.451 E-.09191
G1 X199.925 Y200.16 E-.05809
;WIPE_END
G1 X201.159 Y199.63 Z.6 F30000
G1 Z.2
G1 E.5 F2400
G1 F3600
G1 X201.159 Y199.081 E.01636
G1 E-.35 F2400
;WIPE_START
M73 P8 R6
G1 F3600
G1 X201.159 Y199.63 E-.15
;WIPE_END
G1 X199.405 Y201.439 Z.6 F30000
G1 Z.2
G1 E.5 F2400
G1 F3600
G1 X199.405 Y200.631 E.02406
G1 E-.35 F2400
;WIPE_START
G1 F3600
G1 X199.405 Y201.439 E-.15
;WIPE_END
G1 X200.157 Y201.844 Z.6 F30000
G1 Z.2
G1 E.5 F2400
;TYPE:Support interface
G1 F3600
G1 X200.1 Y202.162 E.00963
G1 X200.282 Y202.447 E.01006
G1 X200.282 Y201.705 E.0221
G2 X200.641 Y201.05 I-.611 J-.761 E.02283
G1 X200.975 Y200.747 E.01343
G1 X200.76 Y200.407 F30000
;WIDTH:0.5
G1 F3600
G1 X200.857 Y200.346 E.00414
G3 X202.015 Y199.793 I1.845 J2.376 E.0467
G3 X202.99 Y200.952 I-.225 J1.179 E.05919
G3 X203.558 Y202.751 I.107 J.955 E.09558
G3 X202.572 Y203.712 I-1.035 J-.076 E.05433
G3 X200.836 Y203.107 I-.806 J-.481 E.0927
G3 X199.95 Y201.442 I-.004 J-1.066 E.08359
G3 X200.463 Y200.693 I2.625 J1.249 E.03293
G1 X200.731 Y200.435 E.01341
G1 X200.5 Y200.045 F30000
;TYPE:Support
G1 F3600
G1 X200.16 Y200.332 E.01607
G2 X199.52 Y201.233 I2.137 J2.194 E.04012
G1 X199.219 Y202.121 E.03387
G3 X199.702 Y200.474 I.775 J-.667 E.07355
G3 X201.352 Y199.083 I2.926 J1.797 E.07928
G1 X201.413 Y199.085 E.0022
G3 X202.005 Y199.336 I-.064 J.974 E.02364
G1 X201.468 Y199.429 E.01967
G1 X200.989 Y199.756 E.02093
G1 X200.535 Y200.025 E.01907
G1 E-.35 F2400
;WIPE_START
G1 F3600
G1 X200.16 Y200.332 E-.07269
G1 X199.861 Y200.752 E-.07731
;WIPE_END
G1 X203.215 Y202.468 Z.6 F30000
G1 Z.2
G1 E.5 F2400
;TYPE:Support interface
;WIDTH:0.42
G1 F3600
G2 X202.913 Y201.363 I-.146 J-.554 E.0539
G1 X202.913 Y203.153 E.05334
G2 X202.083 Y203.634 I.456 J1.748 E.02894
G1 X202.036 Y200.215 E.10183
G1 X201.932 Y200.21 E.00312
G2 X201.159 Y200.706 I.804 J2.102 E.02754
G2 X201.34 Y203.443 I6.945 J.916 E.08224
G1 X201.441 Y203.614 E.0059
G1 X200.613 Y203.909 F30000
;TYPE:Support
;WIDTH:0.5
G1 F3600
G1 X200.651 Y204.016 E.0041
G3 X199.183 Y202.733 I-.071 J-1.4 E.07785
G1 X199.206 Y202.756 E.00117
G1 X199.581 Y203.011 E.01639
G2 X200.436 Y203.413 I1.084 J-1.196 E.03459
G1 X200.599 Y203.872 E.01758
G1 E-.35 F2400
;WIPE_START
G1 F3600
G1 X200.651 Y204.016 E-.02304
G1 X199.848 Y203.75 E-.12696
;WIPE_END
G1 X201.624 Y204.583 Z.6 F30000
G1 Z.2
G1 E.5 F2400
;WIDTH:0.42
G1 F3600
G1 X202.243 Y204.502 E.01859
G1 X202.713 Y204.183 E.01692
G2 X204.127 Y202.768 I-.889 J-2.303 E.06134
G1 X204.411 Y202.29 E.01657
G1 X204.487 Y201.76 E.01593
G3 X204.532 Y203.19 I-.694 J.737 E.04731
G3 X202.632 Y204.892 I-14.881 J-14.705 E.07602
G3 X201.651 Y204.611 I-.248 J-.991 E.03183
G1 E-.35 F2400
;WIPE_START
G1 F3600
G1 X202.243 Y204.502 E-.09034
G1 X202.572 Y204.278 E-.05966
;WIPE_END
G1 X202.913 Y204.749 Z.6 F30000
G1 Z.2
G1 E.5 F2400
G1 F3600
G1 X202.913 Y204.059 E.02056
G1 X202.935 Y204.096 F30000
;WIDTH:0.5
G1 F3600
G1 X203.572 Y203.634 E.02842
G2 X204.212 Y202.733 I-2.14 J-2.197 E.04012
G1 X204.544 Y201.878 E.03309
G3 X204.581 Y203.069 I-.751 J.619 E.04627
G3 X202.563 Y204.866 I-10.266 J-9.495 E.09773
G3 X201.727 Y204.63 I-.181 J-.957 E.0325
G1 X202.264 Y204.537 E.01968
G1 X202.743 Y204.21 E.02093
G1 X202.901 Y204.116 E.00663
G1 X203.46 Y204.751 F30000
G1 F3600
G1 X203.635 Y204.597 E.0084
G2 X205.221 Y202.584 I-2.332 J-3.47 E.09406
G1 X205.16 Y202.042 E.01967
G3 X206.902 Y204.453 I-.613 J2.278 E.11618
G3 X205.812 Y205.66 I-1.842 J-.567 E.06063
G3 X202.196 Y205.708 I-1.815 J-.463 E.17683
G3 X201.921 Y205.264 I1.048 J-.957 E.01897
G1 X202.903 Y205.241 E.03548
G1 X203.43 Y204.777 E.02535
G1 X203.807 Y205.151 F30000
G1 F3600
G1 X205.173 Y203.658 E.07308
G2 X205.646 Y202.922 I-6.011 J-4.379 E.03162
G1 X205.903 Y203.053 E.01041
G3 X205.965 Y205.02 I-.552 J1.002 E.08557
G2 X205.101 Y206.213 I.866 J1.536 E.05485
G3 X202.805 Y205.763 I-.994 J-1.014 E.09932
G2 X203.635 Y205.22 I-3.643 J-6.484 E.03584
G1 X203.769 Y205.166 E.00522
G1 X204.034 Y205.431 F30000
G1 F3600
G1 X205.959 Y203.505 E.09833
G1 X206.033 Y203.969 E.01695
G3 X206.037 Y204.098 I-.767 J.089 E.00467
G3 X205.306 Y204.822 I-.817 J-.094 E.04013
G2 X204.721 Y205.954 I1.338 J1.409 E.04689
G3 X203.388 Y206.076 I-.76 J-.962 E.0511
G1 X204.005 Y205.459 E.03151
G1 E-.35 F2400
;WIPE_START
G1 F3600
G1 X204.712 Y204.752 E-.15
;WIPE_END
G1 X207.354 Y206.687 Z.6 F30000
G1 Z.2
G1 E.5 F2400
G1 F3600
G3 X208.856 Y205.861 I1.403 J.771 E.06534
M73 P9 R6
G3 X209.693 Y208.756 I-.102 J1.598 E.14172
G2 X209.956 Y209.233 I.586 J-.011 E.02048
G3 X210.293 Y209.925 I-1.314 J1.069 E.02803
G1 X210.58 Y209.971 E.01047
G3 X213.593 Y210.964 I1.424 J.749 E.16319
G2 X214.097 Y211.102 I.378 J-.391 E.01967
G3 X215.988 Y212.876 I-.921 J2.876 E.09677
G1 X215.254 Y212.825 E.02658
G1 X214.544 Y213.188 E.02878
G1 X214.231 Y213.622 E.01933
G1 X214.083 Y214.2 E.02153
G1 X213.419 Y214.391 E.02495
G1 X212.902 Y214.879 E.02566
G1 X212.694 Y215.459 E.02225
G1 X212.744 Y216.093 E.02295
G3 X210.377 Y213.508 I1.276 J-3.546 E.13162
G3 X211.04 Y212.211 I1.608 J.003 E.0546
G2 X210.777 Y211.733 I-.586 J.011 E.02048
G3 X210.439 Y211.041 I1.314 J-1.069 E.02803
G1 X210.153 Y210.996 E.01047
G3 X207.785 Y208.956 I-1.422 J-.744 E.20854
G2 X207.522 Y208.478 I-.586 J.011 E.02048
G3 X207.336 Y206.721 I1.235 J-1.02 E.06759
G1 X207.788 Y206.853 F30000
G1 F3600
G1 X207.791 Y206.846 E.00027
G3 X208.827 Y206.317 I.966 J.613 E.04408
G3 X209.243 Y208.526 I-.088 J1.16 E.11001
G2 X209.688 Y209.641 I.751 J.346 E.0485
G3 X209.97 Y210.451 I-1.99 J1.147 E.03116
G3 X208.235 Y209.186 I-1.169 J-.219 E.1732
G2 X207.79 Y208.071 I-.751 J-.346 E.0485
G3 X207.613 Y207.458 I.966 J-.612 E.02334
G1 X207.777 Y206.891 E.02132
G1 X208.219 Y207.099 F30000
G1 F3600
G1 X208.334 Y207.006 E.00535
G3 X208.799 Y206.773 I.571 J.561 E.01909
G3 X208.728 Y208.348 I-.203 J.78 E.07916
G3 X208.118 Y207.424 I.178 J-.781 E.04415
G1 X208.207 Y207.137 E.01083
G1 X208.52 Y207.442 F30000
G1 F3600
G3 X208.77 Y207.23 I.259 J.051 E.01279
G1 X208.968 Y207.374 E.00885
G1 X208.912 Y207.625 E.00928
G3 X208.746 Y207.755 I-1.116 J-1.255 E.00761
G3 X208.516 Y207.473 I.032 J-.262 E.01453
G1 X208.751 Y209.364 F30000
G1 F3600
G1 X209.192 Y209.754 E.02126
G3 X208.285 Y209.725 I-.47 J.499 E.1197
G1 X208.719 Y209.389 E.01982
G1 X208.732 Y209.957 F30000
G1 F3600
G1 X208.879 Y210.087 E.00709
G1 X208.936 Y210.17 E.0036
G3 X208.908 Y210.388 I-.171 J.09 E.00847
G1 X208.566 Y210.421 E.01239
G1 X208.566 Y210.087 E.01204
G3 X208.699 Y209.98 I1.116 J1.255 E.00617
G1 X211.841 Y210.699 F30000
G1 F3600
G3 X212.024 Y210.484 I.351 J.113 E.01046
G1 X212.239 Y210.713 E.01131
G3 X212.195 Y211.181 I-3.765 J-.112 E.01699
G3 X211.834 Y210.724 I-.004 J-.368 E.02426
G1 X211.373 Y210.895 F30000
G1 F3600
G1 X211.359 Y210.613 E.0102
G3 X211.607 Y210.158 I.836 J.16 E.01901
G3 X212.053 Y210.028 I.405 J.561 E.01712
G3 X212.643 Y211.306 I-.12 J.83 E.0603
G1 X213.403 Y212.067 E.03883
G3 X214.536 Y212.03 I.716 J4.644 E.04102
G2 X213.129 Y213.514 I8.09 J9.077 E.07391
G2 X212.061 Y214.49 I1.04 J2.211 E.05304
G3 X211.54 Y212.98 I.357 J-.968 E.06599
G1 X211.94 Y212.67 E.01827
G1 X211.974 Y211.595 E.03883
G3 X211.423 Y211.131 I.222 J-.822 E.02684
G1 X211.381 Y210.934 E.00726
G1 X210.96 Y211.081 F30000
G1 F3600
G1 X210.763 Y210.515 E.02163
G3 X212.082 Y209.572 I1.294 J.415 E.06275
G3 X213.118 Y211.135 I-.101 J1.192 E.07783
G2 X214.211 Y211.576 I.757 J-.3 E.04758
G3 X215.113 Y212.372 I-.243 J1.184 E.04545
G2 X213.685 Y213.802 I.459 J1.885 E.07673
G2 X212.255 Y215.229 I.455 J1.886 E.07673
G3 X210.87 Y213.224 I.902 J-2.105 E.09281
G3 X211.49 Y212.44 I1.247 J.35 E.03704
G2 X211.045 Y211.325 I-.751 J-.346 E.0485
G1 X210.973 Y211.119 E.0079
G1 X212.426 Y211.736 F30000
G1 F3600
G1 X213.264 Y212.574 E.04277
G3 X212.004 Y213.79 I-3.977 J-2.862 E.06357
G3 X211.831 Y213.332 I.012 J-.266 E.0224
G1 X212.39 Y212.899 E.02552
G1 X212.425 Y211.776 E.04056
G1 E-.35 F2400
;WIPE_START
G1 F3600
G1 X213.15 Y212.465 E-.15
;WIPE_END
G1 X213.907 Y214.651 Z.6 F30000
G1 Z.2
G1 E.5 F2400
;WIDTH:0.42
G1 F3600
G1 X213.879 Y214.716 E.0021
G1 X213.79 Y215.277 E.01692
G2 X213.478 Y216.43 I1.689 J1.077 E.03614
G1 X213.466 Y216.421 E.00045
G3 X213.869 Y214.66 I.648 J-.778 E.06647
G1 X214.534 Y214.024 F30000
G1 F3600
G3 X215.588 Y213.218 I.991 J.204 E.0431
G3 X216.313 Y213.594 I-.074 J1.029 E.02502
G1 X215.413 Y213.834 E.02776
G2 X214.572 Y214.011 I.268 J3.368 E.02566
G1 E-.35 F2400
;WIPE_START
G1 F3600
G1 X214.93 Y213.409 E-.10505
G1 X215.218 Y213.325 E-.04495
;WIPE_END
G1 X213.438 Y216.372 Z.6 F30000
G1 Z.2
G1 E.5 F2400
G1 F3600
G1 X213.438 Y214.911 E.04349
G1 E-.35 F2400
;WIPE_START
G1 F3600
G1 X213.438 Y215.911 E-.15
;WIPE_END
G1 X215.193 Y213.891 Z.6 F30000
M73 P10 R6
G1 Z.2
G1 E.5 F2400
G1 F3600
G1 X215.193 Y213.292 E.01783
G1 X215.214 Y213.366 F30000
;WIDTH:0.5
G1 F3600
G1 X215.586 Y213.258 E.01398
G3 X216.218 Y213.548 I-.072 J.993 E.02566
G1 X215.389 Y213.802 E.03134
G2 X214.593 Y213.955 I.583 J5.17 E.0293
G3 X214.955 Y213.443 I.937 J.278 E.02307
G1 X215.176 Y213.377 E.00831
G1 X215.217 Y214.333 F30000
;TYPE:Support interface
G1 F3600
G1 X215.464 Y214.322 E.0089
G3 X216.227 Y214.005 I.73 J.68 E.03078
G3 X217.182 Y215.026 I-.15 J1.097 E.0546
G3 X217.779 Y216.743 I-.023 J.971 E.08498
G3 X216.543 Y217.92 I-.936 J.255 E.07536
G3 X214.826 Y217.216 I-.71 J-.714 E.08521
G3 X214.23 Y215.497 I.024 J-.971 E.08506
G3 X214.852 Y214.328 I.936 J-.252 E.05264
G1 X215.177 Y214.333 E.01174
G1 X215.005 Y214.745 F30000
;WIDTH:0.42
G1 F3600
G2 X214.665 Y215.669 I.149 J.579 E.03444
G2 X215.012 Y216.835 I.242 J.563 E.05307
G1 X215.468 Y217.633 F30000
G1 F3600
G3 X215.227 Y216.898 I1.437 J-.879 E.02327
G1 X215.193 Y214.748 E.06405
G2 X215.929 Y214.492 I.111 J-.867 E.02408
G1 X216.07 Y214.433 E.00454
