; HEADER_BLOCK_START
; generated by Creality_Print V5.1.6.10470 on 2024-12-10 at 17:03:01
; total layer number: 10
; filament_density: 1.24
; filament_diameter: 1.75
; max_z_height: 2.00
; HEADER_BLOCK_END

; MINX = 96.79
; MINY = 104.95
; MINZ = -0.00
; MAXX = 122.85
; MAXY = 139.83
; MAXZ = 2.00

; THUMBNAIL_BLOCK_START

;
; THUMBNAIL_BLOCK_END

; THUMBNAIL_BLOCK_START

;
; THUMBNAIL_BLOCK_END

; external perimeters extrusion width = 0.42mm
; perimeters extrusion width = 0.45mm
; infill extrusion width = 0.45mm
; solid infill extrusion width = 0.42mm
; top infill extrusion width = 0.42mm
; support material extrusion width = 0.42mm
; first layer extrusion width = 0.50mm

; external perimeters extrusion width = 0.42mm
; perimeters extrusion width = 0.45mm
; infill extrusion width = 0.45mm
; solid infill extrusion width = 0.42mm
; top infill extrusion width = 0.42mm
; support material extrusion width = 0.42mm
; first layer extrusion width = 0.50mm

; EXECUTABLE_BLOCK_START
EXCLUDE_OBJECT_DEFINE NAME=Link_3.stl_id_0_copy_0 CENTER=110,110 POLYGON=[[97.1545,108.085],[97.1731,107.596],[97.2708,107.117],[97.4451,106.66],[97.6913,106.238],[98.0028,105.861],[98.3715,105.54],[98.7874,105.282],[99.2396,105.096],[99.7161,104.986],[100.204,104.955],[100.691,105.003],[120.309,108.902],[120.785,109.029],[121.234,109.23],[121.646,109.5],[122.01,109.831],[122.317,110.216],[122.56,110.645],[122.731,111.107],[122.827,111.59],[122.845,112.082],[122.786,112.57],[122.649,113.044],[122.44,113.489],[122.162,113.896],[121.824,114.254],[121.433,114.553],[121,114.787],[120.535,114.95],[120.05,115.036],[119.558,115.045],[119.07,114.976],[99.4919,110.881],[99.0252,110.735],[98.5885,110.515],[98.1933,110.227],[97.8501,109.879],[97.568,109.479],[97.3546,109.039],[97.2156,108.57],[97.1545,108.085]]
EXCLUDE_OBJECT_DEFINE NAME=Link_3.stl_id_1_copy_0 CENTER=109.639,134.783 POLYGON=[[96.7933,132.868],[96.8119,132.38],[96.9096,131.9],[97.0839,131.444],[97.3301,131.021],[97.6416,130.644],[98.0103,130.323],[98.4262,130.066],[98.8784,129.88],[99.3549,129.769],[99.8429,129.738],[100.33,129.786],[119.948,133.685],[120.423,133.813],[120.873,134.013],[121.285,134.283],[121.649,134.615],[121.956,134.999],[122.199,135.428],[122.37,135.89],[122.466,136.373],[122.484,136.865],[122.425,137.354],[122.288,137.827],[122.079,138.272],[121.801,138.679],[121.463,139.037],[121.072,139.336],[120.638,139.57],[120.174,139.733],[119.689,139.819],[119.196,139.828],[118.709,139.759],[99.1308,135.664],[98.6641,135.518],[98.2273,135.298],[97.8321,135.01],[97.4889,134.662],[97.2069,134.262],[96.9935,133.822],[96.8544,133.353],[96.7933,132.868]]
M73 P0 R1
M106 S0
M106 P2 S0
;TYPE:Custom
M140 S0
M104 S0 
START_PRINT EXTRUDER_TEMP=230 BED_TEMP=50
M141 S35;set chamber_temperature
G90
G21
M83 ; use relative distances for extrusion
; filament start gcode
M106 S0
;LAYER_CHANGE
;Z:0.2
;HEIGHT:0.2
;BEFORE_LAYER_CHANGE
;0.2
G92 E0

G1 E-.5 F2400
;AFTER_LAYER_CHANGE
;0.2
;_SET_FAN_SPEED_CHANGING_LAYER
SET_VELOCITY_LIMIT ACCEL=1000 ACCEL_TO_DECEL=1000
SET_VELOCITY_LIMIT SQUARE_CORNER_VELOCITY=20
; printing object Link 3.stl id:0 copy 0
EXCLUDE_OBJECT_START NAME=Link_3.stl_id_0_copy_0
G1 X118.35 Y110.142 F30000
M73 P1 R1
G1 Z.4
G1 Z.2
G1 E.5 F2400
;TYPE:Inner wall
;WIDTH:0.432138
G1 F3600
G1 X118.76 Y109.895 E.01474
;WIDTH:0.415518
G1 X119.272 Y109.724 E.01587
;WIDTH:0.412511
G1 X119.815 Y109.669 E.01594
G1 X120.338 Y109.75 E.01544
G1 X120.855 Y109.954 E.01625
G1 X121.326 Y110.306 E.01716
;WIDTH:0.412817
G1 X121.668 Y110.72 E.01568
G1 X121.914 Y111.241 E.01684
;WIDTH:0.417393
G1 X122.023 Y111.836 E.0179
;WIDTH:0.414913
G1 X121.987 Y112.392 E.01638
;WIDTH:0.416957
G1 X121.888 Y112.741 E.01071
G1 X121.658 Y113.194 E.01501
;WIDTH:0.414225
G1 X121.265 Y113.656 E.01778
G1 X120.788 Y113.978 E.01688
;WIDTH:0.412099
G1 X120.313 Y114.163 E.01486
G1 X119.766 Y114.23 E.01607
;WIDTH:0.413442
G1 X119.235 Y114.175 E.01565
G1 X118.714 Y113.981 E.01625
;WIDTH:0.416532
G1 X118.294 Y113.709 E.01477
G1 X118.015 Y113.434 E.01157
;WIDTH:0.443425
G1 X117.802 Y113.123 E.01191
;WIDTH:0.47119
G1 X117.59 Y112.812 E.01274
;WIDTH:0.499999
G1 X117.397 Y112.592 E.01057
G1 X116.95 Y112.235 E.02067
G1 X116.483 Y111.991 E.01902
G1 X115.992 Y111.841 E.01853
G1 X103.514 Y109.296 E.45982
G2 X101.929 Y109.453 I-.537 J2.656 E.05833
;WIDTH:0.474192
G1 X101.795 Y109.515 E.00503
;WIDTH:0.448384
G1 X101.567 Y109.665 E.00874
;WIDTH:0.40622
G1 X101.339 Y109.815 E.00783
;WIDTH:0.364056
G1 X100.832 Y110.05 E.01418
;WIDTH:0.367153
G3 X100.009 Y110.157 I-.687 J-2.076 E.02138
;WIDTH:0.364837
M73 P2 R1
G1 X99.478 Y110.051 E.01377
;WIDTH:0.362586
G1 X98.99 Y109.832 E.01351
G1 X98.588 Y109.508 E.01304
;WIDTH:0.362121
G1 X98.243 Y109.065 E.01414
G1 X98.03 Y108.549 E.0141
;WIDTH:0.36365
G1 X97.946 Y108.037 E.01312
G1 X97.998 Y107.492 E.01388
;WIDTH:0.36605
G1 X98.156 Y107.015 E.01283
;WIDTH:0.366441
G1 X98.335 Y106.703 E.00919
G1 X98.675 Y106.319 E.0131
;WIDTH:0.364304
G1 X99.16 Y105.983 E.01498
G1 X99.685 Y105.802 E.01411
;WIDTH:0.362057
G1 X100.214 Y105.748 E.01339
G1 X100.722 Y105.826 E.01298
;WIDTH:0.362304
G1 X101.224 Y106.023 E.01361
G1 X101.632 Y106.323 E.01277
;WIDTH:0.365854
G1 X102 Y106.744 E.01425
;WIDTH:0.410569
G1 X102.092 Y106.896 E.00518
;WIDTH:0.455284
G1 X102.183 Y107.049 E.00581
;WIDTH:0.499999
G1 X102.275 Y107.202 E.00644
G1 X102.684 Y107.558 E.01958
G1 X103.175 Y107.841 E.02047
G1 X103.77 Y108.036 E.02261
G1 X116.249 Y110.581 E.45982
G1 X116.652 Y110.632 E.01466
G1 X117.256 Y110.6 E.02184
G1 X117.777 Y110.464 E.01946
G1 X118.006 Y110.338 E.00941
;WIDTH:0.466069
G1 X118.234 Y110.212 E.00872
;WIDTH:0.432138
G1 X118.315 Y110.163 E.00292
G1 E-.35 F2400
;WIPE_START
G1 F3600
G1 X118.76 Y109.895 E-.07791
G1 X119.216 Y109.742 E-.07209
;WIPE_END
G1 X121.161 Y113.216 Z.6 F30000
G1 Z.2
M73 P3 R1
G1 E.5 F2400
;WIDTH:0.414225
G1 F3600
G1 X121.039 Y113.361 E.00556
G1 X120.63 Y113.646 E.01461
;WIDTH:0.411486
G1 X120.161 Y113.816 E.01452
;WIDTH:0.415007
G1 X119.644 Y113.859 E.01527
G1 X119.173 Y113.773 E.01405
;WIDTH:0.411887
G1 X118.721 Y113.562 E.01453
;WIDTH:0.415659
G1 X118.312 Y113.21 E.0159
;WIDTH:0.425116
G1 X118.047 Y112.835 E.01385
;WIDTH:0.461873
G1 X117.959 Y112.669 E.00625
;WIDTH:0.498629
G1 X117.871 Y112.502 E.00679
;WIDTH:0.499999
G1 X117.795 Y112.035 E.01706
G1 X117.839 Y111.532 E.01824
G1 X118.012 Y111.052 E.01842
G1 X118.259 Y110.709 E.01527
;WIDTH:0.4794
G1 X118.49 Y110.524 E.0102
;WIDTH:0.445659
G1 X118.721 Y110.34 E.00941
;WIDTH:0.412815
G1 X119.184 Y110.124 E.01491
G1 X119.712 Y110.039 E.01563
;WIDTH:0.409753
G1 X120.243 Y110.103 E.01551
G1 X120.735 Y110.313 E.0155
;WIDTH:0.412895
G1 X121.138 Y110.636 E.01509
G1 X121.443 Y111.069 E.01548
;WIDTH:0.411815
G1 X121.613 Y111.538 E.01453
;WIDTH:0.413463
G1 X121.658 Y112.035 E.01461
G1 X121.57 Y112.526 E.0146
;WIDTH:0.411451
G1 X121.359 Y112.978 E.01452
;WIDTH:0.414225
G1 X121.186 Y113.185 E.00792
G1 X121.038 Y112.713 F30000
;TYPE:Outer wall
;WIDTH:0.499999
G1 F3600
G1 X121.032 Y112.727 E.00052
G1 X120.787 Y113.033 E.01415
G1 X120.472 Y113.264 E.01412
G1 X120.108 Y113.407 E.01414
G1 X119.698 Y113.448 E.01487
G1 X119.331 Y113.392 E.01339
G1 X118.973 Y113.235 E.01413
G1 X118.642 Y112.957 E.0156
G1 X118.435 Y112.675 E.01264
G1 X118.292 Y112.31 E.01414
G1 X118.257 Y111.859 E.01634
G1 X118.292 Y111.592 E.00974
G1 X118.465 Y111.175 E.01627
G1 X118.709 Y110.87 E.01414
G1 X119.058 Y110.623 E.01543
G1 X119.389 Y110.495 E.0128
G1 X119.778 Y110.451 E.01414
G1 X120.218 Y110.532 E.01616
G1 X120.524 Y110.667 E.01206
G1 X120.83 Y110.912 E.01414
G1 X121.092 Y111.299 E.01688
G1 X121.204 Y111.592 E.01133
G1 X121.248 Y111.981 E.01414
G1 X121.151 Y112.459 E.0176
G1 X121.054 Y112.677 E.00863
G1 E-.35 F2400
;WIPE_START
G1 F3600
G1 X121.032 Y112.727 E-.00814
G1 X120.787 Y113.033 E-.0588
G1 X120.472 Y113.264 E-.05864
G1 X120.321 Y113.324 E-.02441
;WIPE_END
G1 X112.933 Y111.405 Z.6 F30000
M73 P4 R1
G1 X98.314 Y107.607 Z.6
G1 Z.2
G1 E.5 F2400
;TYPE:Inner wall
;WIDTH:0.362154
G1 F3600
G1 X98.352 Y107.389 E.00559
G1 X98.56 Y106.943 E.01241
;WIDTH:0.361776
G1 X98.877 Y106.565 E.0124
;WIDTH:0.364304
G1 X99.282 Y106.28 E.0126
G1 X99.742 Y106.114 E.0124
;WIDTH:0.361956
G1 X100.232 Y106.07 E.01241
G1 X100.562 Y106.113 E.00837
;WIDTH:0.362005
G1 X101.043 Y106.29 E.01292
;WIDTH:0.361727
G1 X101.472 Y106.605 E.0134
;WIDTH:0.371744
G1 X101.802 Y107.025 E.01388
;WIDTH:0.414496
G1 X101.873 Y107.138 E.0039
;WIDTH:0.457248
G1 X101.944 Y107.25 E.00435
;WIDTH:0.499999
G1 X102.015 Y107.363 E.0048
G1 X102.104 Y107.865 E.01842
G1 X102.061 Y108.373 E.01842
G1 X101.887 Y108.853 E.01842
G1 X101.703 Y109.132 E.01207
;WIDTH:0.499485
G1 X101.523 Y109.27 E.00817
;WIDTH:0.454342
G1 X101.344 Y109.408 E.00737
;WIDTH:0.409199
G1 X101.164 Y109.547 E.00656
;WIDTH:0.364056
G1 X100.692 Y109.763 E.01317
;WIDTH:0.361086
G1 X100.166 Y109.842 E.01337
;WIDTH:0.359215
G1 X99.638 Y109.771 E.0133
;WIDTH:0.362586
G1 X99.173 Y109.57 E.0128
G1 X98.763 Y109.23 E.01346
;WIDTH:0.361616
G1 X98.48 Y108.827 E.01239
;WIDTH:0.364553
G1 X98.308 Y108.354 E.01279
G1 X98.268 Y107.874 E.01223
;WIDTH:0.362154
G1 X98.308 Y107.647 E.00582
G1 X98.654 Y107.939 F30000
;TYPE:Outer wall
;WIDTH:0.499999
G1 F3600
G1 X98.652 Y107.925 E.00051
G1 X98.711 Y107.537 E.01414
G1 X98.913 Y107.12 E.01672
G1 X99.112 Y106.873 E.01149
G1 X99.431 Y106.639 E.01427
G1 X99.792 Y106.498 E.014
G1 X100.182 Y106.455 E.01414
G1 X100.511 Y106.498 E.012
G1 X100.927 Y106.671 E.01627
G1 X101.233 Y106.915 E.01414
G1 X101.465 Y107.23 E.01414
M73 P5 R1
G1 X101.608 Y107.595 E.01414
G1 X101.651 Y107.984 E.01414
G1 X101.556 Y108.459 E.01748
G1 X101.435 Y108.73 E.01072
G1 X101.191 Y109.036 E.01414
G1 X100.797 Y109.3 E.01712
G1 X100.511 Y109.41 E.01108
G1 X100.104 Y109.452 E.01477
G1 X99.735 Y109.395 E.01348
G1 X99.376 Y109.238 E.01414
G1 X99.021 Y108.93 E.01698
G1 X98.838 Y108.678 E.01123
G1 X98.694 Y108.303 E.01452
G1 X98.658 Y107.978 E.01178
G1 E-.35 F2400
;WIPE_START
G1 F3600
G1 X98.652 Y107.925 E-.00813
G1 X98.711 Y107.537 E-.05873
G1 X98.913 Y107.12 E-.06947
G1 X98.97 Y107.05 E-.01367
;WIPE_END
G1 X106.502 Y108.284 Z.6 F30000
G1 X117.475 Y110.083 Z.6
G1 Z.2
G1 E.5 F2400
G1 F3600
G1 X117.511 Y110.076 E.00132
G2 X118.608 Y109.509 I-2.333 J-5.851 E.04467
G1 X119.115 Y109.336 E.01935
G1 X119.668 Y109.261 E.02011
G1 X120.188 Y109.292 E.01884
G1 X120.694 Y109.427 E.0189
G1 X121.162 Y109.661 E.01888
G1 X121.603 Y110.002 E.02014
G1 X121.955 Y110.403 E.01927
G3 X122.328 Y111.171 I-2.513 J1.696 E.03094
G1 X122.438 Y111.898 E.02654
G1 X122.398 Y112.443 E.01972
G1 X122.253 Y112.946 E.0189
G1 X121.998 Y113.426 E.01964
G1 X121.678 Y113.825 E.01848
G1 X121.253 Y114.187 E.02017
G1 X120.792 Y114.436 E.0189
M73 P6 R1
G1 X120.291 Y114.587 E.01891
G1 X119.774 Y114.641 E.01876
G1 X119.205 Y114.591 E.02061
G1 X118.705 Y114.436 E.01889
G1 X118.263 Y114.196 E.01819
G1 X117.854 Y113.862 E.01905
G3 X117.079 Y112.919 I56.246 J-47.089 E.04406
G1 X116.688 Y112.61 E.01798
G2 X115.901 Y112.289 I-1.246 J1.931 E.03089
G1 X103.422 Y109.744 E.45982
G2 X101.818 Y109.995 I-.453 J2.354 E.05979
G1 X101.198 Y110.33 E.02545
G1 X100.684 Y110.49 E.01945
G1 X100.182 Y110.544 E.01822
G1 X99.644 Y110.498 E.0195
G1 X99.176 Y110.363 E.01759
G1 X98.72 Y110.116 E.01873
G1 X98.313 Y109.779 E.01907
G1 X97.987 Y109.379 E.01864
G1 X97.749 Y108.935 E.0182
G1 X97.603 Y108.443 E.01851
G1 X97.562 Y107.904 E.01952
G1 X97.629 Y107.361 E.01976
G1 X97.791 Y106.876 E.01848
G1 X98.049 Y106.433 E.01851
G1 X98.384 Y106.059 E.01812
G1 X98.822 Y105.731 E.01975
G1 X99.315 Y105.498 E.0197
G1 X99.774 Y105.383 E.01706
G1 X100.307 Y105.367 E.01927
G1 X100.823 Y105.453 E.01887
G1 X101.311 Y105.636 E.01884
G3 X102.076 Y106.208 I-1.145 J2.33 E.03467
G1 X102.615 Y106.896 E.03157
G2 X103.862 Y107.588 I1.89 J-1.936 E.0521
G1 X116.34 Y110.133 E.45982
M73 P7 R1
G2 X117.014 Y110.164 I.459 J-2.628 E.02443
G1 X117.436 Y110.09 E.01546
G1 E-.35 F2400
;WIPE_START
G1 F3600
G1 X117.511 Y110.076 E-.01147
G1 X118.019 Y109.847 E-.08355
G1 X118.337 Y109.665 E-.05498
;WIPE_END
G1 X117.876 Y111.096 Z.6 F30000
G1 Z.2
G1 E.5 F2400
;TYPE:Bottom surface
;WIDTH:0.516121
G1 F6300
G1 X117.629 Y110.848 E.01309
G1 X117.053 Y110.942 E.02181
G1 X117.533 Y111.422 E.02539
G2 X117.477 Y112.035 I2.261 J.517 E.02307
G1 X116.359 Y110.917 E.05909
G3 X115.535 Y110.762 I.629 J-5.61 E.03138
G1 X116.396 Y111.624 E.04554
G2 X115.522 Y111.419 I-1.81 J5.756 E.03359
G1 X114.694 Y110.591 E.04378
G1 X113.853 Y110.419 E.03207
G1 X114.682 Y111.247 E.04378
G1 X113.841 Y111.076 E.03207
G1 X113.013 Y110.248 E.04378
M73 P8 R1
G1 X112.172 Y110.076 E.03207
G1 X113 Y110.904 E.04378
G1 X112.16 Y110.733 E.03207
G1 X111.332 Y109.905 E.04378
G1 X110.491 Y109.733 E.03207
G1 X111.319 Y110.561 E.04378
G1 X110.478 Y110.39 E.03207
G1 X109.65 Y109.562 E.04378
G1 X108.81 Y109.39 E.03207
G1 X109.638 Y110.219 E.04378
G1 X108.797 Y110.047 E.03207
G1 X107.969 Y109.219 E.04378
G1 X107.128 Y109.048 E.03207
G1 X107.956 Y109.876 E.04378
G1 X107.116 Y109.704 E.03207
G1 X106.288 Y108.876 E.04378
G1 X105.447 Y108.705 E.03207
G1 X106.275 Y109.533 E.04378
G1 X105.434 Y109.361 E.03207
G1 X104.606 Y108.533 E.04378
G1 X103.766 Y108.362 E.03207
G1 X104.594 Y109.19 E.04378
G1 X103.753 Y109.018 E.03207
G1 X102.658 Y107.923 E.05789
M73 P9 R1
G3 X102.422 Y107.763 I.644 J-1.202 E.01069
G3 X102.39 Y108.324 I-1.882 J.174 E.02109
G1 X102.989 Y108.924 E.0317
G2 X102.375 Y108.979 I.115 J4.733 E.02306
G1 X102.081 Y108.685 E.01556
G1 E-.35 F2400
;WIPE_START
G1 F6300
G1 X102.375 Y108.979 E-.06244
G1 X102.957 Y108.927 E-.08756
;WIPE_END
G1 X110.409 Y110.575 Z.6 F30000
G1 X117.135 Y112.062 Z.6
G1 Z.2
G1 E.5 F2400
;TYPE:Gap infill
;WIDTH:0.121668
G1 F3600
G1 X116.929 Y111.894 E.00165
;WIDTH:0.146758
G1 X116.922 Y111.889 E.00007
;WIDTH:0.170805
G1 X116.777 Y111.789 E.00178
;WIDTH:0.19366
G1 X116.632 Y111.689 E.0021
; stop printing object Link 3.stl id:0 copy 0
; printing object Link 3.stl id:1 copy 0
G1 E-.38267 F2400
;WIPE_START
G1 F3600
G1 X116.777 Y111.789 E-.11733
;WIPE_END
EXCLUDE_OBJECT_END NAME=Link_3.stl_id_0_copy_0
EXCLUDE_OBJECT_START NAME=Link_3.stl_id_1_copy_0
G1 X117.176 Y119.411 Z.6 F30000
G1 X117.988 Y134.925 Z.6
M73 P10 R1
G1 Z.2
G1 E.5 F2400
;TYPE:Inner wall
;WIDTH:0.432138
G1 F3600
G1 X118.399 Y134.678 E.01474
;WIDTH:0.415518
G1 X118.911 Y134.507 E.01587
;WIDTH:0.412511
G1 X119.454 Y134.452 E.01594
G1 X119.977 Y134.533 E.01544
G1 X120.494 Y134.738 E.01625
G1 X120.965 Y135.09 E.01716
;WIDTH:0.412817
G1 X121.307 Y135.503 E.01568
G1 X121.553 Y136.024 E.01684
;WIDTH:0.417393
G1 X121.662 Y136.62 E.0179
;WIDTH:0.414913
G1 X121.626 Y137.176 E.01638
;WIDTH:0.416957
G1 X121.527 Y137.524 E.01071
G1 X121.296 Y137.977 E.01501
;WIDTH:0.414225
G1 X120.904 Y138.439 E.01778
G1 X120.427 Y138.761 E.01688
;WIDTH:0.412099
G1 X119.952 Y138.946 E.01486
G1 X119.405 Y139.013 E.01607
;WIDTH:0.413442
G1 X118.873 Y138.958 E.01565
G1 X118.353 Y138.764 E.01625
;WIDTH:0.416532
G1 X117.933 Y138.492 E.01477
G1 X117.653 Y138.217 E.01157
;WIDTH:0.443425
G1 X117.441 Y137.906 E.01191
;WIDTH:0.47119
G1 X117.229 Y137.595 E.01274
;WIDTH:0.499999
G1 X117.036 Y137.375 E.01057
G1 X116.589 Y137.018 E.02067
G1 X116.122 Y136.774 E.01902
G1 X115.631 Y136.624 E.01853
G1 X103.152 Y134.079 E.45982
G2 X101.568 Y134.236 I-.537 J2.656 E.05833
;WIDTH:0.474192
M73 P11 R1
G1 X101.434 Y134.298 E.00503
;WIDTH:0.448384
G1 X101.206 Y134.448 E.00874
;WIDTH:0.40622
G1 X100.978 Y134.598 E.00783
;WIDTH:0.364056
G1 X100.471 Y134.833 E.01418
;WIDTH:0.367153
G3 X99.648 Y134.94 I-.687 J-2.076 E.02138
;WIDTH:0.364837
G1 X99.117 Y134.835 E.01377
;WIDTH:0.362586
G1 X98.629 Y134.615 E.01351
G1 X98.227 Y134.291 E.01304
;WIDTH:0.362121
G1 X97.882 Y133.849 E.01414
G1 X97.668 Y133.332 E.0141
;WIDTH:0.36365
G1 X97.585 Y132.821 E.01312
G1 X97.637 Y132.275 E.01388
;WIDTH:0.36605
G1 X97.794 Y131.798 E.01283
;WIDTH:0.366441
G1 X97.974 Y131.486 E.00919
G1 X98.314 Y131.103 E.0131
;WIDTH:0.364304
G1 X98.799 Y130.766 E.01498
G1 X99.324 Y130.585 E.01411
;WIDTH:0.362057
G1 X99.853 Y130.531 E.01339
G1 X100.361 Y130.609 E.01298
;WIDTH:0.362304
G1 X100.863 Y130.806 E.01361
G1 X101.271 Y131.106 E.01277
