; HEADER_BLOCK_START
; generated by Creality_Print V5.1.6.10470 on 2024-12-10 at 17:05:44
; total layer number: 10
; filament_density: 1.24
; filament_diameter: 1.75
; max_z_height: 2.00
; HEADER_BLOCK_END

; MINX = 68.07
; MINY = 100.71
; MINZ = 0.00
; MAXX = 146.70
; MAXY = 138.81
; MAXZ = 2.00

; THUMBNAIL_BLOCK_START

;
; THUMBNAIL_BLOCK_END

; THUMBNAIL_BLOCK_START

;
; THUMBNAIL_BLOCK_END

; external perimeters extrusion width = 0.42mm
; perimeters extrusion width = 0.45mm
; infill extrusion width = 0.45mm
; solid infill extrusion width = 0.42mm
; top infill extrusion width = 0.42mm
; support material extrusion width = 0.42mm
; first layer extrusion width = 0.50mm

; external perimeters extrusion width = 0.42mm
; perimeters extrusion width = 0.45mm
; infill extrusion width = 0.45mm
; solid infill extrusion width = 0.42mm
; top infill extrusion width = 0.42mm
; support material extrusion width = 0.42mm
; first layer extrusion width = 0.50mm

; EXECUTABLE_BLOCK_START
EXCLUDE_OBJECT_DEFINE NAME=Link_5.stl_id_0_copy_0 CENTER=108.243,105.963 POLYGON=[[69.7883,107.633],[69.8403,107.112],[69.9692,106.605],[70.1722,106.123],[70.4449,105.676],[70.781,105.276],[71.1731,104.929],[71.6124,104.645],[72.0892,104.43],[72.5927,104.288],[73.1117,104.223],[143.024,100.712],[143.547,100.725],[144.062,100.816],[144.558,100.982],[145.023,101.221],[145.448,101.526],[145.823,101.891],[146.139,102.308],[146.389,102.767],[146.568,103.259],[146.672,103.772],[146.698,104.294],[146.646,104.814],[146.517,105.321],[146.314,105.804],[146.042,106.25],[145.705,106.651],[145.313,106.997],[144.874,107.281],[144.397,107.496],[143.894,107.638],[143.375,107.703],[73.4628,111.214],[72.9399,111.201],[72.4247,111.111],[71.9288,110.944],[71.4632,110.706],[71.0384,110.401],[70.6638,110.035],[70.3478,109.619],[70.0975,109.159],[69.9184,108.668],[69.8146,108.155],[69.7883,107.633]]
EXCLUDE_OBJECT_DEFINE NAME=Link_5.stl_id_1_copy_0 CENTER=106.521,133.561 POLYGON=[[68.066,135.231],[68.118,134.71],[68.2469,134.203],[68.4499,133.721],[68.7226,133.275],[69.0587,132.874],[69.4508,132.527],[69.8901,132.244],[70.3669,132.028],[70.8704,131.886],[71.3894,131.821],[141.301,128.31],[141.824,128.323],[142.339,128.414],[142.835,128.58],[143.301,128.819],[143.726,129.124],[144.1,129.489],[144.416,129.906],[144.667,130.365],[144.846,130.857],[144.95,131.37],[144.976,131.892],[144.924,132.413],[144.795,132.92],[144.592,133.402],[144.319,133.848],[143.983,134.249],[143.591,134.595],[143.152,134.879],[142.675,135.094],[142.171,135.236],[141.652,135.301],[71.7405,138.812],[71.2176,138.8],[70.7024,138.709],[70.2065,138.542],[69.7409,138.304],[69.3161,137.999],[68.9415,137.634],[68.6255,137.217],[68.3752,136.757],[68.1961,136.266],[68.0923,135.753],[68.066,135.231]]
M73 P0 R4
M106 S0
M106 P2 S0
;TYPE:Custom
M140 S0
M104 S0 
START_PRINT EXTRUDER_TEMP=230 BED_TEMP=50
M141 S35;set chamber_temperature
G90
G21
M83 ; use relative distances for extrusion
; filament start gcode
M106 S0
;LAYER_CHANGE
;Z:0.2
;HEIGHT:0.2
;BEFORE_LAYER_CHANGE
;0.2
G92 E0

G1 E-.5 F2400
;AFTER_LAYER_CHANGE
;0.2
;_SET_FAN_SPEED_CHANGING_LAYER
SET_VELOCITY_LIMIT ACCEL=1000 ACCEL_TO_DECEL=1000
SET_VELOCITY_LIMIT SQUARE_CORNER_VELOCITY=20
; printing object Link 5.stl id:0 copy 0
EXCLUDE_OBJECT_START NAME=Link_5.stl_id_0_copy_0
G1 X145.772 Y104.064 F30000
G1 Z.4
G1 Z.2
G1 E.5 F2400
;TYPE:Inner wall
;WIDTH:0.616326
G1 F3600
G1 X145.744 Y104.634 E.02586
G1 X145.64 Y105.049 E.01941
;WIDTH:0.614683
G1 X145.358 Y105.617 E.02861
;WIDTH:0.612075
G1 X145.034 Y106.026 E.02347
G1 X144.614 Y106.362 E.02419
;WIDTH:0.61632
G1 X144.103 Y106.625 E.02604
G1 X143.691 Y106.742 E.01941
;WIDTH:0.622923
G2 X142.874 Y106.829 I.349 J7.133 E.03764
;WIDTH:0.581949
G1 X142.67 Y106.86 E.0088
;WIDTH:0.540974
G1 X142.466 Y106.891 E.00813
;WIDTH:0.499999
G1 X94.354 Y109.307 E1.73932
;WIDTH:0.543179
G1 X94.15 Y109.296 E.00806
;WIDTH:0.586359
G1 X93.946 Y109.284 E.00876
;WIDTH:0.629539
G1 X93.743 Y109.273 E.00945
G1 X93.141 Y109.306 E.0279
;WIDTH:0.62292
G1 X92.937 Y109.337 E.00946
;WIDTH:0.581947
G1 X92.733 Y109.368 E.0088
;WIDTH:0.540973
G1 X92.528 Y109.399 E.00813
;WIDTH:0.499999
G1 X74.379 Y110.31 E.65614
;WIDTH:0.543179
G1 X74.175 Y110.299 E.00806
;WIDTH:0.586358
G1 X73.971 Y110.287 E.00876
;WIDTH:0.629537
G2 X73.146 Y110.293 I-.377 J4.925 E.03828
;WIDTH:0.61208
G1 X72.63 Y110.217 E.02346
G1 X72.129 Y110.021 E.02418
;WIDTH:0.616321
G1 X71.646 Y109.71 E.02605
G1 X71.338 Y109.411 E.0194
;WIDTH:0.614681
G1 X70.987 Y108.884 E.02861
;WIDTH:0.612076
G1 X70.796 Y108.399 E.02346
G1 X70.714 Y107.867 E.02419
;WIDTH:0.616324
G1 X70.742 Y107.292 E.02604
G1 X70.847 Y106.877 E.01941
;WIDTH:0.614679
G1 X71.128 Y106.309 E.02861
;WIDTH:0.612078
G1 X71.453 Y105.901 E.02346
G1 X71.872 Y105.564 E.02419
;WIDTH:0.616321
G1 X72.384 Y105.301 E.02604
G1 X72.796 Y105.184 E.01941
;WIDTH:0.622913
G2 X73.612 Y105.097 I-.349 J-7.134 E.03764
;WIDTH:0.581942
G1 X73.817 Y105.066 E.0088
;WIDTH:0.540971
G1 X74.021 Y105.036 E.00813
;WIDTH:0.499999
G1 X92.171 Y104.125 E.65614
;WIDTH:0.543089
M73 P1 R4
G1 X92.374 Y104.136 E.00806
;WIDTH:0.586178
G1 X92.578 Y104.147 E.00875
;WIDTH:0.629267
G1 X92.782 Y104.159 E.00945
G1 X93.383 Y104.125 E.02789
;WIDTH:0.622633
G1 X93.587 Y104.095 E.00946
;WIDTH:0.581755
G1 X93.791 Y104.064 E.00879
;WIDTH:0.540877
G1 X93.996 Y104.033 E.00812
;WIDTH:0.499999
G1 X141.804 Y101.634 E1.72834
;WIDTH:0.536988
G1 X142.123 Y101.636 E.01244
;WIDTH:0.573977
G1 X142.442 Y101.639 E.01338
;WIDTH:0.615127
G3 X143.712 Y101.681 I.42 J6.442 E.05753
;WIDTH:0.617299
G3 X144.6 Y102.041 I-.491 J2.487 E.04376
;WIDTH:0.611886
G1 X145.011 Y102.373 E.02371
;WIDTH:0.61293
G1 X145.386 Y102.835 E.0268
G1 X145.644 Y103.388 E.02749
;WIDTH:0.617378
G1 X145.766 Y104.024 E.02939
G1 X146.182 Y103.368 F30000
;TYPE:Outer wall
;WIDTH:0.499999
G1 F3600
G1 X146.289 Y104.117 E.02732
G1 X146.257 Y104.685 E.02056
G3 X145.677 Y106.062 I-3.058 J-.477 E.05448
G1 X145.251 Y106.519 E.02255
G1 X144.823 Y106.838 E.01928
G1 X144.315 Y107.095 E.02056
G3 X143.34 Y107.305 I-1.171 J-3.071 E.03615
G1 X74.07 Y110.783 E2.50421
G3 X72.92 Y110.792 I-.623 J-6.439 E.04155
G1 X72.312 Y110.651 E.02255
G1 X71.822 Y110.44 E.01928
G1 X71.345 Y110.128 E.02056
M73 P2 R4
G3 X70.442 Y108.938 I1.942 J-2.409 E.05448
G1 X70.26 Y108.34 E.02255
G1 X70.198 Y107.81 E.01927
G1 X70.229 Y107.241 E.02056
G3 X70.809 Y105.864 I3.058 J.477 E.05448
G1 X71.236 Y105.408 E.02255
G1 X71.664 Y105.089 E.01927
G1 X72.172 Y104.832 E.02056
G3 X73.147 Y104.622 I1.171 J3.07 E.03615
G1 X142.693 Y101.131 E2.51419
G1 X143.447 Y101.123 E.02722
G1 X143.963 Y101.204 E.01887
G3 X145.368 Y102.006 I-.995 J3.375 E.05893
G1 X145.755 Y102.467 E.02171
G3 X146.171 Y103.329 I-2.584 J1.777 E.03471
G1 E-.35 F2400
;WIPE_START
G1 F3600
G1 X146.289 Y104.117 E-.11941
G1 X146.277 Y104.32 E-.03059
;WIPE_END
G1 X145.122 Y104.782 Z.6 F30000
G1 Z.2
G1 E.5 F2400
;TYPE:Inner wall
;WIDTH:0.614101
G1 F3600
G1 X145.115 Y104.821 E.0018
G1 X144.89 Y105.296 E.02368
;WIDTH:0.611835
G1 X144.551 Y105.696 E.02358
G1 X144.141 Y105.986 E.02256
;WIDTH:0.614095
G1 X143.626 Y106.174 E.02474
;WIDTH:0.622923
G1 X143.102 Y106.221 E.0241
G1 X142.937 Y106.171 E.00789
;WIDTH:0.581949
G1 X142.772 Y106.121 E.00733
;WIDTH:0.540974
G1 X142.607 Y106.071 E.00678
;WIDTH:0.499999
G1 X142.145 Y105.854 E.01842
G1 X141.755 Y105.525 E.01843
G1 X141.463 Y105.107 E.01842
G1 X141.29 Y104.627 E.01842
G1 X141.246 Y104.118 E.01842
G1 X141.336 Y103.616 E.01842
G1 X141.553 Y103.154 E.01842
G1 X141.882 Y102.764 E.01842
G1 X142.3 Y102.472 E.01842
;WIDTH:0.542854
G1 X142.458 Y102.393 E.00695
;WIDTH:0.585709
G1 X142.615 Y102.314 E.00754
;WIDTH:0.628563
G1 X142.772 Y102.235 E.00814
G1 X143.296 Y102.2 E.0243
;WIDTH:0.611833
G1 X143.812 Y102.293 E.02358
G1 X144.268 Y102.503 E.02256
;WIDTH:0.614092
G1 X144.689 Y102.856 E.02474
G1 X144.987 Y103.288 E.02368
;WIDTH:0.611836
G1 X145.164 Y103.782 E.02358
G1 X145.21 Y104.281 E.02256
;WIDTH:0.614101
G1 X145.129 Y104.743 E.02113
G1 X144.697 Y104.223 F30000
;TYPE:Outer wall
;WIDTH:0.499999
G1 F3600
G1 X144.699 Y104.238 E.00052
G1 X144.637 Y104.632 E.01442
G1 X144.426 Y105.058 E.01716
G1 X144.238 Y105.289 E.01074
G1 X143.923 Y105.521 E.01414
G1 X143.55 Y105.665 E.01442
G1 X143.169 Y105.707 E.01384
G1 X142.782 Y105.648 E.01414
G1 X142.424 Y105.492 E.01414
G1 X142.118 Y105.247 E.01414
G1 X141.886 Y104.932 E.01414
G1 X141.743 Y104.567 E.01414
G1 X141.7 Y104.178 E.01414
G1 X141.758 Y103.791 E.01414
G1 X141.915 Y103.432 E.01414
G1 X142.16 Y103.126 E.01414
G1 X142.475 Y102.894 E.01414
G1 X142.84 Y102.752 E.01414
G1 X143.322 Y102.721 E.01745
G1 X143.616 Y102.767 E.01075
G1 X143.975 Y102.924 E.01414
G1 X144.284 Y103.173 E.01434
G1 X144.549 Y103.571 E.01724
G1 X144.655 Y103.848 E.01075
G1 X144.693 Y104.183 E.01217
G1 E-.35 F2400
;WIPE_START
G1 F3600
G1 X144.699 Y104.238 E-.00817
G1 X144.637 Y104.632 E-.05991
G1 X144.426 Y105.058 E-.07128
G1 X144.381 Y105.113 E-.01063
;WIPE_END
G1 X136.749 Y105.145 Z.6 F30000
G1 X94.614 Y105.321 Z.6
M73 P3 R4
G1 Z.2
G1 E.5 F2400
;TYPE:Inner wall
G1 F3600
G1 X94.706 Y105.398 E.00434
G1 X94.998 Y105.817 E.01842
G1 X95.171 Y106.297 E.01842
G1 X95.215 Y106.805 E.01842
G1 X95.125 Y107.307 E.01842
G1 X94.908 Y107.769 E.01842
G1 X94.58 Y108.16 E.01842
G1 X94.161 Y108.451 E.01842
;WIDTH:0.543179
G1 X94.004 Y108.531 E.00695
;WIDTH:0.586359
G1 X93.847 Y108.61 E.00755
;WIDTH:0.629539
G1 X93.69 Y108.689 E.00816
G1 X93.165 Y108.729 E.02439
;WIDTH:0.62292
G1 X93 Y108.679 E.00789
;WIDTH:0.581947
G1 X92.835 Y108.629 E.00733
;WIDTH:0.540973
G1 X92.67 Y108.579 E.00678
;WIDTH:0.499999
G1 X92.208 Y108.362 E.01842
G1 X91.818 Y108.033 E.01842
G1 X91.526 Y107.614 E.01842
G1 X91.353 Y107.135 E.01842
G1 X91.309 Y106.626 E.01842
G1 X91.399 Y106.124 E.01842
G1 X91.616 Y105.662 E.01843
G1 X91.818 Y105.398 E.012
G1 X92.208 Y105.069 E.01842
;WIDTH:0.537162
G1 X92.432 Y104.944 E.01002
;WIDTH:0.574324
G1 X92.656 Y104.818 E.01077
;WIDTH:0.601796
G1 X92.745 Y104.78 E.00429
;WIDTH:0.629267
G1 X92.835 Y104.742 E.0045
G1 X93.36 Y104.702 E.02438
;WIDTH:0.622633
G1 X93.524 Y104.752 E.00789
;WIDTH:0.581755
G1 X93.689 Y104.802 E.00733
;WIDTH:0.540877
G1 X93.854 Y104.853 E.00677
;WIDTH:0.499999
G1 X94.316 Y105.069 E.01842
G1 X94.584 Y105.295 E.01264
G1 X94.024 Y105.426 F30000
;TYPE:Outer wall
G1 F3600
G1 X94.038 Y105.432 E.00053
G1 X94.344 Y105.676 E.01414
G1 X94.576 Y105.992 E.01414
G1 X94.718 Y106.356 E.01414
G1 X94.762 Y106.745 E.01414
G1 X94.703 Y107.132 E.01414
G1 X94.546 Y107.491 E.01414
G1 X94.301 Y107.797 E.01414
G1 X93.986 Y108.029 E.01414
G1 X93.621 Y108.172 E.01414
G1 X93.232 Y108.215 E.01414
G1 X92.845 Y108.156 E.01414
G1 X92.487 Y107.999 E.01414
G1 X92.181 Y107.755 E.01414
G1 X91.949 Y107.44 E.01414
G1 X91.806 Y107.075 E.01414
G1 X91.763 Y106.686 E.01414
G1 X91.821 Y106.299 E.01414
G1 X91.978 Y105.94 E.01414
G1 X92.181 Y105.676 E.012
G1 X92.538 Y105.402 E.01627
G1 X92.903 Y105.259 E.01414
G1 X93.292 Y105.216 E.01414
G1 X93.679 Y105.275 E.01414
G1 X93.988 Y105.41 E.01216
M73 P3 R3
G1 E-.35 F2400
;WIPE_START
G1 F3600
G1 X94.038 Y105.432 E-.00822
G1 X94.344 Y105.676 E-.05873
G1 X94.576 Y105.992 E-.05873
G1 X94.635 Y106.143 E-.02432
;WIPE_END
G1 X87.107 Y107.405 Z.6 F30000
G1 X73.837 Y109.63 Z.6
G1 Z.2
G1 E.5 F2400
;TYPE:Inner wall
;WIDTH:0.629537
G1 F3600
G1 X73.715 Y109.692 E.00637
G1 X73.19 Y109.727 E.02434
;WIDTH:0.611835
G1 X72.674 Y109.633 E.02358
G1 X72.218 Y109.423 E.02256
;WIDTH:0.614097
G1 X71.798 Y109.071 E.02474
G1 X71.5 Y108.639 E.02368
;WIDTH:0.611832
G1 X71.323 Y108.145 E.02358
G1 X71.276 Y107.645 E.02256
;WIDTH:0.614095
G1 X71.372 Y107.105 E.02474
G1 X71.597 Y106.631 E.02368
;WIDTH:0.611833
G1 X71.936 Y106.231 E.02358
G1 X72.346 Y105.94 E.02256
;WIDTH:0.614096
G1 X72.861 Y105.753 E.02474
;WIDTH:0.622913
G1 X73.385 Y105.705 E.0241
G1 X73.55 Y105.755 E.00789
;WIDTH:0.581942
G1 X73.714 Y105.805 E.00733
;WIDTH:0.540971
G1 X73.879 Y105.856 E.00678
;WIDTH:0.499999
G1 X74.341 Y106.072 E.01842
G1 X74.731 Y106.401 E.01843
G1 X75.023 Y106.82 E.01842
G1 X75.197 Y107.3 E.01842
G1 X75.24 Y107.808 E.01842
G1 X75.15 Y108.311 E.01842
G1 X74.934 Y108.773 E.01842
G1 X74.605 Y109.163 E.01843
G1 X74.186 Y109.455 E.01842
;WIDTH:0.543179
G1 X74.029 Y109.534 E.00695
;WIDTH:0.586358
G1 X73.873 Y109.612 E.00749
G1 X74.023 Y109.024 F30000
;TYPE:Outer wall
;WIDTH:0.499999
G1 F3600
G1 X74.011 Y109.032 E.00051
G1 X73.647 Y109.175 E.01414
G1 X73.164 Y109.206 E.01745
G1 X72.87 Y109.159 E.01075
G1 X72.512 Y109.002 E.01414
G1 X72.201 Y108.752 E.01442
G1 X71.938 Y108.356 E.01716
G1 X71.831 Y108.078 E.01075
G1 X71.788 Y107.689 E.01414
G1 X71.85 Y107.294 E.01442
G1 X72.061 Y106.869 E.01716
G1 X72.248 Y106.637 E.01075
G1 X72.563 Y106.405 E.01414
G1 X72.928 Y106.263 E.01414
G1 X73.317 Y106.219 E.01414
G1 X73.704 Y106.278 E.01414
G1 X74.063 Y106.435 E.01414
G1 X74.369 Y106.679 E.01414
G1 X74.601 Y106.995 E.01414
G1 X74.743 Y107.359 E.01414
G1 X74.787 Y107.749 E.01414
G1 X74.728 Y108.136 E.01414
G1 X74.571 Y108.494 E.01414
G1 X74.327 Y108.8 E.01414
G1 X74.055 Y109 E.01218
G1 E-.35 F2400
;WIPE_START
G1 F3600
G1 X74.011 Y109.032 E-.00811
G1 X73.647 Y109.175 E-.05873
G1 X73.164 Y109.206 E-.07249
G1 X73.094 Y109.195 E-.01067
;WIPE_END
G1 X80.477 Y107.261 Z.6 F30000
G1 X91.978 Y104.249 Z.6
G1 Z.2
G1 E.5 F2400
;TYPE:Bottom surface
;WIDTH:0.501439
G1 F6300
G1 X92.339 Y104.61 E.0185
G3 X91.947 Y104.866 I-2.128 J-2.828 E.01698
G1 X91.557 Y104.476 E.02
G1 X90.94 Y104.507 E.02239
G1 X91.6 Y105.167 E.03381
G2 X91.321 Y105.537 I2.629 J2.272 E.01678
G1 X90.322 Y104.538 E.05116
G1 X89.705 Y104.569 E.02239
G1 X91.113 Y105.978 E.07216
G2 X91.01 Y106.523 I1.879 J.639 E.02016
G1 X89.087 Y104.6 E.09849
M73 P4 R3
G1 X88.47 Y104.631 E.02239
G1 X91.042 Y107.203 E.13176
G2 X92.236 Y108.745 I2.271 J-.525 E.07289
G3 X92.812 Y108.973 I-1.691 J5.118 E.02243
G1 X92.805 Y109.043 E.00256
G3 X92.281 Y109.091 I-.595 J-3.633 E.01908
G1 X87.852 Y104.662 E.22686
G1 X87.235 Y104.693 E.02239
G1 X91.664 Y109.122 E.22686
G1 X91.046 Y109.153 E.02239
G1 X86.617 Y104.724 E.22686
G1 X86 Y104.755 E.02239
G1 X90.429 Y109.184 E.22687
G1 X89.811 Y109.215 E.02239
G1 X85.382 Y104.786 E.22687
G1 X84.765 Y104.817 E.02239
G1 X89.194 Y109.246 E.22687
G1 X88.577 Y109.277 E.02239
G1 X84.148 Y104.848 E.22687
G1 X83.53 Y104.879 E.02239
G1 X87.959 Y109.308 E.22687
G1 X87.342 Y109.339 E.02239
G1 X82.913 Y104.91 E.22687
G1 X82.295 Y104.941 E.02239
G1 X86.724 Y109.37 E.22687
G1 X86.107 Y109.401 E.02239
G1 X81.678 Y104.972 E.22687
G1 X81.06 Y105.003 E.02239
G1 X85.489 Y109.432 E.22687
G1 X84.872 Y109.463 E.02239
G1 X80.443 Y105.034 E.22687
G1 X79.825 Y105.065 E.02239
G1 X84.255 Y109.494 E.22687
G1 X83.637 Y109.525 E.02239
G1 X79.208 Y105.096 E.22687
G1 X78.59 Y105.127 E.02239
G1 X83.02 Y109.556 E.22688
G1 X82.402 Y109.587 E.02239
M73 P5 R3
G1 X77.973 Y105.158 E.22688
G1 X77.356 Y105.189 E.02239
G1 X81.785 Y109.618 E.22688
G1 X81.167 Y109.649 E.02239
G1 X76.738 Y105.22 E.22688
G1 X76.121 Y105.251 E.02239
G1 X80.55 Y109.68 E.22688
G1 X79.932 Y109.711 E.02239
G1 X75.503 Y105.282 E.22688
G1 X74.886 Y105.313 E.02239
G1 X79.315 Y109.742 E.22688
G1 X78.698 Y109.773 E.02239
G1 X74.268 Y105.344 E.22688
G2 X73.744 Y105.391 I.07 J3.682 E.01908
G1 X73.738 Y105.462 E.00256
G2 X74.313 Y105.689 I2.265 J-4.887 E.02242
G3 X75.507 Y107.231 I-1.077 J2.068 E.07288
G1 X78.08 Y109.804 E.13178
G1 X77.463 Y109.835 E.02239
G1 X75.539 Y107.912 E.09851
G3 X75.436 Y108.457 I-1.984 J-.094 E.02016
G1 X76.845 Y109.866 E.07219
G1 X76.228 Y109.897 E.02239
G1 X75.229 Y108.898 E.05119
G3 X74.95 Y109.267 I-2.909 J-1.903 E.01678
G1 X75.61 Y109.928 E.03384
G1 X74.993 Y109.959 E.02239
G1 X74.602 Y109.568 E.02002
G3 X74.323 Y109.742 I-.802 J-.972 E.01194
G1 X74.21 Y109.824 E.00506
G1 X74.572 Y110.186 E.01852
G1 E-.35 F2400
;WIPE_START
G1 F6300
G1 X74.21 Y109.824 E-.07672
G1 X74.323 Y109.742 E-.02098
G1 X74.602 Y109.568 E-.04933
G1 X74.616 Y109.582 E-.00298
;WIPE_END
G1 X82.197 Y108.699 Z.6 F30000
G1 X141.911 Y101.743 Z.6
G1 Z.2
G1 E.5 F2400
;WIDTH:0.504218
G1 F6300
G1 X142.273 Y102.105 E.01865
G2 X141.879 Y102.362 I26.496 J40.945 E.01717
G1 X141.486 Y101.97 E.02024
