; HEADER_BLOCK_START
; generated by Creality_Print V5.1.6.10470 on 2024-12-10 at 17:04:37
; total layer number: 10
; filament_density: 1.24
; filament_diameter: 1.75
; max_z_height: 2.00
; HEADER_BLOCK_END

; MINX = 106.54
; MINY = 91.46
; MINZ = 0.00
; MAXX = 132.10
; MAXY = 128.86
; MAXZ = 2.00

; THUMBNAIL_BLOCK_START

;
; THUMBNAIL_BLOCK_END

; THUMBNAIL_BLOCK_START

;
; THUMBNAIL_BLOCK_END

; external perimeters extrusion width = 0.42mm
; perimeters extrusion width = 0.45mm
; infill extrusion width = 0.45mm
; solid infill extrusion width = 0.42mm
; top infill extrusion width = 0.42mm
; support material extrusion width = 0.42mm
; first layer extrusion width = 0.50mm

; external perimeters extrusion width = 0.42mm
; perimeters extrusion width = 0.45mm
; infill extrusion width = 0.45mm
; solid infill extrusion width = 0.42mm
; top infill extrusion width = 0.42mm
; support material extrusion width = 0.42mm
; first layer extrusion width = 0.50mm

; EXECUTABLE_BLOCK_START
EXCLUDE_OBJECT_DEFINE NAME=Link_4.stl_id_0_copy_0 CENTER=110,110 POLYGON=[[106.538,94.5686],[106.557,94.095],[106.651,93.6304],[106.817,93.1864],[107.051,92.7741],[107.347,92.4038],[107.697,92.0847],[108.094,91.8248],[108.526,91.6305],[108.984,91.5068],[109.455,91.4567],[109.928,91.4814],[110.392,91.5804],[110.834,91.7512],[111.244,91.9895],[111.611,92.2893],[111.926,92.6433],[112.182,93.0425],[112.371,93.4769],[112.49,93.9358],[112.535,94.4076],[113.462,125.271],[113.45,125.766],[113.36,126.253],[113.193,126.72],[112.953,127.154],[112.648,127.544],[112.285,127.88],[111.872,128.155],[111.421,128.36],[110.943,128.491],[110.45,128.543],[109.956,128.517],[109.471,128.412],[109.01,128.232],[108.583,127.98],[108.202,127.663],[107.876,127.29],[107.614,126.869],[107.422,126.413],[107.306,125.931],[107.267,125.437],[106.538,94.5686]]
EXCLUDE_OBJECT_DEFINE NAME=Link_4.stl_id_1_copy_0 CENTER=128.637,110.313 POLYGON=[[125.174,94.8815],[125.194,94.4079],[125.288,93.9433],[125.454,93.4993],[125.688,93.087],[125.984,92.7167],[126.334,92.3976],[126.73,92.1377],[127.163,91.9434],[127.62,91.8197],[128.092,91.7696],[128.565,91.7943],[129.029,91.8933],[129.471,92.0641],[129.88,92.3024],[130.248,92.6022],[130.563,92.9562],[130.818,93.3554],[131.008,93.7898],[131.127,94.2487],[131.172,94.7205],[132.099,125.584],[132.087,126.079],[131.996,126.566],[131.829,127.033],[131.59,127.466],[131.285,127.857],[130.921,128.193],[130.509,128.468],[130.058,128.673],[129.58,128.803],[129.087,128.856],[128.592,128.83],[128.108,128.725],[127.647,128.544],[127.22,128.293],[126.839,127.976],[126.513,127.603],[126.251,127.182],[126.059,126.725],[125.942,126.244],[125.904,125.75],[125.174,94.8815]]
M73 P0 R1
M106 S0
M106 P2 S0
;TYPE:Custom
M140 S0
M104 S0 
START_PRINT EXTRUDER_TEMP=230 BED_TEMP=50
M141 S35;set chamber_temperature
G90
G21
M83 ; use relative distances for extrusion
; filament start gcode
M106 S0
;LAYER_CHANGE
;Z:0.2
;HEIGHT:0.2
;BEFORE_LAYER_CHANGE
;0.2
G92 E0

G1 E-.5 F2400
;AFTER_LAYER_CHANGE
;0.2
;_SET_FAN_SPEED_CHANGING_LAYER
SET_VELOCITY_LIMIT ACCEL=1000 ACCEL_TO_DECEL=1000
SET_VELOCITY_LIMIT SQUARE_CORNER_VELOCITY=20
; printing object Link 4.stl id:0 copy 0
EXCLUDE_OBJECT_START NAME=Link_4.stl_id_0_copy_0
G1 X110.774 Y97.115 F30000
G1 Z.4
G1 Z.2
G1 E.5 F2400
;TYPE:Inner wall
;WIDTH:0.499999
G1 F3600
G1 X110.761 Y97.525 E.01478
G1 X111.429 Y122.414 E.899
M73 P1 R1
G1 X111.565 Y123.042 E.02317
G1 X111.769 Y123.518 E.0187
;WIDTH:0.490305
G1 X111.858 Y123.636 E.00524
;WIDTH:0.463829
G1 X111.947 Y123.755 E.00493
;WIDTH:0.437353
G1 X112.337 Y124.29 E.02065
;WIDTH:0.412183
G1 X112.559 Y124.821 E.01679
;WIDTH:0.414543
G1 X112.646 Y125.331 E.01519
G1 X112.643 Y125.557 E.00661
;WIDTH:0.412054
G1 X112.567 Y126.054 E.01468
G1 X112.35 Y126.567 E.01622
;WIDTH:0.413414
G1 X112.037 Y127.001 E.01569
G1 X111.608 Y127.355 E.01627
;WIDTH:0.416343
G1 X111.157 Y127.584 E.01494
G1 X110.776 Y127.689 E.01163
;WIDTH:0.415833
G1 X110.25 Y127.719 E.01553
;WIDTH:0.412828
G1 X109.693 Y127.626 E.01649
G1 X109.22 Y127.413 E.01517
;WIDTH:0.412139
G1 X108.762 Y127.068 E.01671
G1 X108.411 Y126.613 E.01676
;WIDTH:0.413845
G1 X108.192 Y126.134 E.01543
G1 X108.092 Y125.566 E.0169
;WIDTH:0.416957
G1 X108.114 Y125.091 E.01408
G1 X108.208 Y124.707 E.01165
;WIDTH:0.41488
G1 X108.454 Y124.208 E.01637
;WIDTH:0.43944
G1 X108.614 Y123.98 E.0087
;WIDTH:0.467773
G1 X108.773 Y123.753 E.00933
;WIDTH:0.499999
G1 X108.988 Y123.309 E.0178
G1 X109.103 Y122.845 E.01723
G1 X109.14 Y122.32 E.01904
G1 X108.472 Y97.414 E.89955
M73 P2 R1
G1 X108.371 Y96.824 E.02162
G1 X108.19 Y96.334 E.01886
G1 X108.1 Y96.21 E.00554
;WIDTH:0.457285
G1 X108.009 Y96.087 E.00502
;WIDTH:0.41457
G1 X107.847 Y95.87 E.00794
;WIDTH:0.387906
G1 X107.686 Y95.653 E.00737
;WIDTH:0.366836
G1 X107.471 Y95.232 E.01208
G1 X107.369 Y94.873 E.00957
;WIDTH:0.365438
G1 X107.335 Y94.348 E.01339
;WIDTH:0.362309
G1 X107.416 Y93.837 E.01305
G1 X107.623 Y93.36 E.01313
;WIDTH:0.363028
G1 X107.933 Y92.936 E.01327
G1 X108.34 Y92.605 E.01326
;WIDTH:0.36635
G1 X108.781 Y92.382 E.01263
G1 X109.141 Y92.285 E.00953
;WIDTH:0.365988
G1 X109.645 Y92.255 E.01288
;WIDTH:0.362828
G1 X110.178 Y92.343 E.01365
G1 X110.64 Y92.548 E.01278
;WIDTH:0.362557
G1 X111.072 Y92.87 E.0136
G1 X111.423 Y93.317 E.01434
;WIDTH:0.362745
G1 X111.638 Y93.789 E.01311
G1 X111.737 Y94.339 E.01413
;WIDTH:0.367527
G3 X111.632 Y95.142 I-2.183 J.124 E.02088
;WIDTH:0.36338
G1 X111.39 Y95.646 E.01415
;WIDTH:0.391066
G1 X111.25 Y95.853 E.00689
;WIDTH:0.420383
G1 X111.109 Y96.061 E.00747
;WIDTH:0.460191
G1 X111.004 Y96.263 E.00751
;WIDTH:0.499999
G1 X110.898 Y96.465 E.00822
G1 X110.777 Y97.02 E.02053
G1 X110.776 Y97.075 E.002
G1 E-.35 F2400
;WIPE_START
G1 F3600
G1 X110.761 Y97.525 E-.06739
G1 X110.776 Y98.075 E-.08261
;WIPE_END
G1 X110.244 Y105.689 Z.6 F30000
G1 X108.79 Y126.496 Z.6
M73 P3 R1
G1 Z.2
G1 E.5 F2400
;WIDTH:0.413752
G1 F3600
G1 X108.675 Y126.335 E.00579
G1 X108.502 Y125.858 E.01488
;WIDTH:0.411328
G1 X108.458 Y125.361 E.01451
;WIDTH:0.41488
G1 X108.551 Y124.851 E.01521
G1 X108.756 Y124.418 E.0141
;WIDTH:0.43944
G1 X108.908 Y124.215 E.00792
;WIDTH:0.467773
G1 X109.06 Y124.013 E.00848
;WIDTH:0.499999
G1 X109.431 Y123.725 E.01696
G1 X109.948 Y123.535 E.01991
G1 X110.457 Y123.492 E.01841
G1 X110.959 Y123.581 E.01843
G1 X111.418 Y123.802 E.01839
;WIDTH:0.490305
G1 X111.599 Y123.977 E.00888
;WIDTH:0.454376
G1 X111.779 Y124.152 E.00817
;WIDTH:0.418446
G1 X112.062 Y124.563 E.0148
;WIDTH:0.413713
G1 X112.234 Y125.031 E.01462
G1 X112.276 Y125.528 E.01461
;WIDTH:0.411332
G1 X112.189 Y126.019 E.01451
;WIDTH:0.414894
G1 X111.969 Y126.487 E.0152
G1 X111.658 Y126.853 E.01411
;WIDTH:0.41187
G1 X111.249 Y127.14 E.01454
;WIDTH:0.415833
G1 X110.732 Y127.318 E.01612
G1 X110.284 Y127.353 E.01325
;WIDTH:0.410838
G1 X109.902 Y127.3 E.01119
;WIDTH:0.409428
G1 X109.406 Y127.098 E.01553
;WIDTH:0.410122
G1 X108.984 Y126.766 E.01556
;WIDTH:0.413752
G1 X108.813 Y126.528 E.00858
G1 X109.297 Y126.493 F30000
;TYPE:Outer wall
;WIDTH:0.499999
G1 F3600
G1 X109.286 Y126.484 E.00053
G1 X109.054 Y126.168 E.01414
G1 X108.911 Y125.804 E.01414
G1 X108.868 Y125.415 E.01414
G1 X108.934 Y125.01 E.0148
G1 X109.084 Y124.669 E.01346
G1 X109.341 Y124.353 E.01471
G1 X109.643 Y124.131 E.01355
G1 X110.039 Y123.984 E.01523
G1 X110.397 Y123.945 E.01301
G1 X110.869 Y124.039 E.01739
G3 X111.681 Y124.72 I-.584 J1.519 E.03897
G1 X111.823 Y125.085 E.01414
G1 X111.867 Y125.474 E.01414
G1 X111.808 Y125.861 E.01414
G1 X111.64 Y126.235 E.01479
G1 X111.406 Y126.526 E.01347
G1 X111.091 Y126.758 E.01414
G1 X110.678 Y126.907 E.01586
G3 X109.989 Y126.897 I-.325 J-1.406 E.02511
G1 X109.592 Y126.728 E.01561
G1 X109.329 Y126.518 E.01216
G1 E-.35 F2400
;WIPE_START
G1 F3600
G1 X109.286 Y126.484 E-.00821
G1 X109.054 Y126.168 E-.05873
G1 X108.911 Y125.804 E-.05873
G1 X108.893 Y125.642 E-.02433
;WIPE_END
G1 X108.603 Y118.016 Z.6 F30000
G1 X107.696 Y94.122 Z.6
M73 P4 R1
G1 Z.2
G1 E.5 F2400
;TYPE:Inner wall
;WIDTH:0.361854
G1 F3600
G1 X107.736 Y93.89 E.00593
;WIDTH:0.365788
G1 X107.969 Y93.407 E.01367
G1 X108.26 Y93.067 E.01142
;WIDTH:0.362387
G1 X108.663 Y92.783 E.01242
;WIDTH:0.365988
G1 X109.179 Y92.606 E.01392
G1 X109.616 Y92.572 E.01119
;WIDTH:0.362718
G1 X110.101 Y92.656 E.01244
G1 X110.547 Y92.864 E.01244
;WIDTH:0.362128
G1 X110.924 Y93.18 E.01241
;WIDTH:0.363013
G1 X111.208 Y93.583 E.01245
G1 X111.376 Y94.046 E.01245
;WIDTH:0.361873
G1 X111.419 Y94.536 E.0124
;WIDTH:0.36338
G1 X111.335 Y95.021 E.01247
G1 X111.127 Y95.467 E.01246
;WIDTH:0.397414
G1 X110.98 Y95.67 E.00702
;WIDTH:0.433078
G1 X110.833 Y95.873 E.00772
;WIDTH:0.466539
G1 X110.678 Y96.01 E.0069
;WIDTH:0.499999
G1 X110.524 Y96.147 E.00745
G1 X110.005 Y96.356 E.02022
G1 X109.47 Y96.411 E.0194
G1 X108.944 Y96.319 E.0193
G1 X108.482 Y96.102 E.01842
G1 X108.369 Y95.979 E.00602
;WIDTH:0.457281
G1 X108.255 Y95.857 E.00546
;WIDTH:0.414563
G1 X108.142 Y95.734 E.0049
;WIDTH:0.371844
G1 X107.863 Y95.328 E.0128
;WIDTH:0.365438
G1 X107.689 Y94.833 E.01338
G1 X107.652 Y94.375 E.01169
;WIDTH:0.361854
G1 X107.689 Y94.161 E.00547
G1 X108.039 Y94.456 F30000
;TYPE:Outer wall
;WIDTH:0.499999
G1 F3600
G1 X108.036 Y94.426 E.0011
G1 X108.095 Y94.039 E.01414
G1 X108.279 Y93.645 E.0157
G1 X108.496 Y93.374 E.01253
G1 X108.812 Y93.142 E.01414
G1 X109.23 Y92.992 E.01604
G1 X109.565 Y92.956 E.01219
G1 X109.952 Y93.015 E.01414
G1 X110.364 Y93.212 E.01648
G1 X110.617 Y93.416 E.01173
G1 X110.849 Y93.732 E.01414
G1 X111.002 Y94.173 E.01687
G1 X111.035 Y94.485 E.01133
G1 X110.976 Y94.873 E.01414
G1 X110.819 Y95.231 E.01414
G1 X110.503 Y95.592 E.01733
G1 X110.246 Y95.775 E.01139
G1 X109.895 Y95.912 E.01359
G1 X109.506 Y95.955 E.01414
G1 X109.119 Y95.896 E.01414
G1 X108.76 Y95.739 E.01414
G1 X108.454 Y95.495 E.01414
G1 X108.222 Y95.18 E.01414
G1 X108.075 Y94.782 E.01531
G1 X108.044 Y94.496 E.01039
G1 E-.35 F2400
;WIPE_START
G1 F3600
G1 X108.036 Y94.426 E-.01058
G1 X108.095 Y94.039 E-.05873
G1 X108.279 Y93.645 E-.06522
G1 X108.343 Y93.564 E-.01547
;WIPE_END
G1 X111.373 Y96.512 Z.6 F30000
M73 P5 R1
G1 Z.2
G1 E.5 F2400
G1 F3600
G1 X111.363 Y96.532 E.0008
G1 X111.239 Y97.008 E.01777
G1 X111.218 Y97.512 E.01821
G1 X111.885 Y122.374 E.89798
G1 X112.004 Y122.917 E.02005
G2 X112.421 Y123.689 I2.278 J-.732 E.03189
G1 X112.768 Y124.229 E.02317
G1 X112.989 Y124.82 E.02277
G1 X113.061 Y125.341 E.019
G1 X113.043 Y125.772 E.01556
G1 X112.921 Y126.291 E.01925
G1 X112.711 Y126.765 E.01873
G1 X112.382 Y127.234 E.02067
G1 X111.996 Y127.592 E.01901
G1 X111.567 Y127.854 E.01815
G1 X111.07 Y128.041 E.01916
G1 X110.519 Y128.134 E.02019
G1 X110.009 Y128.119 E.01843
G1 X109.503 Y127.995 E.0188
G1 X109.011 Y127.767 E.0196
G1 X108.583 Y127.459 E.01904
G1 X108.231 Y127.087 E.01849
G1 X107.947 Y126.63 E.01943
G1 X107.76 Y126.108 E.02003
G1 X107.681 Y125.598 E.0186
G1 X107.7 Y125.056 E.01958
G1 X107.826 Y124.545 E.01901
G3 X108.426 Y123.47 I6.128 J2.715 E.04452
G1 X108.625 Y122.885 E.0223
G1 X108.683 Y122.332 E.02008
G1 X108.019 Y97.598 E.89336
M73 P6 R1
G1 X107.972 Y97.096 E.01821
G1 X107.775 Y96.524 E.02184
G2 X107.219 Y95.619 I-20.137 J11.736 E.03835
G1 X107.038 Y95.143 E.0184
G1 X106.947 Y94.621 E.01912
G1 X106.956 Y94.143 E.01725
G1 X107.077 Y93.635 E.01885
G1 X107.34 Y93.076 E.02233
G1 X107.672 Y92.649 E.01952
G1 X108.127 Y92.281 E.02115
G1 X108.621 Y92.026 E.02006
G1 X109.102 Y91.897 E.01796
G1 X109.604 Y91.865 E.01819
G1 X110.141 Y91.936 E.01953
G1 X110.62 Y92.097 E.01825
G1 X111.015 Y92.319 E.01639
G1 X111.421 Y92.678 E.01955
G1 X111.749 Y93.108 E.01952
G1 X111.975 Y93.568 E.0185
G1 X112.095 Y94.005 E.01638
G1 X112.126 Y94.539 E.0193
G1 X112.052 Y95.074 E.01953
G1 X111.866 Y95.606 E.02033
G2 X111.554 Y96.13 I4.651 J3.124 E.02203
G1 X111.39 Y96.476 E.01383
G1 E-.35 F2400
;WIPE_START
G1 F3600
G1 X111.363 Y96.532 E-.0093
G1 X111.239 Y97.008 E-.07382
G1 X111.221 Y97.454 E-.06688
;WIPE_END
G1 X110.213 Y96.406 Z.6 F30000
G1 Z.2
G1 E.5 F2400
;TYPE:Bottom surface
;WIDTH:0.508777
G1 F6300
G1 X110.513 Y96.706 E.01559
G1 X110.478 Y96.848 E.00539
G1 X110.447 Y97.299 E.01662
G1 X109.847 Y96.699 E.03123
G3 X109.178 Y96.689 I-.315 J-1.353 E.02485
G1 X110.453 Y97.964 E.06634
M73 P7 R1
G1 X110.471 Y98.641 E.02492
G1 X108.723 Y96.896 E.09088
G3 X108.797 Y97.626 I-3.742 J.751 E.02702
G1 X110.489 Y99.318 E.08805
G1 X110.507 Y99.995 E.02492
G1 X108.816 Y98.303 E.08805
G1 X108.834 Y98.98 E.02492
G1 X110.526 Y100.672 E.08805
G1 X110.544 Y101.349 E.02492
G1 X108.852 Y99.657 E.08805
G1 X108.87 Y100.334 E.02492
G1 X110.562 Y102.026 E.08805
G1 X110.58 Y102.703 E.02492
G1 X108.888 Y101.011 E.08805
G1 X108.906 Y101.688 E.02492
G1 X110.598 Y103.38 E.08805
G1 X110.616 Y104.057 E.02492
G1 X108.925 Y102.365 E.08805
G1 X108.943 Y103.042 E.02492
G1 X110.635 Y104.734 E.08805
G1 X110.653 Y105.411 E.02492
G1 X108.961 Y103.719 E.08805
M73 P8 R1
G1 X108.979 Y104.396 E.02492
G1 X110.671 Y106.088 E.08805
G1 X110.689 Y106.765 E.02492
G1 X108.997 Y105.073 E.08805
G1 X109.015 Y105.75 E.02492
G1 X110.707 Y107.442 E.08805
G1 X110.725 Y108.119 E.02492
G1 X109.034 Y106.427 E.08805
G1 X109.052 Y107.104 E.02492
G1 X110.744 Y108.796 E.08805
G1 X110.762 Y109.473 E.02492
G1 X109.07 Y107.781 E.08805
G1 X109.088 Y108.458 E.02492
G1 X110.78 Y110.149 E.08805
G1 X110.798 Y110.826 E.02492
G1 X109.106 Y109.135 E.08805
G1 X109.124 Y109.812 E.02492
G1 X110.816 Y111.503 E.08805
G1 X110.834 Y112.18 E.02492
G1 X109.143 Y110.489 E.08805
G1 X109.161 Y111.166 E.02492
G1 X110.853 Y112.857 E.08805
M73 P9 R1
G1 X110.871 Y113.534 E.02492
G1 X109.179 Y111.843 E.08805
G1 X109.197 Y112.52 E.02492
G1 X110.889 Y114.211 E.08805
G1 X110.907 Y114.888 E.02492
G1 X109.215 Y113.196 E.08805
G1 X109.233 Y113.873 E.02492
G1 X110.925 Y115.565 E.08805
G1 X110.944 Y116.242 E.02492
G1 X109.252 Y114.55 E.08805
G1 X109.27 Y115.227 E.02492
G1 X110.962 Y116.919 E.08805
G1 X110.98 Y117.596 E.02492
G1 X109.288 Y115.904 E.08805
G1 X109.306 Y116.581 E.02492
G1 X110.998 Y118.273 E.08805
G1 X111.016 Y118.95 E.02492
G1 X109.324 Y117.258 E.08805
G1 X109.342 Y117.935 E.02492
G1 X111.034 Y119.627 E.08805
G1 X111.053 Y120.304 E.02492
G1 X109.361 Y118.612 E.08805
M73 P10 R1
G1 X109.379 Y119.289 E.02492
G1 X111.071 Y120.981 E.08805
G1 X111.089 Y121.658 E.02492
G1 X109.397 Y119.966 E.08805
G1 X109.415 Y120.643 E.02492
G1 X111.114 Y122.343 E.08844
G1 X111.181 Y122.864 E.01932
G1 X111.274 Y123.161 E.01145
G1 X109.433 Y121.32 E.09577
G1 X109.451 Y121.997 E.02492
G1 X110.652 Y123.198 E.06249
G1 X110.374 Y123.165 E.01032
G1 X110.009 Y123.214 E.01354
G1 X109.436 Y122.641 E.02982
G3 X109.345 Y123.208 I-1.779 J.005 E.02125
G1 X109.651 Y123.514 E.01591
G1 E-.35 F2400
;WIPE_START
G1 F6300
G1 X109.345 Y123.208 E-.06486
G1 X109.416 Y122.91 E-.04598
G1 X109.435 Y122.65 E-.03916
;WIPE_END
G1 X109.297 Y115.019 Z.6 F30000
G1 X108.962 Y96.6 Z.6
M73 P11 R1
G1 Z.2
G1 E.5 F2400
;TYPE:Gap infill
;WIDTH:0.154017
G1 F3600
G1 X108.517 Y96.492 E.00403
G1 E-.35 F2400
;WIPE_START
G1 F3600
G1 X108.962 Y96.6 E-.15
;WIPE_END
G1 X109.58 Y104.207 Z.6 F30000
G1 X111.135 Y123.383 Z.6
G1 Z.2
G1 E.5 F2400
;WIDTH:0.114258
G1 F3600
G2 X110.896 Y123.23 I-2.85 J4.185 E.0016
; stop printing object Link 4.stl id:0 copy 0
; printing object Link 4.stl id:1 copy 0
G1 E-.35 F2400
;WIPE_START
G1 F3600
G1 X111.135 Y123.383 E-.15
;WIPE_END
EXCLUDE_OBJECT_END NAME=Link_4.stl_id_0_copy_0
EXCLUDE_OBJECT_START NAME=Link_4.stl_id_1_copy_0
G1 X115.53 Y117.143 Z.6 F30000
G1 X129.411 Y97.428 Z.6
M73 P12 R1
G1 Z.2
G1 E.5 F2400
;TYPE:Inner wall
;WIDTH:0.499999
G1 F3600
G1 X129.398 Y97.837 E.01478
G1 X130.066 Y122.727 E.899
G1 X130.201 Y123.355 E.02317
G1 X130.406 Y123.83 E.0187
;WIDTH:0.490305
G1 X130.495 Y123.949 E.00524
;WIDTH:0.463829
G1 X130.583 Y124.068 E.00493
;WIDTH:0.437353
G1 X130.974 Y124.603 E.02065
;WIDTH:0.412183
G1 X131.196 Y125.134 E.01679
;WIDTH:0.414543
G1 X131.283 Y125.644 E.01519
G1 X131.279 Y125.869 E.00661
;WIDTH:0.412054
G1 X131.204 Y126.367 E.01468
G1 X130.987 Y126.879 E.01622
;WIDTH:0.413414
G1 X130.673 Y127.314 E.01569
G1 X130.244 Y127.668 E.01627
;WIDTH:0.416343
G1 X129.793 Y127.897 E.01494
G1 X129.413 Y128.002 E.01163
;WIDTH:0.415833
G1 X128.887 Y128.032 E.01553
;WIDTH:0.412828
