; HEADER_BLOCK_START
; generated by Creality_Print V5.1.6.10470 on 2024-12-10 at 16:36:50
; total layer number: 5
; filament_density: 1.24
; filament_diameter: 1.75
; max_z_height: 1.00
; HEADER_BLOCK_END

; MINX = 53.64
; MINY = 114.44
; MINZ = -0.00
; MAXX = 156.41
; MAXY = 124.60
; MAXZ = 1.00

; THUMBNAIL_BLOCK_START

;
; THUMBNAIL_BLOCK_END

; THUMBNAIL_BLOCK_START

;
; THUMBNAIL_BLOCK_END

; external perimeters extrusion width = 0.42mm
; perimeters extrusion width = 0.45mm
; infill extrusion width = 0.45mm
; solid infill extrusion width = 0.42mm
; top infill extrusion width = 0.42mm
; support material extrusion width = 0.42mm
; first layer extrusion width = 0.50mm

; EXECUTABLE_BLOCK_START
EXCLUDE_OBJECT_DEFINE NAME=Main_Support_3.stl_id_0_copy_0 CENTER=105.026,119.518 POLYGON=[[53.6389,119.518],[53.6786,118.883],[53.7971,118.259],[53.9924,117.654],[54.2617,117.079],[54.6006,116.541],[55.0039,116.05],[55.4653,115.613],[55.9776,115.237],[56.5327,114.928],[57.1221,114.69],[57.7365,114.528],[58.3663,114.443],[59.0018,114.438],[151.05,114.438],[151.686,114.443],[152.315,114.528],[152.93,114.69],[153.519,114.928],[154.074,115.237],[154.587,115.613],[155.048,116.05],[155.451,116.541],[155.79,117.079],[156.06,117.654],[156.255,118.259],[156.373,118.883],[156.413,119.518],[156.373,120.152],[156.255,120.776],[156.06,121.381],[155.79,121.957],[155.451,122.494],[155.048,122.985],[154.587,123.422],[154.074,123.798],[153.519,124.108],[152.93,124.345],[152.315,124.508],[151.686,124.592],[151.05,124.597],[59.0018,124.597],[58.3663,124.592],[57.7365,124.508],[57.1221,124.345],[56.5327,124.108],[55.9776,123.798],[55.4653,123.422],[55.0039,122.985],[54.6006,122.494],[54.2617,121.957],[53.9924,121.381],[53.7971,120.776],[53.6786,120.152],[53.6389,119.518]]
M73 P0 R1
M106 S0
M106 P2 S0
;TYPE:Custom
M140 S0
M104 S0 
START_PRINT EXTRUDER_TEMP=230 BED_TEMP=50
M141 S35;set chamber_temperature
G90
G21
M83 ; use relative distances for extrusion
; filament start gcode
M106 S0
;LAYER_CHANGE
;Z:0.2
;HEIGHT:0.2
;BEFORE_LAYER_CHANGE
;0.2
G92 E0

G1 E-.5 F2400
;AFTER_LAYER_CHANGE
;0.2
;_SET_FAN_SPEED_CHANGING_LAYER
SET_VELOCITY_LIMIT ACCEL=1000 ACCEL_TO_DECEL=1000
SET_VELOCITY_LIMIT SQUARE_CORNER_VELOCITY=20
; printing object Main Support 3.stl id:0 copy 0
EXCLUDE_OBJECT_START NAME=Main_Support_3.stl_id_0_copy_0
G1 X113.471 Y120.406 F30000
M73 P1 R1
G1 Z.4
G1 Z.2
G1 E.5 F2400
;TYPE:Inner wall
;WIDTH:0.499999
G1 F3600
G1 X113.191 Y120.537 E.01117
G2 X112.772 Y120.83 I1.415 J2.47 E.01845
;WIDTH:0.487375
G1 X112.683 Y120.934 E.00484
;WIDTH:0.462268
G1 X112.593 Y121.039 E.00456
;WIDTH:0.43716
G1 X112.231 Y121.444 E.01693
;WIDTH:0.412428
G1 X111.778 Y121.825 E.01727
G1 X111.276 Y122.091 E.01658
;WIDTH:0.412137
G1 X110.706 Y122.256 E.0173
;WIDTH:0.416738
G1 X110.047 Y122.294 E.01949
G1 X109.552 Y122.214 E.01481
;WIDTH:0.416464
G1 X108.935 Y121.983 E.01944
G1 X108.514 Y121.708 E.01484
;WIDTH:0.414025
G1 X108.103 Y121.317 E.01661
;WIDTH:0.460272
G1 X107.767 Y120.924 E.01706
;WIDTH:0.499999
G1 X107.369 Y120.596 E.01863
G2 X105.862 Y120.161 I-1.615 J2.761 E.05721
G1 X64.881 Y120.161 E1.47967
M73 P2 R1
G2 X62.729 Y121.149 I.066 J2.98 E.08793
G1 X62.583 Y121.401 E.0105
;WIDTH:0.45096
G3 X62.272 Y121.854 I-1.561 J-.738 E.01781
;WIDTH:0.499999
G3 X61.751 Y122.47 I-12.597 J-10.136 E.02913
G3 X55.289 Y121.98 I-3.025 J-2.96 E.26646
G1 X55.174 Y121.827 E.00691
;WIDTH:0.462399
G1 X55.058 Y121.675 E.00635
;WIDTH:0.424799
G1 X54.942 Y121.522 E.00578
;WIDTH:0.418885
G1 X54.743 Y121.047 E.0153
;WIDTH:0.456748
G1 X54.683 Y120.799 E.00834
;WIDTH:0.49461
G1 X54.624 Y120.551 E.0091
;WIDTH:0.541373
G1 X54.55 Y120.027 E.02083
;WIDTH:0.556798
G3 X54.554 Y118.978 I5.477 J-.504 E.04265
;WIDTH:0.541373
G1 X54.631 Y118.457 E.02071
;WIDTH:0.49461
G1 X54.694 Y118.2 E.00945
;WIDTH:0.454903
G1 X54.757 Y117.943 E.00862
;WIDTH:0.415196
G1 X54.974 Y117.455 E.01569
;WIDTH:0.427775
G1 X55.084 Y117.314 E.00545
;WIDTH:0.463887
G1 X55.195 Y117.174 E.00596
;WIDTH:0.499999
G3 X56.047 Y116.249 I5.232 J3.967 E.04544
G3 X62.122 Y117 I2.676 J3.301 E.24678
M73 P3 R1
G1 X62.241 Y117.149 E.00687
;WIDTH:0.464749
G1 X62.359 Y117.298 E.00634
;WIDTH:0.429499
G1 X62.477 Y117.447 E.00581
;WIDTH:0.421486
G1 X62.575 Y117.613 E.00576
;WIDTH:0.448722
G1 X62.673 Y117.779 E.00618
;WIDTH:0.474361
G1 X62.835 Y117.968 E.00848
;WIDTH:0.499999
G1 X62.997 Y118.157 E.00899
G2 X64.33 Y118.818 I2.051 J-2.461 E.05422
G1 X64.881 Y118.875 E.01999
G1 X105.862 Y118.875 E1.47967
M73 P4 R1
G2 X107.678 Y118.204 I-.015 J-2.831 E.07134
;WIDTH:0.481755
G1 X107.858 Y117.996 E.00953
;WIDTH:0.437159
G1 X108.221 Y117.591 E.01693
;WIDTH:0.41243
G1 X108.674 Y117.211 E.01727
G1 X109.176 Y116.944 E.01658
;WIDTH:0.412137
G1 X109.746 Y116.779 E.0173
;WIDTH:0.416737
G1 X110.405 Y116.742 E.01949
G1 X110.9 Y116.821 E.01481
;WIDTH:0.416463
G1 X111.517 Y117.052 E.01944
G1 X111.938 Y117.328 E.01484
;WIDTH:0.414025
G1 X112.349 Y117.718 E.01661
;WIDTH:0.456
G1 X112.687 Y118.109 E.01688
;WIDTH:0.499999
G1 X113.083 Y118.439 E.01862
G2 X114.59 Y118.875 I1.615 J-2.761 E.05721
G1 X145.171 Y118.875 E1.10416
M73 P5 R1
G2 X147.307 Y117.896 I-.058 J-2.947 E.08727
;WIDTH:0.490391
G1 X147.421 Y117.697 E.00808
;WIDTH:0.443091
G1 X147.534 Y117.499 E.00722
;WIDTH:0.430527
G1 X147.671 Y117.325 E.00677
;WIDTH:0.465263
G1 X147.808 Y117.152 E.00737
;WIDTH:0.499999
G3 X148.702 Y116.205 I5.023 J3.844 E.04711
G3 X154.762 Y117.056 I2.62 J3.345 E.24668
G1 X154.871 Y117.195 E.00639
;WIDTH:0.463887
G1 X154.98 Y117.335 E.00588
;WIDTH:0.427775
G1 X155.089 Y117.474 E.00538
;WIDTH:0.418874
G1 X155.309 Y117.988 E.01661
;WIDTH:0.456737
G1 X155.369 Y118.237 E.00834
;WIDTH:0.4946
G1 X155.428 Y118.485 E.0091
;WIDTH:0.541382
G1 X155.502 Y119.009 E.02083
;WIDTH:0.55681
G1 X155.525 Y119.534 E.02133
G1 X155.498 Y120.058 E.02129
;WIDTH:0.541382
G1 X155.421 Y120.578 E.02071
;WIDTH:0.4946
G1 X155.358 Y120.835 E.00945
;WIDTH:0.454891
G1 X155.295 Y121.093 E.00862
;WIDTH:0.415181
G1 X155.078 Y121.58 E.01569
;WIDTH:0.427774
G1 X154.968 Y121.721 E.00545
;WIDTH:0.463887
G1 X154.857 Y121.862 E.00596
;WIDTH:0.499999
G3 X154.005 Y122.786 I-5.232 J-3.967 E.04544
G3 X147.93 Y122.035 I-2.676 J-3.301 E.24678
G1 X147.824 Y121.904 E.00608
;WIDTH:0.466215
G1 X147.718 Y121.773 E.00563
;WIDTH:0.43243
G1 X147.612 Y121.642 E.00518
;WIDTH:0.440847
G1 X147.503 Y121.444 E.00711
;WIDTH:0.483049
G1 X147.393 Y121.247 E.00786
;WIDTH:0.499999
G1 X147.055 Y120.878 E.01805
G2 X145.722 Y120.217 I-2.051 J2.461 E.05422
G1 X145.171 Y120.161 E.01999
G1 X114.59 Y120.161 E1.10416
M73 P6 R1
G2 X113.654 Y120.324 I.016 J2.847 E.03445
G1 X113.507 Y120.389 E.00581
G1 E-.35 F2400
;WIPE_START
G1 F3600
G1 X113.191 Y120.537 E-.05241
G1 X112.772 Y120.83 E-.07656
G1 X112.683 Y120.934 E-.02066
G1 X112.681 Y120.936 E-.00037
;WIPE_END
G1 X120.314 Y120.898 Z.6 F30000
G1 X147.679 Y120.76 Z.6
M73 P7 R1
G1 Z.2
G1 E.5 F2400
G1 F3600
G1 X147.678 Y120.435 E.01173
G3 X147.676 Y118.033 I86.578 J-1.253 E.08673
;WIDTH:0.485696
G1 X147.752 Y117.864 E.00648
;WIDTH:0.440743
G1 X147.828 Y117.695 E.00582
;WIDTH:0.430527
G1 X147.949 Y117.59 E.00492
;WIDTH:0.465263
G1 X148.071 Y117.485 E.00536
;WIDTH:0.499999
G1 X148.193 Y117.38 E.0058
G1 X149.07 Y117.361 E.03169
G1 X154.104 Y117.361 E.18174
G1 X154.503 Y117.392 E.01446
G1 X154.6 Y117.48 E.00472
;WIDTH:0.463887
G1 X154.697 Y117.568 E.00435
;WIDTH:0.427775
G1 X154.794 Y117.656 E.00398
;WIDTH:0.391662
G1 X154.905 Y117.882 E.00694
;WIDTH:0.422994
G1 X154.93 Y118.097 E.0065
;WIDTH:0.458797
G1 X154.955 Y118.312 E.00711
;WIDTH:0.4946
G1 X154.98 Y118.527 E.00772
;WIDTH:0.525705
G1 X154.996 Y119.022 E.0189
;WIDTH:0.55681
G3 X154.996 Y120.013 I-7.882 J.495 E.04025
;WIDTH:0.525705
G1 X154.98 Y120.508 E.0189
;WIDTH:0.4946
G1 X154.96 Y120.758 E.00894
;WIDTH:0.454891
G1 X154.94 Y121.008 E.00816
;WIDTH:0.415181
G1 X154.794 Y121.379 E.01173
;WIDTH:0.427774
G1 X154.697 Y121.467 E.00398
;WIDTH:0.463887
G1 X154.6 Y121.555 E.00435
;WIDTH:0.499999
G1 X154.503 Y121.643 E.00472
G1 X153.641 Y121.675 E.03115
G1 X148.355 Y121.675 E.19088
G3 X148.075 Y121.554 I-.049 J-.27 E.01165
;WIDTH:0.464406
G1 X147.955 Y121.451 E.00527
;WIDTH:0.428813
G1 X147.834 Y121.348 E.00483
;WIDTH:0.438134
G1 X147.762 Y121.235 E.0042
;WIDTH:0.483049
G1 X147.69 Y121.121 E.00468
;WIDTH:0.499999
G1 X147.68 Y120.8 E.0116
G1 X148.126 Y120.989 F30000
;TYPE:Outer wall
G1 F3600
G1 X148.126 Y118.046 E.10626
M73 P8 R1
G1 X148.164 Y117.919 E.00479
G1 X148.355 Y117.818 E.00778
G1 X154.104 Y117.818 E.20759
G1 X154.366 Y117.828 E.00947
G1 X154.504 Y117.949 E.00664
G1 X154.526 Y118.527 E.02087
G1 X154.526 Y120.989 E.0889
G1 X154.467 Y121.143 E.00594
G1 X154.297 Y121.218 E.00669
G1 X148.355 Y121.218 E.21457
G1 X148.172 Y121.127 E.00736
G1 X148.139 Y121.027 E.00379
G1 E-.35 F2400
;WIPE_START
G1 F3600
G1 X148.134 Y120.027 E-.15
;WIPE_END
G1 X140.524 Y119.445 Z.6 F30000
G1 X110.127 Y117.12 Z.6
M73 P9 R1
G1 Z.2
G1 E.5 F2400
;TYPE:Inner wall
;WIDTH:0.412137
G1 F3600
G1 X110.293 Y117.107 E.00487
;WIDTH:0.4119
G1 X110.793 Y117.174 E.01469
;WIDTH:0.412156
G1 X111.268 Y117.343 E.0147
G1 X111.697 Y117.607 E.0147
;WIDTH:0.414025
G1 X112.063 Y117.954 E.01478
;WIDTH:0.46112
G1 X112.37 Y118.361 E.01682
;WIDTH:0.499999
G1 X112.582 Y118.827 E.01853
G1 X112.674 Y119.332 E.01853
G1 X112.659 Y119.846 E.01853
G1 X112.538 Y120.344 E.01853
G1 X112.414 Y120.566 E.00918
;WIDTH:0.46858
G1 X112.29 Y120.788 E.00855
;WIDTH:0.43716
G1 X111.973 Y121.181 E.01572
;WIDTH:0.412428
G1 X111.589 Y121.507 E.01472
G1 X111.145 Y121.747 E.01471
;WIDTH:0.412137
G1 X110.662 Y121.89 E.0147
G1 X110.159 Y121.928 E.0147
;WIDTH:0.4119
G1 X109.659 Y121.862 E.01469
G1 X109.248 Y121.723 E.01265
;WIDTH:0.411268
G1 X108.777 Y121.447 E.0159
;WIDTH:0.414025
G1 X108.389 Y121.081 E.01561
;WIDTH:0.439843
G1 X108.235 Y120.879 E.00799
;WIDTH:0.46566
G1 X108.08 Y120.676 E.00851
;WIDTH:0.499999
G1 X107.87 Y120.208 E.01853
G1 X107.778 Y119.703 E.01853
G1 X107.793 Y119.19 E.01853
G1 X107.914 Y118.691 E.01853
G1 X108.038 Y118.469 E.00918
;WIDTH:0.468579
G1 X108.162 Y118.247 E.00855
;WIDTH:0.437159
G1 X108.479 Y117.855 E.01572
;WIDTH:0.41243
G1 X108.863 Y117.528 E.01472
G1 X109.307 Y117.288 E.01471
;WIDTH:0.412137
G1 X109.79 Y117.146 E.0147
G1 X110.087 Y117.123 E.00867
G1 X109.834 Y117.557 F30000
;TYPE:Outer wall
;WIDTH:0.499999
G1 F3600
G1 X110.342 Y117.528 E.01837
G1 X110.665 Y117.567 E.01176
G1 X111.129 Y117.74 E.01787
G3 X111.728 Y118.197 I-.792 J1.658 E.02742
G1 X112.025 Y118.662 E.01989
G1 X112.163 Y119.052 E.01495
G1 X112.217 Y119.518 E.01694
G1 X112.163 Y119.984 E.01694
G1 X111.97 Y120.497 E.0198
G1 X111.696 Y120.873 E.01681
G1 X111.382 Y121.15 E.0151
G1 X110.916 Y121.387 E.01888
G1 X110.618 Y121.479 E.01125
G1 X110.11 Y121.508 E.01837
G3 X109.413 Y121.346 I.056 J-1.827 E.026
M73 P10 R1
G1 X109.031 Y121.121 E.016
G1 X108.724 Y120.838 E.01509
G1 X108.427 Y120.374 E.01989
G1 X108.289 Y119.984 E.01495
G1 X108.235 Y119.518 E.01694
G1 X108.289 Y119.052 E.01694
G1 X108.482 Y118.539 E.0198
G1 X108.756 Y118.162 E.01681
G1 X109.07 Y117.886 E.0151
G1 X109.536 Y117.648 E.01888
G1 X109.795 Y117.568 E.0098
G1 E-.35 F2400
;WIPE_START
G1 F3600
G1 X110.342 Y117.528 E-.08218
G1 X110.665 Y117.567 E-.04887
G1 X110.784 Y117.611 E-.01896
;WIPE_END
G1 X103.151 Y117.577 Z.6 F30000
G1 X56.238 Y117.367 Z.6
G1 Z.2
G1 E.5 F2400
;TYPE:Inner wall
G1 F3600
G1 X56.411 Y117.361 E.00623
M73 P11 R1
G1 X61.697 Y117.361 E.19088
G3 X61.977 Y117.482 I.049 J.27 E.01165
;WIDTH:0.464404
G1 X62.097 Y117.584 E.00527
;WIDTH:0.428809
G1 X62.218 Y117.687 E.00483
;WIDTH:0.426619
G1 X62.272 Y117.807 E.00398
;WIDTH:0.460024
G1 X62.326 Y117.926 E.00433
;WIDTH:0.493429
G1 X62.38 Y118.046 E.00468
;WIDTH:0.499999
G3 X62.383 Y120.989 I-248.206 J1.748 E.10626
G1 X62.356 Y121.131 E.0052
;WIDTH:0.476624
G1 X62.257 Y121.28 E.00613
;WIDTH:0.439272
G1 X62.158 Y121.429 E.0056
;WIDTH:0.45096
G1 X62.009 Y121.542 E.00604
;WIDTH:0.499999
G1 X61.859 Y121.655 E.00677
G1 X60.982 Y121.675 E.03169
G1 X55.755 Y121.675 E.18873
G1 X55.549 Y121.643 E.00751
G1 X55.446 Y121.546 E.00513
;WIDTH:0.462399
G1 X55.342 Y121.448 E.00471
;WIDTH:0.424799
G1 X55.239 Y121.35 E.00429
;WIDTH:0.418885
G1 X55.109 Y120.989 E.01139
;WIDTH:0.459715
G1 X55.089 Y120.663 E.01075
;WIDTH:0.500544
G1 X55.069 Y120.337 E.01181
;WIDTH:0.541373
G3 X55.048 Y119.024 I10.473 J-.819 E.05174
G1 X55.069 Y118.698 E.01286
;WIDTH:0.500544
G1 X55.089 Y118.372 E.01181
;WIDTH:0.459715
G1 X55.109 Y118.046 E.01075
;WIDTH:0.418885
G1 X55.187 Y117.781 E.00821
;WIDTH:0.391663
G1 X55.258 Y117.656 E.00396
;WIDTH:0.427775
G1 X55.355 Y117.568 E.00398
;WIDTH:0.463887
G1 X55.452 Y117.48 E.00435
;WIDTH:0.499999
G1 X55.549 Y117.392 E.00472
G1 X56.198 Y117.368 E.02347
G1 X55.755 Y117.818 F30000
;TYPE:Outer wall
G1 F3600
G1 X61.697 Y117.818 E.21457
G1 X61.885 Y117.916 E.00767
G1 X61.926 Y118.046 E.00491
G1 X61.926 Y120.989 E.10626
M73 P12 R1
G1 X61.863 Y121.147 E.00614
G1 X61.697 Y121.218 E.00649
G1 X55.755 Y121.218 E.21457
G1 X55.575 Y121.13 E.00721
G1 X55.526 Y120.989 E.0054
G1 X55.526 Y118.046 E.10626
G1 X55.575 Y117.905 E.0054
G1 X55.719 Y117.835 E.00577
G1 E-.35 F2400
;WIPE_START
G1 F3600
G1 X56.719 Y117.832 E-.15
;WIPE_END
G1 X64.342 Y118.207 Z.6 F30000
G1 X114.191 Y120.66 Z.6
M73 P13 R1
G1 Z.2
G1 E.5 F2400
G1 F3600
G2 X113.351 Y120.967 I.484 J2.632 E.03243
G1 X112.904 Y121.33 E.02081
G1 X112.396 Y121.865 E.02665
G3 X110.982 Y122.621 I-2.409 J-2.808 E.05835
G3 X108.935 Y122.436 I-.754 J-3.088 E.07555
G1 X108.438 Y122.165 E.02044
G1 X108.026 Y121.841 E.01894
G1 X107.548 Y121.33 E.02525
G2 X106.302 Y120.66 I-1.854 J1.953 E.05168
G1 X105.862 Y120.618 E.01596
G1 X64.881 Y120.618 E1.47967
M73 P14 R1
G2 X63.066 Y121.458 I.051 J2.489 E.0743
G2 X62.455 Y122.352 I67.54 J46.837 E.03912
G3 X62.505 Y116.75 I-3.725 J-2.834 E.84497
M73 P15 R1
G1 X62.918 Y117.374 E.02702
G1 X63.322 Y117.836 E.02215
G2 X64.449 Y118.377 I1.685 J-2.064 E.04557
G1 X64.881 Y118.418 E.01566
G1 X105.862 Y118.418 E1.47967
M73 P16 R1
G2 X107.1 Y118.069 I-.086 J-2.675 E.04691
G1 X107.548 Y117.705 E.02081
G1 X108.056 Y117.17 E.02665
G3 X109.47 Y116.415 I2.409 J2.808 E.05835
G3 X111.517 Y116.599 I.754 J3.088 E.07555
G1 X112.014 Y116.87 E.02044
G1 X112.426 Y117.195 E.01894
G1 X112.904 Y117.705 E.02525
G2 X114.15 Y118.375 I1.854 J-1.953 E.05168
G1 X114.59 Y118.418 E.01596
G1 X145.171 Y118.418 E1.10416
M73 P17 R1
G2 X147.197 Y117.274 I-.007 J-2.378 E.08778
G3 X148.438 Y115.832 I4.828 J2.899 E.06901
G3 X156.009 Y119.564 I2.887 J3.69 E.37954
G3 X147.547 Y122.285 I-4.685 J-.052 E.42246
M73 P17 R0
G1 X147.024 Y121.501 E.03403
G2 X146.091 Y120.81 I-1.99 J1.71 E.04228
G1 X145.603 Y120.658 E.01845
G1 X145.171 Y120.618 E.01566
G1 X114.59 Y120.618 E1.10416
M73 P18 R0
G2 X114.231 Y120.653 I.085 J2.675 E.01304
G1 E-.35 F2400
;WIPE_START
G1 F3600
G1 X113.832 Y120.748 E-.06152
G1 X113.351 Y120.967 E-.07916
G1 X113.303 Y121.006 E-.00932
;WIPE_END
G1 X107.7 Y119.076 Z.6 F30000
G1 Z.2
G1 E.5 F2400
;TYPE:Bottom surface
;WIDTH:0.505341
G1 F6300
G1 X107.405 Y118.781 E.01524
G1 X106.965 Y118.995 E.01788
G1 X107.458 Y119.488 E.02546
G2 X107.549 Y120.233 I2.432 J.08 E.02754
G1 X106.448 Y119.132 E.05687
M73 P19 R0
G1 X105.857 Y119.195 E.02173
G1 X106.598 Y119.936 E.03831
G1 X106.502 Y119.909 E.00367
G1 X105.849 Y119.841 E.02398
G1 X105.203 Y119.195 E.03337
G1 X104.549 Y119.195 E.02389
G1 X105.195 Y119.841 E.03337
G1 X104.541 Y119.841 E.02389
G1 X103.895 Y119.195 E.03337
G1 X103.241 Y119.195 E.02389
G1 X103.887 Y119.841 E.03337
G1 X103.233 Y119.841 E.02389
G1 X102.587 Y119.195 E.03337
G1 X101.933 Y119.195 E.02389
G1 X102.579 Y119.841 E.03337
G1 X101.925 Y119.841 E.02389
G1 X101.279 Y119.195 E.03337
G1 X100.625 Y119.195 E.02389
G1 X101.271 Y119.841 E.03337
G1 X100.617 Y119.841 E.02389
G1 X99.971 Y119.195 E.03337
G1 X99.317 Y119.195 E.02389
G1 X99.963 Y119.841 E.03337
G1 X99.309 Y119.841 E.02389
G1 X98.663 Y119.195 E.03337
G1 X98.009 Y119.195 E.02389
G1 X98.655 Y119.841 E.03337
M73 P20 R0
G1 X98.001 Y119.841 E.02389
G1 X97.355 Y119.195 E.03337
G1 X96.701 Y119.195 E.02389
G1 X97.347 Y119.841 E.03337
G1 X96.693 Y119.841 E.02389
G1 X96.047 Y119.195 E.03337
G1 X95.393 Y119.195 E.02389
