; HEADER_BLOCK_START
; generated by Creality_Print V5.1.6.10470 on 2024-12-10 at 16:25:08
; total layer number: 10
; filament_density: 1.24
; filament_diameter: 1.75
; max_z_height: 2.00
; HEADER_BLOCK_END

; MINX = 11.05
; MINY = 7.85
; MINZ = 0.00
; MAXX = 211.50
; MAXY = 208.30
; MAXZ = 2.00

; THUMBNAIL_BLOCK_START

;
; THUMBNAIL_BLOCK_END

; THUMBNAIL_BLOCK_START

;
; THUMBNAIL_BLOCK_END

; external perimeters extrusion width = 0.42mm
; perimeters extrusion width = 0.45mm
; infill extrusion width = 0.45mm
; solid infill extrusion width = 0.42mm
; top infill extrusion width = 0.42mm
; support material extrusion width = 0.42mm
; first layer extrusion width = 0.50mm

; EXECUTABLE_BLOCK_START
EXCLUDE_OBJECT_DEFINE NAME=Main_Reciprocating_Arm.stl_id_0_copy_0 CENTER=111.273,108.077 POLYGON=[[11.0457,10.85],[11.0827,10.3807],[11.1925,9.92294],[11.3727,9.48802],[11.6187,9.08663],[11.9244,8.72867],[12.2824,8.42294],[12.6837,8.17698],[13.1187,7.99682],[13.5764,7.88693],[14.0457,7.84999],[14.515,7.88692],[14.9728,7.99683],[15.4077,8.17698],[15.8091,8.42295],[51.9206,39.1594],[52.4416,39.6292],[210.621,203.183],[210.927,203.541],[211.173,203.942],[211.353,204.377],[211.463,204.835],[211.5,205.304],[211.463,205.774],[211.353,206.231],[211.173,206.666],[210.927,207.068],[210.621,207.426],[210.263,207.731],[209.862,207.977],[209.427,208.158],[208.969,208.267],[208.5,208.304],[208.031,208.267],[207.573,208.158],[207.138,207.977],[206.737,207.731],[206.379,207.426],[42.825,49.2459],[42.3551,48.7248],[11.6187,12.6134],[11.3727,12.212],[11.1925,11.777],[11.0826,11.3193],[11.0457,10.85]]
M73 P0 R5
M106 S0
M106 P2 S0
;TYPE:Custom
M140 S0
M104 S0 
START_PRINT EXTRUDER_TEMP=230 BED_TEMP=50
M141 S35;set chamber_temperature
G90
G21
M83 ; use relative distances for extrusion
; filament start gcode
M106 S0
;LAYER_CHANGE
;Z:0.2
;HEIGHT:0.2
;BEFORE_LAYER_CHANGE
;0.2
G92 E0

G1 E-.5 F2400
;AFTER_LAYER_CHANGE
;0.2
;_SET_FAN_SPEED_CHANGING_LAYER
SET_VELOCITY_LIMIT ACCEL=1000 ACCEL_TO_DECEL=1000
SET_VELOCITY_LIMIT SQUARE_CORNER_VELOCITY=20
; printing object Main Reciprocating Arm.stl id:0 copy 0
EXCLUDE_OBJECT_START NAME=Main_Reciprocating_Arm.stl_id_0_copy_0
G1 X46.828 Y38.49 F30000
G1 Z.4
G1 Z.2
G1 E.5 F2400
;TYPE:Inner wall
;WIDTH:0.499999
G1 F3600
G1 X48.005 Y38.507 E.04249
G3 X53.564 Y44.066 I-.372 J5.931 E.31013
G2 X53.612 Y45.583 I19.481 J.134 E.0548
G2 X55.279 Y49.052 I5.867 J-.683 E.14156
G1 X209.323 Y203.096 E7.86572
M73 P1 R5
G1 X209.464 Y203.212 E.0066
;WIDTH:0.462921
G1 X209.606 Y203.327 E.00606
;WIDTH:0.425843
G1 X209.748 Y203.443 E.00553
;WIDTH:0.388764
G1 X210.137 Y203.829 E.01497
;WIDTH:0.364031
G1 X210.458 Y204.286 E.01419
G1 X210.635 Y204.757 E.01277
;WIDTH:0.362178
G1 X210.708 Y205.317 E.01423
G1 X210.653 Y205.772 E.01157
;WIDTH:0.364485
G1 X210.472 Y206.295 E.01406
;WIDTH:0.367284
G1 X210.292 Y206.591 E.00887
G1 X209.976 Y206.941 E.0121
;WIDTH:0.364053
G1 X209.518 Y207.263 E.01419
G1 X209.047 Y207.44 E.01277
;WIDTH:0.362178
G1 X208.488 Y207.513 E.01423
G1 X207.953 Y207.44 E.0136
;WIDTH:0.364033
G1 X207.482 Y207.263 E.01277
G1 X206.993 Y206.915 E.01521
;WIDTH:0.388763
G1 X206.638 Y206.552 E.01387
;WIDTH:0.425842
G1 X206.523 Y206.41 E.00553
;WIDTH:0.462921
G1 X206.407 Y206.268 E.00606
;WIDTH:0.499999
G1 X206.292 Y206.127 E.0066
G1 X52.232 Y52.067 E7.86653
M73 P2 R5
G2 X48.52 Y50.386 I-4.129 J4.179 E.15024
G1 X47.262 Y50.368 E.04545
G3 X41.703 Y44.809 I.372 J-5.931 E.31013
G2 X41.654 Y43.293 I-19.482 J-.134 E.0548
G2 X39.988 Y39.823 I-5.867 J.683 E.14156
G1 X13.395 Y13.23 E1.35789
G1 X13.181 Y13.037 E.01039
;WIDTH:0.470224
G1 X12.967 Y12.844 E.00972
;WIDTH:0.440448
G1 X12.734 Y12.637 E.0098
;WIDTH:0.402269
G1 X12.5 Y12.43 E.00886
;WIDTH:0.364026
G1 X12.149 Y11.973 E.01462
G1 X11.941 Y11.515 E.01277
G1 X11.841 Y10.923 E.01521
;WIDTH:0.361354
G1 X11.892 Y10.382 E.01367
;WIDTH:0.364463
G1 X12.073 Y9.859 E.01406
;WIDTH:0.367265
G1 X12.254 Y9.564 E.00887
G1 X12.57 Y9.213 E.01209
;WIDTH:0.364025
G1 X13.028 Y8.892 E.01419
G1 X13.499 Y8.715 E.01277
;WIDTH:0.361812
G1 X14.068 Y8.642 E.01446
G1 X14.593 Y8.715 E.01333
;WIDTH:0.364025
G1 X15.064 Y8.892 E.01277
G1 X15.553 Y9.24 E.01521
;WIDTH:0.391384
G1 X15.931 Y9.628 E.01492
;WIDTH:0.427589
G1 X16.038 Y9.761 E.00521
;WIDTH:0.463794
G1 X16.146 Y9.894 E.0057
;WIDTH:0.499999
G1 X16.254 Y10.028 E.00619
G1 X43.034 Y36.808 E1.36746
G2 X46.746 Y38.489 I4.129 J-4.179 E.15024
G1 X46.788 Y38.49 E.00152
G1 E-.35 F2400
;WIPE_START
G1 F3600
G1 X47.788 Y38.504 E-.15
;WIPE_END
G1 X53.109 Y43.976 Z.6 F30000
G1 X210.339 Y205.645 Z.6
M73 P3 R5
G1 Z.2
G1 E.5 F2400
;WIDTH:0.364467
G1 F3600
G1 X210.298 Y205.875 E.00593
G1 X210.091 Y206.316 E.01236
;WIDTH:0.361515
G1 X209.889 Y206.58 E.00836
G1 X209.458 Y206.931 E.014
;WIDTH:0.359263
G1 X208.973 Y207.132 E.01311
;WIDTH:0.360984
G1 X208.452 Y207.192 E.01319
;WIDTH:0.364037
G1 X207.934 Y207.105 E.01331
G1 X207.488 Y206.896 E.01249
;WIDTH:0.366983
G1 X207.109 Y206.581 E.01262
;WIDTH:0.407785
G1 X206.948 Y206.387 E.00726
;WIDTH:0.448587
G1 X206.788 Y206.193 E.00807
;WIDTH:0.474293
G1 X206.689 Y205.958 E.00868
;WIDTH:0.499999
G1 X206.591 Y205.723 E.0092
G1 X206.547 Y205.215 E.01842
G1 X206.637 Y204.713 E.01842
G1 X206.854 Y204.251 E.01842
G1 X207.183 Y203.86 E.01843
G1 X207.601 Y203.569 E.01842
G1 X208.081 Y203.395 E.01843
G1 X208.59 Y203.352 E.01842
G1 X209.092 Y203.441 E.01842
G1 X209.235 Y203.528 E.00603
;WIDTH:0.462921
G1 X209.377 Y203.615 E.00554
;WIDTH:0.425843
G1 X209.52 Y203.702 E.00505
;WIDTH:0.388764
G1 X209.889 Y204.029 E.01347
;WIDTH:0.364472
G1 X210.175 Y204.437 E.01265
G1 X210.341 Y204.894 E.01236
;WIDTH:0.361517
G1 X210.384 Y205.385 E.01239
;WIDTH:0.364467
G1 X210.345 Y205.606 E.0057
G1 X209.998 Y205.319 F30000
;TYPE:Outer wall
;WIDTH:0.499999
G1 F3600
G1 X210 Y205.334 E.00054
G1 X209.939 Y205.726 E.01433
G1 X209.784 Y206.08 E.01394
G1 X209.582 Y206.344 E.012
G1 X209.219 Y206.62 E.01646
G1 X208.859 Y206.76 E.01394
G1 X208.47 Y206.804 E.01414
G1 X208.078 Y206.743 E.01433
G1 X207.724 Y206.588 E.01394
G1 X207.419 Y206.344 E.01414
G1 X207.187 Y206.028 E.01414
G1 X207.044 Y205.664 E.01414
G1 X207.001 Y205.275 E.01414
G1 X207.059 Y204.887 E.01414
G1 X207.216 Y204.529 E.01414
G1 X207.461 Y204.223 E.01414
G1 X207.776 Y203.991 E.01414
G1 X208.141 Y203.848 E.01414
G1 X208.53 Y203.805 E.01414
G1 X208.917 Y203.864 E.01414
G1 X209.276 Y204.021 E.01414
G1 X209.581 Y204.265 E.01414
G1 X209.816 Y204.586 E.01433
G1 X209.956 Y204.945 E.01393
G1 X209.993 Y205.279 E.01215
G1 E-.35 F2400
;WIPE_START
G1 F3600
G1 X210 Y205.334 E-.00825
G1 X209.939 Y205.726 E-.05954
G1 X209.784 Y206.08 E-.05789
G1 X209.685 Y206.209 E-.02431
;WIPE_END
G1 X204.311 Y200.789 Z.6 F30000
G1 X45.28 Y40.427 Z.6
G1 Z.2
G1 E.5 F2400
;TYPE:Inner wall
G1 F3600
G1 X45.359 Y40.375 E.00341
G3 X48.417 Y39.855 I2.26 J4.041 E.11418
G1 X49.214 Y40.058 E.02973
G1 X49.792 Y40.314 E.0228
G1 X50.384 Y40.681 E.02516
G1 X50.891 Y41.111 E.02399
G1 X51.256 Y41.522 E.01984
G1 X51.696 Y42.163 E.0281
G3 X52.214 Y45.237 I-4.03 J2.259 E.11478
G1 X52.05 Y45.891 E.02436
G3 X51.074 Y47.564 I-4.904 J-1.742 E.07033
G1 X50.463 Y48.135 E.03022
G3 X46.85 Y49.02 I-2.815 J-3.676 E.13819
G1 X46.052 Y48.817 E.02973
G1 X45.475 Y48.561 E.0228
G1 X44.882 Y48.194 E.02516
G1 X44.376 Y47.764 E.02399
G3 X43.053 Y43.638 I3.244 J-3.315 E.16277
G1 X43.217 Y42.984 E.02436
G3 X44.193 Y41.311 I4.904 J1.742 E.07032
G1 X44.804 Y40.74 E.03022
G1 X45.247 Y40.449 E.01913
G1 X45.112 Y41.079 F30000
;TYPE:Outer wall
G1 F3600
G1 X45.607 Y40.76 E.02125
G3 X49.602 Y40.73 I2.026 J3.678 E.15034
G1 X50.137 Y41.066 E.02281
G3 X45.665 Y48.145 I-2.512 J3.365 E.45278
G1 X45.129 Y47.809 E.02281
G1 X44.675 Y47.419 E.02164
G3 X45.081 Y41.104 I2.957 J-2.981 E.25876
G1 E-.35 F2400
;WIPE_START
G1 F3600
G1 X45.607 Y40.76 E-.09427
G1 X45.944 Y40.604 E-.05573
;WIPE_END
G1 X40.418 Y35.34 Z.6 F30000
M73 P4 R5
G1 X13.041 Y9.261 Z.6
G1 Z.2
G1 E.5 F2400
;TYPE:Inner wall
;WIDTH:0.360973
G1 F3600
G1 X13.088 Y9.223 E.00152
;WIDTH:0.359239
G1 X13.573 Y9.022 E.01311
;WIDTH:0.360979
G1 X14.094 Y8.963 E.01318
;WIDTH:0.364025
G1 X14.612 Y9.05 E.01331
G1 X15.057 Y9.259 E.01249
;WIDTH:0.366983
G1 X15.437 Y9.573 E.01262
;WIDTH:0.403715
G1 X15.596 Y9.768 E.00716
;WIDTH:0.440446
G1 X15.754 Y9.963 E.00789
;WIDTH:0.470223
G1 X15.831 Y10.11 E.00563
;WIDTH:0.499999
G1 X15.909 Y10.258 E.00602
G1 X15.998 Y10.761 E.01842
G1 X15.955 Y11.269 E.01842
G1 X15.782 Y11.749 E.01843
G1 X15.49 Y12.167 E.01842
G1 X15.1 Y12.496 E.01842
G1 X14.638 Y12.713 E.01842
G1 X14.135 Y12.803 E.01843
G1 X13.627 Y12.759 E.01842
G3 X13.311 Y12.626 I.069 J-.605 E.01254
;WIDTH:0.46292
G1 X13.168 Y12.539 E.00554
;WIDTH:0.425841
G1 X13.026 Y12.452 E.00505
;WIDTH:0.388762
G1 X12.657 Y12.125 E.01347
;WIDTH:0.364462
G1 X12.37 Y11.718 E.01265
G1 X12.205 Y11.26 E.01236
;WIDTH:0.36151
G1 X12.162 Y10.77 E.01239
;WIDTH:0.364456
G1 X12.247 Y10.279 E.01265
G1 X12.454 Y9.838 E.01236
;WIDTH:0.361362
G1 X12.677 Y9.55 E.00917
;WIDTH:0.360973
G1 X13.009 Y9.285 E.01066
G1 X12.998 Y9.782 F30000
;TYPE:Outer wall
;WIDTH:0.499999
G1 F3600
G1 X13.327 Y9.534 E.01486
G1 X13.686 Y9.394 E.01394
G1 X14.076 Y9.35 E.01414
G1 X14.468 Y9.411 E.01433
G1 X14.821 Y9.566 E.01394
G1 X15.127 Y9.811 E.01414
G1 X15.359 Y10.126 E.01414
G1 X15.502 Y10.491 E.01414
G1 X15.545 Y10.88 E.01414
G1 X15.486 Y11.267 E.01414
G1 X15.329 Y11.626 E.01414
G1 X15.085 Y11.931 E.01414
G1 X14.77 Y12.164 E.01414
G1 X14.405 Y12.306 E.01414
G1 X14.016 Y12.35 E.01414
G1 X13.629 Y12.291 E.01414
G1 X13.27 Y12.134 E.01414
G1 X12.964 Y11.889 E.01414
G1 X12.73 Y11.569 E.01433
G1 X12.59 Y11.209 E.01394
G1 X12.546 Y10.82 E.01414
G1 X12.607 Y10.428 E.01433
G1 X12.762 Y10.074 E.01394
G1 X12.967 Y9.807 E.01217
G1 E-.35 F2400
;WIPE_START
G1 F3600
G1 X13.327 Y9.534 E-.06769
G1 X13.686 Y9.394 E-.0579
G1 X13.848 Y9.376 E-.02442
;WIPE_END
G1 X19.562 Y14.436 Z.6 F30000
G1 X46.112 Y37.945 Z.6
G1 Z.2
G1 E.5 F2400
G1 F3600
G1 X46.121 Y37.947 E.00032
G2 X46.749 Y38.032 I1.038 J-5.304 E.02291
G1 X48.034 Y38.051 E.04641
G3 X54.03 Y44.705 I-.426 J6.412 E.35782
G2 X55.602 Y48.729 I5.49 J.175 E.16032
G1 X210.031 Y203.159 E7.88542
M73 P5 R5
G1 X210.574 Y203.744 E.02881
G1 X210.832 Y204.165 E.01782
G1 X211.03 Y204.746 E.02218
G1 X211.091 Y205.408 E.024
G1 X211.011 Y205.942 E.01948
G1 X210.832 Y206.444 E.01926
G1 X210.574 Y206.865 E.01782
G1 X210.228 Y207.236 E.01833
G1 X209.722 Y207.594 E.02239
G1 X209.256 Y207.787 E.01821
G1 X208.644 Y207.892 E.0224
G1 X208.137 Y207.875 E.01832
G1 X207.657 Y207.759 E.01782
G1 X207.106 Y207.488 E.02218
G1 X206.65 Y207.132 E.02088
G1 X51.92 Y52.401 E7.90079
M73 P6 R5
G2 X48.514 Y50.843 I-3.811 J3.829 E.1381
G1 X47.232 Y50.824 E.04627
G3 X41.237 Y44.17 I.426 J-6.412 E.35782
G2 X39.665 Y40.146 I-5.49 J-.175 E.16032
G1 X12.514 Y12.996 E1.38635
G3 X11.591 Y11.693 I2.357 J-2.65 E.05815
G1 X11.476 Y11.213 E.01782
G1 X11.458 Y10.706 E.01833
G1 X11.563 Y10.094 E.0224
G1 X11.756 Y9.629 E.01821
G1 X12.114 Y9.122 E.02239
G1 X12.485 Y8.776 E.01833
G1 X12.906 Y8.518 E.01782
G1 X13.409 Y8.339 E.01927
G3 X14.889 Y8.395 I.643 J2.573 E.05421
G1 X15.44 Y8.666 E.02218
G1 X15.895 Y9.023 E.02088
G1 X43.347 Y36.474 E1.40171
M73 P7 R5
G2 X45.504 Y37.788 I3.812 J-3.831 E.09205
G1 X46.073 Y37.935 E.02123
G1 E-.35 F2400
;WIPE_START
G1 F3600
G1 X46.121 Y37.947 E-.00731
G1 X46.749 Y38.032 E-.09513
G1 X47.066 Y38.037 E-.04755
;WIPE_END
G1 X52.683 Y41.545 Z.6 F30000
G1 Z.2
G1 E.5 F2400
;TYPE:Bottom surface
;WIDTH:0.510938
G1 F6300
G1 X51.533 Y40.395 E.06014
G2 X49.677 Y39.201 I-4.086 J4.312 E.08205
G1 X52.87 Y42.393 E.16691
G3 X53.136 Y43.322 I-4.348 J1.75 E.03576
G1 X52.118 Y42.303 E.05325
G1 X52.032 Y42.111 E.00778
G1 X51.625 Y41.464 E.02827
G1 X51.119 Y40.885 E.02842
G2 X50.075 Y40.102 I-3.389 J3.43 E.04837
G1 X49.78 Y39.966 E.01203
G1 X48.749 Y38.935 E.05389
G2 X47.98 Y38.827 I-1.656 J9.015 E.02874
G1 X48.749 Y39.596 E.04022
G1 X48.626 Y39.562 E.00471
G1 X47.962 Y39.472 E.02476
G1 X47.305 Y38.815 E.03436
G1 X46.63 Y38.801 E.02498
G1 X47.304 Y39.475 E.03526
G1 X46.719 Y39.552 E.02183
G1 X45.847 Y38.68 E.04561
G3 X44.877 Y38.372 I.805 J-4.219 E.03768
G1 X46.196 Y39.691 E.06896
G2 X45.702 Y39.859 I.341 J1.817 E.01936
G1 X43.356 Y37.513 E.12267
G1 X42.794 Y37.02 E.02761
G1 X16.361 Y10.587 E1.38203
G1 X16.302 Y10.616 E.00242
G3 X16.298 Y11.117 I-1.906 J.234 E.01856
G1 X45.251 Y40.069 E1.51376
G1 X44.845 Y40.326 E.01773
G1 X16.169 Y11.65 E1.4993
G3 X15.95 Y12.093 I-1.793 J-.61 E.01832
G1 X44.473 Y40.615 E1.49127
G1 X44.118 Y40.923 E.01735
G1 X15.657 Y12.462 E1.48805
M73 P8 R5
G1 X15.288 Y12.755 E.01742
G1 X43.806 Y41.272 E1.49102
G2 X43.521 Y41.649 I1.246 J1.237 E.01752
G1 X14.845 Y12.973 E1.49929
G3 X14.312 Y13.102 I-.729 J-1.85 E.02034
G1 X43.269 Y42.059 E1.51395
G1 X43.06 Y42.511 E.01844
G1 X40.709 Y40.161 E.12291
G3 X41.568 Y41.682 I-4.839 J3.737 E.06482
G1 X42.883 Y42.996 E.06873
G1 X42.747 Y43.522 E.02008
G1 X41.875 Y42.651 E.04555
G1 X41.997 Y43.434 E.0293
G1 X42.674 Y44.112 E.03542
G1 X42.668 Y44.767 E.02423
G1 X42.01 Y44.11 E.03436
G1 X42.023 Y44.784 E.02493
G1 X43.084 Y45.846 E.05551
G1 E-.35 F2400
;WIPE_START
G1 F6300
G1 X42.377 Y45.139 E-.15
;WIPE_END
G1 X49.839 Y43.534 Z.6 F30000
G1 X52.182 Y43.03 Z.6
G1 Z.2
G1 E.5 F2400
G1 F6300
G1 X53.244 Y44.091 E.05551
G1 X53.257 Y44.766 E.02496
G1 X52.599 Y44.108 E.03441
G1 X52.592 Y44.764 E.02422
G1 X53.27 Y45.442 E.03545
G1 X53.392 Y46.225 E.02932
G1 X52.52 Y45.353 E.0456
G1 X52.384 Y45.879 E.02008
G1 X53.689 Y47.184 E.06824
G1 X53.815 Y47.504 E.01271
G2 X54.568 Y48.725 I5.288 J-2.418 E.05315
G1 X52.207 Y46.364 E.12344
G1 X51.998 Y46.816 E.01844
G1 X208.234 Y203.052 E8.16856
M73 P9 R5
G2 X207.701 Y203.181 I.196 J1.979 E.02034
G1 X51.745 Y47.226 E8.1539
M73 P10 R5
G3 X51.46 Y47.603 I-1.531 J-.86 E.01752
G1 X207.257 Y203.4 E8.14563
G1 X206.888 Y203.693 E.01742
G1 X51.148 Y47.953 E8.14265
M73 P11 R5
G1 X50.796 Y48.262 E.01734
G1 X206.596 Y204.062 E8.14575
G2 X206.377 Y204.505 I1.574 J1.053 E.01832
G1 X50.419 Y48.548 E8.154
M73 P12 R5
G1 X50.013 Y48.803 E.01775
G1 X206.248 Y205.038 E8.16853
M73 P13 R5
G2 X206.244 Y205.538 I1.902 J.266 E.01855
G1 X206.185 Y205.567 E.00242
G1 X52.472 Y51.855 E8.03664
G1 X51.92 Y51.372 E.02712
G1 X49.562 Y49.014 E.1233
G3 X49.077 Y49.191 I-.901 J-1.717 E.01914
G1 X50.38 Y50.493 E.06812
G1 X50.066 Y50.37 E.01245
G1 X49.421 Y50.196 E.02471
G1 X48.541 Y49.316 E.04603
G1 X47.962 Y49.399 E.02161
G1 X48.637 Y50.075 E.03531
G1 X47.962 Y50.061 E.02496
G1 X47.304 Y49.403 E.03441
G1 X46.64 Y49.313 E.02476
G1 X46.518 Y49.279 E.00471
G1 X47.283 Y50.048 E.04011
G3 X46.517 Y49.94 I.138 J-3.747 E.02863
G1 X45.486 Y48.909 E.05389
G1 X45.191 Y48.773 E.01202
G3 X43.642 Y47.412 I2.81 J-4.761 E.0767
G1 X43.235 Y46.764 E.02827
G1 X43.149 Y46.572 E.00777
G1 X42.131 Y45.554 E.05325
G2 X42.397 Y46.482 I4.614 J-.821 E.03576
G1 X45.587 Y49.673 E.16684
M73 P14 R5
G3 X43.732 Y48.479 I2.201 J-5.457 E.08205
G1 X42.583 Y47.33 E.06007
G1 X42.709 Y47.205 F30000
;TYPE:Gap infill
;WIDTH:0.136822
G1 F3600
G3 X42.557 Y47.005 I1.859 J-1.563 E.00186
G1 E-.35 F2400
;WIPE_START
G1 F3600
G1 X42.709 Y47.205 E-.15
;WIPE_END
G1 X46.151 Y49.933 Z.6 F30000
G1 Z.2
G1 E.5 F2400
;WIDTH:0.0977702
G1 F3600
G1 X45.817 Y49.75 E.00165
G1 E-.35 F2400
;WIPE_START
G1 F3600
G1 X46.151 Y49.933 E-.15
;WIPE_END
G1 X51.089 Y50.905 Z.6 F30000
G1 Z.2
G1 E.5 F2400
;WIDTH:0.11977
G1 F3600
G1 X50.961 Y50.81 E.00097
;WIDTH:0.163771
G1 X50.833 Y50.715 E.00152
;WIDTH:0.204956
G1 X50.615 Y50.561 E.00342
G1 E-.35 F2400
;WIPE_START
G1 F3600
G1 X50.833 Y50.715 E-.15
;WIPE_END
G1 X56.32 Y56.02 Z.6 F30000
G1 X208.47 Y203.125 Z.6
G1 Z.2
G1 E.5 F2400
;WIDTH:0.264052
G1 F3600
G1 X208.619 Y203.006 E.00334
;WIDTH:0.296713
G1 X208.637 Y202.991 E.00047
;WIDTH:0.319284
G1 X208.656 Y202.973 E.00058
G1 X208.6 Y202.892 E.00216
G1 X55.019 Y49.312 E4.74155
M73 P15 R4
G1 X54.671 Y48.944 E.01105
G1 E-.35 F2400
;WIPE_START
G1 F3600
G1 X55.019 Y49.312 E-.07596
G1 X55.368 Y49.661 E-.07404
;WIPE_END
G1 X52.903 Y42.437 Z.6 F30000
G1 X52.709 Y41.87 Z.6
G1 Z.2
G1 E.5 F2400
;WIDTH:0.102373
G1 F3600
G2 X52.558 Y41.67 I-2.011 J1.364 E.00118
G1 E-.35 F2400
;WIPE_START
G1 F3600
G1 X52.709 Y41.87 E-.15
