; HEADER_BLOCK_START
; generated by Creality_Print V5.1.6.10470 on 2024-12-10 at 16:22:58
; total layer number: 5
; filament_density: 1.24
; filament_diameter: 1.75
; max_z_height: 1.00
; HEADER_BLOCK_END

; MINX = 63.15
; MINY = 40.40
; MINZ = 0.00
; MAXX = 156.85
; MAXY = 179.60
; MAXZ = 1.00

; THUMBNAIL_BLOCK_START

;
; THUMBNAIL_BLOCK_END

; THUMBNAIL_BLOCK_START

;
; THUMBNAIL_BLOCK_END

; external perimeters extrusion width = 0.42mm
; perimeters extrusion width = 0.45mm
; infill extrusion width = 0.45mm
; solid infill extrusion width = 0.42mm
; top infill extrusion width = 0.42mm
; support material extrusion width = 0.42mm
; first layer extrusion width = 0.50mm

; EXECUTABLE_BLOCK_START
EXCLUDE_OBJECT_DEFINE NAME=Main_Holder_3.stl_id_0_copy_0 CENTER=110,110 POLYGON=[[63.15,80],[63.1894,79.4329],[63.3068,78.8768],[63.5001,78.3422],[63.7654,77.8396],[64.0977,77.3784],[64.4906,76.9676],[64.9365,76.6151],[65.4269,76.3276],[150.539,40.7301],[151.094,40.5477],[151.667,40.4371],[152.25,40.4],[152.85,40.4393],[153.441,40.5567],[154.01,40.7502],[154.55,41.0163],[155.05,41.3506],[155.503,41.7473],[155.899,42.1997],[156.234,42.7],[156.5,43.2396],[156.693,43.8094],[156.811,44.3996],[156.85,45],[156.85,175],[156.811,175.6],[156.693,176.191],[156.5,176.76],[156.234,177.3],[155.899,177.8],[155.503,178.253],[155.05,178.649],[154.55,178.984],[154.01,179.25],[153.441,179.443],[152.85,179.561],[152.25,179.6],[151.667,179.563],[151.094,179.452],[150.539,179.27],[65.7121,143.801],[65.226,143.566],[64.7749,143.269],[64.3668,142.915],[64.0087,142.511],[63.7068,142.063],[63.4664,141.579],[63.2917,141.068],[63.1856,140.539],[63.15,140],[63.15,80]]
M73 P0 R8
M106 S0
M106 P2 S0
;TYPE:Custom
M140 S0
M104 S0 
START_PRINT EXTRUDER_TEMP=230 BED_TEMP=50
M141 S35;set chamber_temperature
G90
G21
M83 ; use relative distances for extrusion
; filament start gcode
M106 S0
;LAYER_CHANGE
;Z:0.2
;HEIGHT:0.2
;BEFORE_LAYER_CHANGE
;0.2
G92 E0

G1 E-.5 F2400
;AFTER_LAYER_CHANGE
;0.2
;_SET_FAN_SPEED_CHANGING_LAYER
SET_VELOCITY_LIMIT ACCEL=1000 ACCEL_TO_DECEL=1000
SET_VELOCITY_LIMIT SQUARE_CORNER_VELOCITY=20
; printing object Main Holder 3.stl id:0 copy 0
EXCLUDE_OBJECT_START NAME=Main_Holder_3.stl_id_0_copy_0
G1 X111.813 Y103.981 F30000
G1 Z.4
G1 Z.2
G1 E.5 F2400
;TYPE:Inner wall
;WIDTH:0.499999
G1 F3600
G1 X111.998 Y103.877 E.00765
G1 X112.487 Y103.722 E.01853
G1 X112.998 Y103.672 E.01853
G1 X113.508 Y103.729 E.01853
G1 X113.995 Y103.891 E.01853
G1 X114.437 Y104.151 E.01853
G1 X114.551 Y104.28 E.00619
;WIDTH:0.463124
G1 X114.664 Y104.408 E.00569
;WIDTH:0.426249
G1 X114.778 Y104.537 E.00519
;WIDTH:0.389374
G1 X115.058 Y104.953 E.01373
;WIDTH:0.385318
G1 X115.288 Y105.468 E.01526
;WIDTH:0.423545
G1 X115.333 Y105.608 E.00442
;WIDTH:0.461772
G1 X115.378 Y105.748 E.00486
;WIDTH:0.499999
G1 X115.424 Y105.888 E.00531
G1 X115.42 Y106.401 E.01853
G1 X115.309 Y106.903 E.01853
G1 X115.097 Y107.37 E.01853
G1 X114.792 Y107.783 E.01853
G1 X114.409 Y108.124 E.01853
G1 X113.962 Y108.377 E.01853
G1 X113.473 Y108.532 E.01853
G1 X112.962 Y108.582 E.01853
G1 X112.452 Y108.525 E.01853
G1 X111.965 Y108.363 E.01853
G1 X111.522 Y108.103 E.01853
G1 X111.143 Y107.757 E.01853
;WIDTH:0.541636
G1 X111.054 Y107.67 E.00491
;WIDTH:0.583273
G1 X110.964 Y107.583 E.00532
;WIDTH:0.624909
G1 X110.875 Y107.496 E.00573
;WIDTH:0.651518
G1 X110.581 Y106.927 E.03081
G1 X110.57 Y106.787 E.00676
;WIDTH:0.613639
G1 X110.559 Y106.646 E.00634
;WIDTH:0.575759
G1 X110.547 Y106.506 E.00592
;WIDTH:0.537879
G1 X110.536 Y106.366 E.0055
;WIDTH:0.499999
G1 X110.54 Y105.853 E.01853
G1 X110.65 Y105.351 E.01853
G1 X110.862 Y104.884 E.01853
G1 X111.167 Y104.471 E.01853
G1 X111.551 Y104.13 E.01853
G1 X111.779 Y104.001 E.00944
G1 E-.35 F2400
;WIPE_START
G1 F3600
G1 X111.998 Y103.877 E-.03776
G1 X112.487 Y103.722 E-.077
G1 X112.721 Y103.699 E-.03524
;WIPE_END
G1 X107.991 Y109.689 Z.6 F30000
G1 X104.187 Y114.507 Z.6
G1 Z.2
G1 E.5 F2400
G1 F3600
G1 X104.093 Y114.462 E.00378
G3 X102.278 Y113.131 I1.907 J-4.504 E.08198
;WIDTH:0.54899
G1 X102.156 Y113.015 E.00674
;WIDTH:0.597981
G1 X102.034 Y112.898 E.0074
;WIDTH:0.646972
G1 X101.912 Y112.782 E.00805
G1 X101.641 Y112.306 E.02616
;WIDTH:0.615441
G1 X101.57 Y112.101 E.00977
;WIDTH:0.576961
G1 X101.5 Y111.897 E.00912
;WIDTH:0.53848
G1 X101.43 Y111.693 E.00846
;WIDTH:0.499999
G3 X101.132 Y109.916 I5.284 J-1.798 E.06533
G1 X101.196 Y109.203 E.02586
G1 X101.389 Y108.418 E.02917
G1 X101.624 Y107.861 E.02183
G1 X101.978 Y107.25 E.0255
G3 X105.55 Y105.17 I4.058 J2.863 E.15389
G3 X109.494 Y106.649 I.413 J4.899 E.15718
;WIDTH:0.525662
G1 X109.681 Y106.853 E.01056
;WIDTH:0.551324
G1 X109.868 Y107.057 E.01112
;WIDTH:0.584722
G1 X109.925 Y107.104 E.00315
;WIDTH:0.61812
G1 X109.982 Y107.152 E.00335
;WIDTH:0.651518
G1 X110.039 Y107.199 E.00354
G1 X110.288 Y107.641 E.02442
;WIDTH:0.622163
G3 X110.426 Y107.965 I-.664 J.475 E.01624
;WIDTH:0.581442
G1 X110.483 Y108.148 E.00812
;WIDTH:0.540721
G1 X110.54 Y108.33 E.00751
;WIDTH:0.499999
G3 X107.985 Y114.421 I-4.596 J1.654 E.26188
G1 X107.335 Y114.663 E.02507
G3 X104.718 Y114.678 I-1.335 J-4.705 E.09567
G1 X104.225 Y114.519 E.01868
G1 X104.81 Y114.233 F30000
;TYPE:Outer wall
G1 F3600
G3 X103.337 Y113.509 I1.168 J-4.235 E.05959
G1 X102.775 Y113.015 E.02705
G3 X101.649 Y109.265 I3.278 J-3.028 E.14634
G1 X101.829 Y108.541 E.02692
G3 X105.581 Y105.626 I4.182 J1.51 E.18098
G1 X106.152 Y105.611 E.02064
G1 X106.881 Y105.703 E.02653
G1 X107.562 Y105.903 E.02561
G3 X110.221 Y111.137 I-1.592 J4.101 E.23208
G1 X109.986 Y111.798 E.02532
G3 X104.848 Y114.244 I-4.008 J-1.8 E.22347
G1 E-.35 F2400
;WIPE_START
G1 F3600
G1 X104.241 Y114.042 E-.09599
G1 X103.921 Y113.877 E-.05401
;WIPE_END
G1 X100.93 Y106.855 Z.6 F30000
G1 X99.061 Y102.466 Z.6
G1 Z.2
G1 E.5 F2400
;TYPE:Inner wall
G1 F3600
G1 X99.024 Y102.378 E.00344
G1 X98.932 Y101.873 E.01853
G1 X98.947 Y101.36 E.01853
G1 X99.069 Y100.861 E.01853
G1 X99.291 Y100.398 E.01853
G1 X99.605 Y99.992 E.01853
G1 X99.996 Y99.66 E.01853
G1 X100.448 Y99.416 E.01853
G1 X100.674 Y99.367 E.00836
;WIDTH:0.460423
G1 X100.901 Y99.318 E.00764
G1 X100.593 Y99.337 E.01016
;WIDTH:0.499999
G1 X100.285 Y99.357 E.01113
G1 X80.35 Y99.357 E.7198
G1 X79.786 Y99.263 E.02064
G1 X79.342 Y99.05 E.01779
G1 X78.97 Y98.727 E.01778
G1 X78.742 Y98.409 E.01412
G1 X74.85 Y91.375 E.29027
G1 X74.66 Y90.842 E.02042
G1 X74.63 Y90.355 E.01759
G1 X74.727 Y89.878 E.01759
G1 X74.946 Y89.443 E.01759
G1 X75.271 Y89.079 E.01759
G1 X75.587 Y88.857 E.01397
G1 X100.051 Y75.639 E1.00399
G1 X100.573 Y75.457 E.01994
G1 X101.047 Y75.427 E.01718
G1 X101.514 Y75.519 E.01718
G1 X101.942 Y75.727 E.01717
G1 X102.303 Y76.037 E.01718
G1 X102.573 Y76.428 E.01718
G1 X102.735 Y76.876 E.01718
G1 X102.778 Y77.349 E.01717
G1 X102.699 Y77.818 E.01717
G1 X102.555 Y78.167 E.01363
G1 X99.496 Y83.696 E.22813
G1 X99.464 Y83.854 E.00583
G1 X107.393 Y96.523 E.53963
G1 X107.613 Y97.051 E.02064
G1 X107.668 Y97.54 E.01778
G1 X107.592 Y98.027 E.01778
G1 X107.391 Y98.477 E.01779
G1 X107.054 Y98.876 E.01889
G1 X106.644 Y99.156 E.01791
G1 X106.214 Y99.311 E.01651
G1 X105.825 Y99.357 E.01412
G1 X102.131 Y99.357 E.13338
G1 X102.444 Y99.475 E.01207
G1 X102.881 Y99.744 E.01853
G1 X103.252 Y100.099 E.01853
G1 X103.542 Y100.522 E.01853
G1 X103.737 Y100.997 E.01853
G1 X103.829 Y101.502 E.01853
G1 X103.814 Y102.015 E.01853
G1 X103.693 Y102.514 E.01853
G1 X103.47 Y102.977 E.01853
G1 X103.157 Y103.383 E.01853
M73 P1 R8
G1 X102.765 Y103.715 E.01853
G1 X102.313 Y103.959 E.01853
G1 X101.821 Y104.103 E.01853
G1 X101.317 Y104.143 E.01825
G1 X100.804 Y104.074 E.01871
G1 X100.326 Y103.906 E.01828
G1 X99.88 Y103.631 E.01891
G1 X99.509 Y103.276 E.01853
G1 X99.219 Y102.853 E.01853
G1 X99.076 Y102.503 E.01365
G1 X99.637 Y102.667 F30000
;TYPE:Outer wall
G1 F3600
G3 X102.575 Y100.084 I1.753 J-.969 E.1959
G3 X100.186 Y103.291 I-1.204 J1.597 E.22605
G1 X99.807 Y102.91 E.01941
G1 X99.66 Y102.699 E.00927
G1 E-.35 F2400
;WIPE_START
G1 F3600
G1 X99.471 Y102.283 E-.0686
G1 X99.389 Y101.873 E-.06271
G1 X99.391 Y101.748 E-.01869
;WIPE_END
G1 X100.901 Y99.318 Z.6 F30000
G1 Z.2
G1 E.5 F2400
;TYPE:Inner wall
;WIDTH:0.420846
G1 F3600
G1 X101.446 Y99.295 E.01629
;WIDTH:0.414652
G1 X101.816 Y99.314 E.0109
G1 E-.35 F2400
;WIPE_START
G1 F3600
G1 X101.446 Y99.295 E-.06071
G1 X100.901 Y99.318 E-.08929
;WIPE_END
G1 X99.969 Y91.742 Z.6 F30000
G1 X98.997 Y83.831 Z.6
G1 Z.2
G1 E.5 F2400
;TYPE:Outer wall
;WIDTH:0.499999
G1 F3600
G1 X99.099 Y84.156 E.0123
G1 X107.006 Y96.766 E.53738
G1 X107.162 Y97.124 E.0141
G1 X107.214 Y97.492 E.01342
G1 X107.166 Y97.861 E.01342
G1 X107.024 Y98.204 E.01342
G1 X106.771 Y98.517 E.01452
G1 X106.466 Y98.735 E.01354
G1 X106.153 Y98.858 E.01215
G1 X105.436 Y98.9 E.02594
G1 X80.35 Y98.9 E.90576
G1 X79.963 Y98.842 E.0141
G1 X79.624 Y98.69 E.01342
G1 X79.337 Y98.454 E.01342
G1 X79.142 Y98.188 E.01193
G1 X75.25 Y91.153 E.29027
G1 X75.114 Y90.792 E.01395
G1 X75.081 Y90.425 E.01328
G1 X75.145 Y90.063 E.01328
G1 X75.301 Y89.73 E.01328
G1 X75.539 Y89.449 E.01328
G1 X75.805 Y89.259 E.0118
G1 X100.269 Y76.041 E1.00399
G1 X100.623 Y75.911 E.01362
G3 X102.155 Y77.946 I.286 J1.379 E.1149
G1 X99.081 Y83.501 E.22923
G1 X99.007 Y83.793 E.01086
G1 E-.35 F2400
;WIPE_START
G1 F3600
G1 X99.099 Y84.156 E-.05629
G1 X99.431 Y84.686 E-.09371
;WIPE_END
G1 X99.904 Y92.303 Z.6 F30000
G1 X101.292 Y114.671 Z.6
G1 Z.2
G1 E.5 F2400
;TYPE:Inner wall
G1 F3600
G1 X101.141 Y115.038 E.01433
G1 X100.852 Y115.462 E.01853
G1 X100.48 Y115.816 E.01853
G1 X100.044 Y116.086 E.01853
G1 X99.56 Y116.259 E.01853
G1 X99.052 Y116.327 E.01853
G1 X98.54 Y116.289 E.01853
G1 X98.047 Y116.144 E.01853
G1 X97.595 Y115.901 E.01853
G1 X97.204 Y115.568 E.01853
G1 X96.89 Y115.162 E.01853
G1 X96.668 Y114.7 E.01853
G1 X96.547 Y114.201 E.01853
G1 X96.532 Y113.688 E.01853
G1 X96.624 Y113.183 E.01853
G1 X96.819 Y112.708 E.01853
G1 X97.108 Y112.284 E.01853
G1 X97.479 Y111.93 E.01853
G1 X97.916 Y111.66 E.01853
G1 X98.399 Y111.487 E.01853
G1 X98.908 Y111.419 E.01853
G1 X99.42 Y111.457 E.01853
G1 X99.913 Y111.602 E.01853
G1 X100.364 Y111.845 E.01853
;WIDTH:0.534324
G1 X100.603 Y112.067 E.01263
;WIDTH:0.568648
G1 X100.841 Y112.288 E.01352
;WIDTH:0.602972
G1 X101.08 Y112.51 E.0144
;WIDTH:0.643284
G1 X101.357 Y113.017 E.02742
G1 X101.376 Y113.193 E.00839
;WIDTH:0.595523
G1 X101.395 Y113.369 E.00772
;WIDTH:0.547761
G1 X101.413 Y113.545 E.00706
;WIDTH:0.499999
G1 X101.428 Y114.058 E.01853
G1 X101.336 Y114.563 E.01853
G1 X101.307 Y114.634 E.00275
G1 X100.966 Y114.106 F30000
;TYPE:Outer wall
G1 F3600
G3 X97.51 Y112.517 I-1.984 J-.238 E.27162
G1 X97.929 Y112.18 E.01941
G3 X99.004 Y111.873 I1.099 J1.812 E.04085
G1 X99.419 Y111.922 E.01509
G1 X99.871 Y112.088 E.0174
G1 X100.175 Y112.269 E.01275
G3 X100.889 Y113.278 I-1.4 J1.749 E.04521
G1 X100.971 Y113.798 E.01902
G1 X100.967 Y114.066 E.00967
G1 E-.35 F2400
;WIPE_START
G1 F3600
G1 X100.869 Y114.525 E-.07044
G1 X100.7 Y114.894 E-.06082
G1 X100.625 Y114.994 E-.01874
;WIPE_END
G1 X107.473 Y118.363 Z.6 F30000
G1 X111.74 Y120.463 Z.6
G1 Z.2
G1 E.5 F2400
;TYPE:Inner wall
G1 F3600
G1 X111.428 Y120.616 E.01255
G1 X110.931 Y120.742 E.01853
G1 X110.418 Y120.763 E.01853
G1 X109.912 Y120.675 E.01853
G1 X109.435 Y120.485 E.01853
G1 X109.009 Y120.2 E.01853
G1 X108.65 Y119.832 E.01853
G1 X108.377 Y119.398 E.01853
G1 X108.199 Y118.916 E.01853
G1 X108.125 Y118.414 E.01833
G1 X108.158 Y117.9 E.0186
G1 X108.299 Y117.402 E.01868
G1 X108.538 Y116.948 E.01853
G1 X108.866 Y116.553 E.01853
G1 X109.269 Y116.236 E.01853
G1 X109.73 Y116.009 E.01853
G1 X110.227 Y115.883 E.01853
G1 X110.74 Y115.862 E.01853
G1 X111.246 Y115.95 E.01853
G1 X111.723 Y116.14 E.01853
G1 X112.149 Y116.425 E.01853
G1 X112.508 Y116.793 E.01853
G1 X112.781 Y117.227 E.01853
G1 X112.959 Y117.709 E.01853
G1 X113.032 Y118.217 E.01853
G1 X112.999 Y118.729 E.01853
G1 X112.94 Y118.905 E.00671
;WIDTH:0.469542
G1 X112.881 Y119.081 E.00626
G1 X113.008 Y118.852 E.00884
;WIDTH:0.499999
G1 X113.135 Y118.623 E.00947
G1 X114.989 Y115.667 E.12596
G2 X116.231 Y112.862 I-9.068 J-5.692 E.11116
G1 X116.522 Y111.784 E.04031
G3 X116.935 Y111.17 I1.876 J.814 E.02685
G1 X117.343 Y110.87 E.01828
G1 X117.816 Y110.691 E.01828
G1 X118.216 Y110.643 E.01452
G1 X134.21 Y110.643 E.57749
M73 P2 R8
G1 X134.698 Y110.713 E.01781
G1 X135.092 Y110.873 E.01534
G1 X135.438 Y111.119 E.01534
G1 X135.711 Y111.442 E.01527
;WIDTH:0.477945
G1 X135.815 Y111.678 E.00887
;WIDTH:0.43018
G1 X135.92 Y111.914 E.00789
;WIDTH:0.42161
G1 X136.058 Y112.108 E.00712
;WIDTH:0.460805
G1 X136.197 Y112.301 E.00786
;WIDTH:0.499999
G1 X136.336 Y112.494 E.0086
G1 X136.921 Y113.141 E.03147
G2 X137.959 Y113.895 I5.257 J-6.152 E.04638
G1 X138.305 Y114.286 E.01885
G1 X138.543 Y114.809 E.02075
G1 X138.607 Y115.285 E.01736
G1 X138.607 Y162.09 E1.68993
G1 X138.519 Y162.637 E.02002
G1 X138.317 Y163.071 E.01725
G1 X138.012 Y163.438 E.01725
G1 X137.623 Y163.715 E.01725
G1 X137.176 Y163.884 E.01725
G1 X136.701 Y163.933 E.01725
G1 X136.229 Y163.859 E.01725
G1 X135.877 Y163.718 E.01369
G1 X109.774 Y149.614 E1.07126
G1 X109.387 Y149.33 E.01731
;WIDTH:0.545861
G1 X109.289 Y149.241 E.00525
;WIDTH:0.591722
G1 X109.192 Y149.152 E.00573
;WIDTH:0.637583
G1 X109.094 Y149.063 E.00621
;WIDTH:0.683444
G1 X108.996 Y148.974 E.00669
G1 X108.76 Y148.498 E.02689
;WIDTH:0.664172
G1 X108.402 Y147.981 E.03086
;WIDTH:0.663763
G1 X107.95 Y147.534 E.03121
G1 X107.376 Y147.173 E.03326
;WIDTH:0.665156
G1 X106.797 Y146.95 E.03045
;WIDTH:0.68297
G1 X106.16 Y146.823 E.03284
G1 X105.971 Y146.759 E.01008
;WIDTH:0.641638
G1 X105.86 Y146.679 E.00649
;WIDTH:0.594425
G1 X105.748 Y146.599 E.00598
;WIDTH:0.547212
G1 X105.637 Y146.52 E.00547
;WIDTH:0.499999
G1 X105.212 Y146.165 E.01998
G1 X104.943 Y145.765 E.01739
G1 X101.33 Y139.234 E.26949
G1 X101.139 Y138.695 E.02064
G1 X101.111 Y138.204 E.01778
G1 X101.213 Y137.722 E.01779
G1 X101.381 Y137.368 E.01412
G1 X112.155 Y120.186 E.73225
G1 X111.889 Y120.389 E.01207
G1 X111.776 Y120.445 E.00453
G1 E-.35 F2400
;WIPE_START
G1 F3600
G1 X111.428 Y120.616 E-.05816
G1 X110.931 Y120.742 E-.077
G1 X110.832 Y120.746 E-.01485
;WIPE_END
G1 X108.968 Y128.148 Z.6 F30000
G1 X103.554 Y149.641 Z.6
G1 Z.2
G1 E.5 F2400
G1 F3600
G1 X103.668 Y149.173 E.01738
G1 X103.89 Y148.711 E.01853
M73 P2 R7
G1 X104.204 Y148.304 E.01853
G1 X104.593 Y147.974 E.01843
G1 X105.047 Y147.729 E.01864
G1 X105.54 Y147.584 E.01853
;WIDTH:0.545742
G1 X105.67 Y147.552 E.00534
;WIDTH:0.591485
G1 X105.8 Y147.52 E.00582
;WIDTH:0.637228
G1 X105.931 Y147.487 E.00631
;WIDTH:0.68297
G1 X106.061 Y147.455 E.00679
G1 X106.586 Y147.536 E.02684
;WIDTH:0.66425
G1 X107.084 Y147.717 E.02602
;WIDTH:0.6638
G1 X107.526 Y147.987 E.02541
G1 X107.917 Y148.364 E.02661
;WIDTH:0.664172
G1 X108.205 Y148.778 E.02475
G1 X108.405 Y149.267 E.02596
;WIDTH:0.652658
G1 X108.411 Y149.404 E.0066
;WIDTH:0.614494
G1 X108.416 Y149.541 E.00618
;WIDTH:0.576329
G1 X108.422 Y149.678 E.00577
;WIDTH:0.538164
G1 X108.428 Y149.815 E.00536
;WIDTH:0.499999
G1 X108.413 Y150.328 E.01853
G1 X108.292 Y150.827 E.01853
G1 X108.069 Y151.289 E.01853
G1 X107.756 Y151.696 E.01853
G1 X107.364 Y152.028 E.01853
G1 X106.913 Y152.271 E.01853
;WIDTH:0.544083
G1 X106.824 Y152.323 E.00408
;WIDTH:0.588166
G1 X106.735 Y152.375 E.00443
;WIDTH:0.63225
G1 X106.646 Y152.427 E.00479
;WIDTH:0.676333
G1 X106.557 Y152.479 E.00515
G1 X106.06 Y152.533 E.02503
;WIDTH:0.663455
G1 X105.531 Y152.497 E.02598
;WIDTH:0.663611
G1 X105.022 Y152.349 E.026
;WIDTH:0.663418
G1 X104.442 Y152.02 E.03267
G1 X104.043 Y151.636 E.02713
;WIDTH:0.662113
G1 X103.752 Y151.215 E.02502
;WIDTH:0.669959
G1 X103.569 Y150.809 E.02209
G1 X103.56 Y150.653 E.00773
;WIDTH:0.627469
G1 X103.55 Y150.497 E.00721
;WIDTH:0.584979
G1 X103.541 Y150.341 E.00669
;WIDTH:0.542489
G1 X103.532 Y150.185 E.00616
;WIDTH:0.499999
G1 X103.546 Y149.68 E.01824
G1 X103.989 Y150.153 F30000
;TYPE:Outer wall
G1 F3600
G3 X103.994 Y149.767 I1.923 J-.168 E.01397
G1 X104.139 Y149.239 E.01977
G1 X104.354 Y148.85 E.01605
G1 X104.667 Y148.503 E.01689
G1 X105.046 Y148.24 E.01663
G1 X105.541 Y148.049 E.01916
G1 X106.004 Y148 E.01681
G3 X105.145 Y151.817 I-.033 J1.998 E.2562
G1 X104.785 Y151.604 E.0151
