; HEADER_BLOCK_START
; generated by Creality_Print V5.1.6.10470 on 2024-12-10 at 16:20:07
; total layer number: 115
; filament_density: 1.24
; filament_diameter: 1.75
; max_z_height: 23.00
; HEADER_BLOCK_END

; MINX = 60.69
; MINY = 70.90
; MINZ = 0.00
; MAXX = 145.02
; MAXY = 149.10
; MAXZ = 23.00

; THUMBNAIL_BLOCK_START

;
; THUMBNAIL_BLOCK_END

; THUMBNAIL_BLOCK_START

;
; THUMBNAIL_BLOCK_END

; external perimeters extrusion width = 0.42mm
; perimeters extrusion width = 0.45mm
; infill extrusion width = 0.45mm
; solid infill extrusion width = 0.42mm
; top infill extrusion width = 0.42mm
; support material extrusion width = 0.42mm
; first layer extrusion width = 0.50mm

; EXECUTABLE_BLOCK_START
EXCLUDE_OBJECT_DEFINE NAME=Main_Holder_1.stl_id_0_copy_0 CENTER=102.856,110 POLYGON=[[60.6913,104.844],[60.7427,103.903],[60.871,102.97],[61.0753,102.05],[61.3541,101.15],[61.7058,100.276],[62.1278,99.4331],[62.6173,98.628],[63.1711,97.8657],[63.7855,97.1513],[64.4563,96.4896],[65.179,95.885],[65.9487,95.3416],[66.7604,94.8631],[108.838,71.4686],[109.287,71.2399],[109.299,71.2344],[109.325,71.2234],[109.808,71.054],[109.814,71.0525],[109.841,71.045],[110.337,70.9422],[110.362,70.9387],[110.376,70.9368],[110.875,70.9007],[110.92,70.9005],[111.414,70.9304],[111.455,70.9355],[111.478,70.9387],[111.945,71.0307],[114.085,71.5833],[141.27,78.6023],[141.84,78.7865],[142.383,79.0374],[142.893,79.3515],[143.362,79.7244],[143.782,80.1505],[144.149,80.6239],[144.457,81.1377],[144.7,81.6846],[144.877,82.2567],[144.984,82.8459],[145.02,83.4436],[145.02,126.557],[144.984,127.155],[144.877,127.744],[144.7,128.316],[144.457,128.863],[144.149,129.377],[143.782,129.85],[143.362,130.277],[142.893,130.649],[142.383,130.964],[141.84,131.214],[141.27,131.399],[108.72,139.803],[73.2153,148.97],[72.6635,149.073],[72.1029,149.1],[71.544,149.049],[70.9971,148.923],[70.4726,148.723],[69.9803,148.454],[69.5294,148.12],[69.1284,147.727],[68.7847,147.283],[68.5048,146.797],[68.294,146.277],[68.1562,145.733],[60.8199,106.722],[60.7171,105.786],[60.6913,104.844]]
M73 P0 R25
M106 S0
M106 P2 S0
;TYPE:Custom
M140 S0
M104 S0 
START_PRINT EXTRUDER_TEMP=230 BED_TEMP=50
M141 S35;set chamber_temperature
G90
G21
M83 ; use relative distances for extrusion
; filament start gcode
M106 S0
;LAYER_CHANGE
;Z:0.2
;HEIGHT:0.2
;BEFORE_LAYER_CHANGE
;0.2
G92 E0

G1 E-.5 F2400
;AFTER_LAYER_CHANGE
;0.2
;_SET_FAN_SPEED_CHANGING_LAYER
SET_VELOCITY_LIMIT ACCEL=1000 ACCEL_TO_DECEL=1000
SET_VELOCITY_LIMIT SQUARE_CORNER_VELOCITY=20
; printing object Main Holder 1.stl id:0 copy 0
EXCLUDE_OBJECT_START NAME=Main_Holder_1.stl_id_0_copy_0
G1 X63.711 Y103.071 F30000
G1 Z.4
G1 Z.2
G1 E.5 F2400
;TYPE:Inner wall
;WIDTH:0.499999
G1 F3600
G1 X63.477 Y102.887 E.01075
G1 X63.149 Y102.492 E.01853
G1 X62.91 Y102.038 E.01853
G1 X62.771 Y101.544 E.01853
G1 X62.737 Y101.032 E.01853
G1 X62.792 Y100.719 E.01145
;WIDTH:0.469036
G1 X62.878 Y100.502 E.00787
;WIDTH:0.434015
G1 X62.965 Y100.285 E.00723
;WIDTH:0.398994
G1 X63.051 Y100.067 E.00658
;WIDTH:0.385339
G1 X63.394 Y99.539 E.01703
;WIDTH:0.423349
G1 X63.568 Y99.354 E.00766
;WIDTH:0.461359
G1 X63.743 Y99.168 E.00842
;WIDTH:0.499999
G1 X64.18 Y98.89 E.01871
G1 X64.674 Y98.728 E.01876
G1 X65.172 Y98.672 E.01811
G1 X65.683 Y98.722 E.01853
G1 X66.173 Y98.877 E.01853
G1 X66.619 Y99.131 E.01853
G1 X67.003 Y99.471 E.01853
G1 X67.308 Y99.884 E.01853
G1 X67.52 Y100.352 E.01853
G1 X67.63 Y100.853 E.01853
G1 X67.634 Y101.366 E.01853
;WIDTH:0.54642
G1 X67.621 Y101.543 E.00703
;WIDTH:0.59284
G1 X67.608 Y101.719 E.00768
;WIDTH:0.63926
G1 X67.595 Y101.895 E.00833
G1 X67.374 Y102.372 E.02478
;WIDTH:0.622166
G1 X67.289 Y102.503 E.00715
G1 X67.133 Y102.654 E.00992
;WIDTH:0.581444
G1 X66.978 Y102.805 E.00922
;WIDTH:0.540722
G1 X66.822 Y102.956 E.00852
;WIDTH:0.499999
G1 X66.334 Y103.3 E.02157
G1 X65.857 Y103.49 E.01853
G1 X65.351 Y103.578 E.01853
G1 X64.838 Y103.557 E.01853
G1 X64.341 Y103.431 E.01853
G1 X63.881 Y103.204 E.01853
G1 X63.743 Y103.096 E.00634
G1 E-.35 F2400
;WIPE_START
G1 F3600
G1 X63.477 Y102.887 E-.05066
G1 X63.149 Y102.492 E-.07699
G1 X63.08 Y102.36 E-.02235
;WIPE_END
G1 X68.299 Y107.929 Z.6 F30000
G1 X68.56 Y108.207 Z.6
G1 Z.2
G1 E.5 F2400
G1 F3600
G1 X68.496 Y108.141 E.00333
G3 X68.115 Y107.629 I3.694 J-3.151 E.02308
G3 X67.349 Y105.379 I4.001 J-2.617 E.08673
G3 X67.576 Y103.501 I5.363 J-.304 E.06866
;WIDTH:0.527476
G1 X67.661 Y103.247 E.01024
;WIDTH:0.554953
G1 X67.747 Y102.994 E.01082
;WIDTH:0.586123
G1 X67.802 Y102.838 E.0071
;WIDTH:0.617293
G1 X67.858 Y102.682 E.00751
;WIDTH:0.651518
G1 X68.131 Y102.199 E.02668
G1 X68.237 Y102.096 E.00711
;WIDTH:0.613639
G1 X68.343 Y101.993 E.00667
;WIDTH:0.575759
G1 X68.449 Y101.89 E.00622
;WIDTH:0.537879
G1 X68.555 Y101.787 E.00578
;WIDTH:0.499999
G3 X76.687 Y103.189 I3.631 J3.224 E.35604
G1 X76.935 Y103.967 E.02946
G1 X77.032 Y104.623 E.02394
G1 X77.035 Y105.307 E.02469
G3 X76.833 Y106.398 I-4.689 J-.305 E.04018
;WIDTH:0.50813
G1 X76.653 Y106.904 E.01972
;WIDTH:0.5439
G1 X76.612 Y107.038 E.00555
;WIDTH:0.57967
G1 X76.571 Y107.172 E.00595
;WIDTH:0.61544
G1 X76.53 Y107.306 E.00634
;WIDTH:0.646973
G1 X76.258 Y107.782 E.02616
G1 X76.136 Y107.899 E.00805
;WIDTH:0.597982
G1 X76.014 Y108.015 E.0074
;WIDTH:0.548991
G1 X75.892 Y108.132 E.00674
;WIDTH:0.499999
G3 X68.937 Y108.594 I-3.702 J-3.141 E.28071
G1 X68.588 Y108.236 E.01806
G1 X69.236 Y108.248 F30000
;TYPE:Outer wall
G1 F3600
G1 X68.851 Y107.853 E.01995
G3 X68.505 Y107.391 I3.345 J-2.865 E.02083
G3 X67.802 Y105.316 I3.606 J-2.38 E.07998
G3 X68.016 Y103.624 I4.837 J-.247 E.06192
G1 X68.277 Y102.99 E.02474
G3 X69.401 Y101.597 I4.327 J2.344 E.06501
G3 X76.267 Y103.37 I2.784 J3.401 E.29786
G1 X76.495 Y104.09 E.02728
G3 X76.51 Y105.815 I-4.859 J.906 E.06262
G1 X76.341 Y106.459 E.02403
G3 X75.416 Y107.992 I-4.61 J-1.736 E.065
G3 X69.266 Y108.276 I-3.22 J-3.005 E.24617
G1 E-.35 F2400
;WIPE_START
G1 F3600
G1 X68.851 Y107.853 E-.08886
G1 X68.607 Y107.526 E-.06114
;WIPE_END
G1 X76.209 Y106.853 Z.6 F30000
G1 X79.885 Y106.528 Z.6
G1 Z.2
G1 E.5 F2400
;TYPE:Inner wall
G1 F3600
G1 X80.241 Y106.653 E.01365
G1 X80.685 Y106.925 E.01878
G1 X81.061 Y107.282 E.01872
G1 X81.352 Y107.708 E.01863
G1 X81.547 Y108.183 E.01853
G1 X81.639 Y108.686 E.01844
G1 X81.625 Y109.194 E.01835
G1 X81.508 Y109.687 E.0183
G1 X81.28 Y110.163 E.01905
G1 X80.962 Y110.572 E.01872
G1 X80.565 Y110.907 E.01876
G1 X80.123 Y111.145 E.01811
G1 X79.63 Y111.289 E.01853
G1 X79.119 Y111.328 E.01853
G1 X78.61 Y111.259 E.01853
G1 X78.127 Y111.086 E.01853
G1 X77.699 Y110.825 E.01808
G1 X77.386 Y110.542 E.01527
G1 X77.029 Y110.039 E.02226
G1 X76.834 Y109.564 E.01853
G1 X76.742 Y109.059 E.01853
G1 X76.757 Y108.546 E.01853
;WIDTH:0.54776
G1 X76.776 Y108.37 E.00706
;WIDTH:0.595521
G1 X76.794 Y108.194 E.00772
;WIDTH:0.643282
G1 X76.813 Y108.018 E.00839
G1 X77.052 Y107.549 E.02496
;WIDTH:0.619026
G1 X77.173 Y107.426 E.00786
;WIDTH:0.579351
G1 X77.294 Y107.302 E.00732
;WIDTH:0.539675
G1 X77.414 Y107.178 E.00678
;WIDTH:0.499999
G1 X77.806 Y106.846 E.01853
G1 X78.262 Y106.601 E.01872
G1 X78.762 Y106.457 E.01876
G1 X79.262 Y106.419 E.01811
G1 X79.76 Y106.484 E.01814
G1 X79.847 Y106.515 E.00333
G1 X79.318 Y106.889 F30000
;TYPE:Outer wall
G1 F3600
G1 X79.359 Y106.89 E.0015
G3 X78.355 Y110.691 I-.171 J1.988 E.25122
G1 X77.892 Y110.384 E.02006
G1 X77.711 Y110.22 E.00882
G1 X77.426 Y109.806 E.01816
G1 X77.25 Y109.322 E.01857
G1 X77.199 Y109.059 E.00969
G3 X77.738 Y107.501 I2.031 J-.169 E.06126
G1 X78.134 Y107.184 E.01833
G1 X78.543 Y106.991 E.01631
G1 X78.986 Y106.893 E.01641
G1 X79.278 Y106.89 E.01052
G1 E-.35 F2400
;WIPE_START
G1 F3600
G1 X79.359 Y106.89 E-.01224
G1 X79.629 Y106.922 E-.0408
G1 X80.025 Y107.056 E-.06271
G1 X80.222 Y107.173 E-.03425
;WIPE_END
G1 X87.854 Y107.202 Z.6 F30000
G1 X90.96 Y107.214 Z.6
G1 Z.2
G1 E.5 F2400
;TYPE:Inner wall
G1 F3600
G1 X90.853 Y107.272 E.00441
G1 X90.36 Y107.416 E.01853
G1 X89.848 Y107.455 E.01853
G1 X89.34 Y107.386 E.01853
G1 X88.856 Y107.213 E.01853
G1 X88.425 Y106.949 E.01826
G1 X88.05 Y106.592 E.01872
G1 X87.759 Y106.166 E.01863
G1 X87.564 Y105.691 E.01853
G1 X87.472 Y105.188 E.01844
G1 X87.473 Y104.773 E.01499
G1 X87.574 Y104.267 E.01863
G1 X87.791 Y103.772 E.01952
G1 X88.089 Y103.361 E.01833
G1 X88.535 Y102.973 E.02136
G1 X88.987 Y102.729 E.01853
G1 X89.48 Y102.585 E.01853
G1 X89.992 Y102.546 E.01853
G1 X90.5 Y102.615 E.01853
G1 X90.984 Y102.788 E.01853
G1 X91.421 Y103.057 E.01853
G1 X91.792 Y103.411 E.01853
G1 X92.081 Y103.835 E.01853
G1 X92.276 Y104.31 E.01853
G1 X92.368 Y104.815 E.01853
G1 X92.353 Y105.328 E.01853
G1 X92.232 Y105.827 E.01853
G1 X92.01 Y106.29 E.01853
G1 X91.696 Y106.696 E.01853
G1 X91.305 Y107.028 E.01853
G1 X90.995 Y107.195 E.01268
G1 X91.098 Y106.613 F30000
;TYPE:Outer wall
G1 F3600
G1 X91.075 Y106.631 E.00107
G3 X88.418 Y106.321 I-1.157 J-1.628 E.10583
G1 X88.118 Y105.849 E.02017
G1 X88.011 Y105.595 E.00997
G3 X87.929 Y104.801 I1.931 J-.599 E.029
G1 X88.026 Y104.36 E.01631
G3 X91.165 Y103.442 I1.897 J.661 E.13796
G3 X91.388 Y106.355 I-1.246 J1.561 E.11832
G1 X91.128 Y106.586 E.01257
G1 E-.35 F2400
;WIPE_START
G1 F3600
G1 X91.075 Y106.631 E-.01042
G1 X90.712 Y106.837 E-.06268
G1 X90.312 Y106.961 E-.06271
G1 X90.218 Y106.97 E-.01419
;WIPE_END
G1 X96.47 Y102.591 Z.6 F30000
G1 X107.677 Y94.741 Z.6
G1 Z.2
G1 E.5 F2400
;TYPE:Inner wall
G1 F3600
G1 X107.677 Y130.284 E1.28328
G1 X107.625 Y130.821 E.01949
G1 X107.451 Y131.385 E.02133
G1 X107.197 Y131.858 E.01939
G1 X106.859 Y132.275 E.01939
G1 X106.448 Y132.621 E.01939
G1 X105.98 Y132.885 E.01939
G1 X105.012 Y133.177 E.03653
G1 X82.844 Y138.9 E.82664
G1 X82.291 Y138.952 E.02006
G1 X81.82 Y138.865 E.01728
G1 X81.387 Y138.66 E.01728
G1 X81.021 Y138.351 E.01728
G1 X80.747 Y137.959 E.01728
G1 X80.581 Y137.51 E.01728
G1 X80.537 Y137.034 E.01728
G1 X80.615 Y136.562 E.01728
G1 X80.953 Y135.861 E.0281
G1 X104.201 Y93.844 E1.73378
G1 X104.551 Y93.4 E.02043
G1 X104.948 Y93.116 E.0176
G1 X105.405 Y92.945 E.0176
G1 X105.89 Y92.899 E.0176
G1 X106.371 Y92.981 E.0176
G1 X106.813 Y93.186 E.0176
G1 X107.187 Y93.499 E.0176
G1 X107.466 Y93.898 E.0176
G1 X107.632 Y94.357 E.01761
G1 X107.673 Y94.702 E.01253
G1 X107.172 Y94.399 F30000
;TYPE:Outer wall
G1 F3600
G1 X107.179 Y94.417 E.00071
G1 X107.22 Y94.741 E.0118
G1 X107.22 Y130.284 E1.28328
G1 X107.137 Y130.872 E.02147
G3 X105.654 Y132.517 I-2.387 J-.661 E.08288
G1 X104.897 Y132.734 E.02843
G1 X82.73 Y138.458 E.82664
G1 X82.352 Y138.499 E.0137
G3 X81.383 Y138.071 I.109 J-1.561 E.03903
G1 X81.134 Y137.702 E.01608
G1 X81.034 Y137.446 E.00994
G3 X81.04 Y136.729 I1.356 J-.346 E.02616
G1 X81.353 Y136.082 E.02597
G1 X104.601 Y94.065 E1.73378
G1 X104.835 Y93.758 E.01396
G1 X105.129 Y93.536 E.01329
G1 X105.47 Y93.397 E.01329
G1 X105.835 Y93.353 E.01329
G1 X106.199 Y93.405 E.01329
G1 X106.537 Y93.55 E.01329
G1 X106.826 Y93.779 E.01329
G1 X107.045 Y94.074 E.01329
G1 X107.157 Y94.361 E.01113
G1 E-.35 F2400
;WIPE_START
G1 F3600
G1 X107.179 Y94.417 E-.00896
G1 X107.22 Y94.741 E-.04904
G1 X107.22 Y95.355 E-.092
;WIPE_END
G1 X102.698 Y101.503 Z.6 F30000
G1 X69.912 Y146.083 Z.6
G1 Z.2
G1 E.5 F2400
;TYPE:Inner wall
;WIDTH:0.662139
G1 F3600
G1 X69.805 Y145.86 E.01214
;WIDTH:0.661716
G1 X69.678 Y145.345 E.02591
;WIDTH:0.66203
G1 X69.661 Y144.815 E.02593
G1 X69.755 Y144.293 E.02593
;WIDTH:0.662521
G1 X69.955 Y143.802 E.02595
;WIDTH:0.690946
G1 X70.241 Y143.355 E.02717
G1 X70.353 Y143.281 E.00689
;WIDTH:0.64321
G1 X70.465 Y143.206 E.00639
;WIDTH:0.595473
G1 X70.578 Y143.132 E.00588
;WIDTH:0.547736
G1 X70.69 Y143.057 E.00537
;WIDTH:0.499999
G1 X71.127 Y142.788 E.01853
G1 X71.61 Y142.615 E.01853
G1 X72.119 Y142.546 E.01853
G1 X72.63 Y142.585 E.01853
G1 X73.123 Y142.729 E.01853
G1 X73.575 Y142.973 E.01853
G1 X73.966 Y143.305 E.01853
G1 X74.28 Y143.711 E.01853
G1 X74.502 Y144.174 E.01853
G1 X74.624 Y144.673 E.01853
G1 X74.639 Y145.186 E.01853
G1 X74.547 Y145.691 E.01853
G1 X74.352 Y146.166 E.01853
G1 X74.062 Y146.589 E.01853
G1 X73.691 Y146.944 E.01853
;WIDTH:0.558679
G1 X73.594 Y147.033 E.00535
;WIDTH:0.604577
G1 X73.497 Y147.121 E.00583
;WIDTH:0.650475
G1 X73.4 Y147.21 E.0063
;WIDTH:0.696372
G1 X73.303 Y147.298 E.00678
G1 X72.796 Y147.464 E.02754
;WIDTH:0.66393
G1 X72.27 Y147.535 E.02602
;WIDTH:0.664942
G1 X71.769 Y147.501 E.02468
G1 X71.233 Y147.348 E.02741
;WIDTH:0.662546
G1 X70.765 Y147.099 E.02595
G1 X70.36 Y146.756 E.02595
;WIDTH:0.662139
G1 X70.035 Y146.337 E.02593
G1 X69.93 Y146.119 E.01184
G1 X70.677 Y146.304 F30000
;TYPE:Outer wall
;WIDTH:0.499999
G1 F3600
G1 X70.412 Y145.901 E.01742
G1 X70.281 Y145.596 E.012
G1 X70.199 Y145.122 E.01737
G1 X70.204 Y144.768 E.01278
G1 X70.313 Y144.322 E.01657
G3 X73.385 Y143.397 I1.886 J.7 E.13409
G1 X73.768 Y143.784 E.01968
G3 X73.346 Y146.632 I-1.572 J1.222 E.11618
G3 X72.166 Y147 I-1.231 J-1.872 E.04521
G1 X71.626 Y146.911 E.01978
G1 X71.355 Y146.818 E.01034
G1 X70.911 Y146.528 E.01915
G1 X70.703 Y146.334 E.01025
G1 E-.35 F2400
;WIPE_START
G1 F3600
G1 X70.412 Y145.901 E-.07829
G1 X70.281 Y145.596 E-.04986
G1 X70.256 Y145.452 E-.02185
;WIPE_END
G1 X77.653 Y143.57 Z.6 F30000
G1 X108.578 Y135.702 Z.6
G1 Z.2
G1 E.5 F2400
;TYPE:Inner wall
G1 F3600
G1 X108.487 Y135.328 E.01388
G1 X108.472 Y134.815 E.01853
G1 X108.564 Y134.31 E.01853
G1 X108.759 Y133.835 E.01853
G1 X109.213 Y133.243 E.02697
G1 X109.617 Y132.926 E.01852
G1 X110.076 Y132.7 E.01846
G1 X110.48 Y132.585 E.01518
G1 X110.992 Y132.546 E.01853
G1 X111.5 Y132.615 E.01853
G1 X111.984 Y132.788 E.01853
G1 X112.419 Y133.055 E.01844
G1 X112.786 Y133.403 E.01824
G1 X113.073 Y133.816 E.01818
G1 X113.268 Y134.277 E.01806
G1 X113.368 Y134.815 E.01977
G1 X113.353 Y135.328 E.01853
G1 X113.232 Y135.827 E.01853
G1 X113.01 Y136.29 E.01853
G1 X112.696 Y136.696 E.01853
G1 X112.305 Y137.028 E.01853
;WIDTH:0.544287
G1 X112.199 Y137.11 E.00531
;WIDTH:0.588575
G1 X112.092 Y137.192 E.00578
;WIDTH:0.632863
G1 X111.986 Y137.274 E.00625
;WIDTH:0.67715
G1 X111.88 Y137.356 E.00672
G1 X111.369 Y137.501 E.02661
;WIDTH:0.698125
G1 X111.002 Y137.553 E.01919
G1 X110.872 Y137.519 E.00699
;WIDTH:0.648594
G1 X110.741 Y137.485 E.00646
;WIDTH:0.599062
G1 X110.61 Y137.45 E.00593
;WIDTH:0.549531
G1 X110.48 Y137.416 E.0054
;WIDTH:0.499999
G1 X109.987 Y137.272 E.01853
G1 X109.536 Y137.028 E.01853
G1 X109.144 Y136.696 E.01853
G1 X108.83 Y136.29 E.01853
G1 X108.608 Y135.827 E.01853
G1 X108.587 Y135.741 E.0032
G1 X109.169 Y135.962 F30000
;TYPE:Outer wall
G1 F3600
G1 X109.011 Y135.596 E.0144
G3 X108.929 Y135.186 I1.905 J-.594 E.01512
G1 X108.957 Y134.657 E.01912
G3 X109.255 Y133.904 I1.956 J.339 E.02943
G3 X110.944 Y133.001 I1.729 J1.202 E.07179
G1 X111.459 Y133.082 E.01881
G3 X109.187 Y135.998 I-.543 J1.92 E.28201
G1 E-.35 F2400
;WIPE_START
G1 F3600
G1 X109.011 Y135.596 E-.06579
G1 X108.929 Y135.186 E-.06271
G1 X108.937 Y135.043 E-.0215
;WIPE_END
G1 X110.593 Y127.592 Z.6 F30000
G1 X115.163 Y107.043 Z.6
G1 Z.2
G1 E.5 F2400
;TYPE:Inner wall
;WIDTH:0.542641
G1 F3600
G1 X114.969 Y106.994 E.00792
;WIDTH:0.499999
G1 X114.568 Y106.722 E.01746
G1 X114.261 Y106.267 E.01984
G1 X114.163 Y105.767 E.01837
G1 X114.163 Y104.234 E.05538
G1 X114.261 Y103.734 E.01837
G1 X114.568 Y103.278 E.01984
G1 X114.969 Y103.007 E.01746
;WIDTH:0.528265
G1 X115.236 Y102.936 E.0106
;WIDTH:0.55653
G1 X115.503 Y102.865 E.01122
;WIDTH:0.580538
G1 X115.622 Y102.853 E.00506
G1 X115.391 Y102.749 E.01073
;WIDTH:0.540269
G1 X115.161 Y102.645 E.00993
;WIDTH:0.499999
G1 X114.728 Y102.336 E.01922
G1 X114.402 Y101.915 E.0192
G1 X114.212 Y101.423 E.01908
G1 X114.163 Y101.012 E.01494
G1 X114.163 Y81.628 E.69985
G1 X114.215 Y81.091 E.01949
G1 X114.364 Y80.583 E.01911
G1 X114.609 Y80.104 E.01943
G1 X114.932 Y79.689 E.019
G1 X115.325 Y79.338 E.01903
G3 X116.743 Y78.795 I1.817 J2.624 E.05536
G1 X117.285 Y78.793 E.01953
G1 X117.727 Y78.868 E.0162
G1 X135.99 Y83.584 E.68105
G3 X138.875 Y87.26 I-1.013 J3.765 E.18094
G1 X138.877 Y101.012 E.49651
G1 X138.787 Y101.566 E.02028
G1 X138.58 Y102.004 E.01749
G1 X138.267 Y102.374 E.01748
G1 X137.87 Y102.649 E.01745
;WIDTH:0.542689
G1 X137.66 Y102.75 E.0092
;WIDTH:0.585378
G1 X137.45 Y102.851 E.00999
G1 X137.761 Y102.929 E.01376
;WIDTH:0.542689
