; HEADER_BLOCK_START
; generated by Creality_Print V5.1.6.10470 on 2024-12-10 at 16:37:39
; total layer number: 10
; filament_density: 1.24
; filament_diameter: 1.75
; max_z_height: 2.00
; HEADER_BLOCK_END

; MINX = 50.07
; MINY = 63.20
; MINZ = 0.00
; MAXX = 176.07
; MAXY = 156.80
; MAXZ = 2.00

; THUMBNAIL_BLOCK_START

;
; THUMBNAIL_BLOCK_END

; THUMBNAIL_BLOCK_START

;
; THUMBNAIL_BLOCK_END

; external perimeters extrusion width = 0.42mm
; perimeters extrusion width = 0.45mm
; infill extrusion width = 0.45mm
; solid infill extrusion width = 0.42mm
; top infill extrusion width = 0.42mm
; support material extrusion width = 0.42mm
; first layer extrusion width = 0.50mm

; EXECUTABLE_BLOCK_START
EXCLUDE_OBJECT_DEFINE NAME=Main_Support_4.stl_id_0_copy_0 CENTER=113.072,110 POLYGON=[[50.0723,66.2],[50.1107,65.8098],[50.2245,65.4346],[50.4093,65.0889],[50.6581,64.7858],[50.9611,64.5371],[51.3069,64.3522],[51.6821,64.2384],[52.0723,64.2],[74.3223,63.2],[83.2737,63.2],[84.1328,63.237],[84.9856,63.3476],[85.8257,63.5311],[86.6469,63.7861],[87.4432,64.1107],[88.2087,64.5025],[88.9377,64.9587],[89.6248,65.4757],[172.423,133.555],[173.079,134.145],[173.681,134.79],[174.223,135.486],[174.702,136.227],[175.114,137.007],[175.455,137.821],[175.724,138.662],[175.917,139.523],[176.033,140.397],[176.072,141.279],[176.072,154.8],[176.034,155.19],[175.92,155.565],[175.735,155.911],[175.486,156.214],[175.183,156.463],[174.838,156.648],[174.462,156.762],[174.072,156.8],[172.072,156.8],[171.682,156.762],[171.307,156.648],[170.961,156.463],[50.9611,68.8629],[50.6581,68.6142],[50.4093,68.3111],[50.2245,67.9654],[50.1107,67.5902],[50.0723,67.2],[50.0723,66.2]]
M73 P0 R3
M106 S0
M106 P2 S0
;TYPE:Custom
M140 S0
M104 S0 
START_PRINT EXTRUDER_TEMP=230 BED_TEMP=50
M141 S35;set chamber_temperature
G90
G21
M83 ; use relative distances for extrusion
; filament start gcode
M106 S0
;LAYER_CHANGE
;Z:0.2
;HEIGHT:0.2
;BEFORE_LAYER_CHANGE
;0.2
G92 E0

G1 E-.5 F2400
;AFTER_LAYER_CHANGE
;0.2
;_SET_FAN_SPEED_CHANGING_LAYER
SET_VELOCITY_LIMIT ACCEL=1000 ACCEL_TO_DECEL=1000
SET_VELOCITY_LIMIT SQUARE_CORNER_VELOCITY=20
; printing object Main Support 4.stl id:0 copy 0
EXCLUDE_OBJECT_START NAME=Main_Support_4.stl_id_0_copy_0
G1 X175.215 Y154.186 F30000
G1 Z.4
G1 Z.2
G1 E.5 F2400
;TYPE:Inner wall
;WIDTH:0.499999
G1 F3600
G1 X175.215 Y154.758 E.02066
G1 X175.124 Y155.236 E.01756
G1 X174.877 Y155.605 E.01605
G1 X174.508 Y155.852 E.01604
G1 X174.03 Y155.943 E.01756
G1 X172.114 Y155.943 E.06917
G1 X171.636 Y155.852 E.01756
G1 X171.267 Y155.605 E.01604
G1 X171.02 Y155.236 E.01605
G1 X170.929 Y154.758 E.01756
G2 X170.914 Y153.635 I-10.849 J-.418 E.04057
;WIDTH:0.470225
G1 X170.9 Y153.348 E.00972
;WIDTH:0.440451
G1 X170.881 Y153.075 E.00858
;WIDTH:0.403716
G1 X170.863 Y152.802 E.00779
;WIDTH:0.388776
G1 X170.874 Y152.266 E.01466
;WIDTH:0.425851
G1 X170.892 Y152.084 E.00553
;WIDTH:0.462925
G1 X170.911 Y151.902 E.00606
;WIDTH:0.499999
G1 X170.929 Y151.72 E.0066
G1 X170.929 Y141.485 E.36954
G1 X170.856 Y140.33 E.04181
G1 X170.687 Y139.287 E.03815
G2 X170.249 Y137.742 I-14.073 J3.16 E.05803
G2 X166.971 Y133.14 I-10.447 J3.974 E.20623
G1 X92.37 Y71.801 E3.48713
M73 P1 R3
G2 X86.007 Y69.364 I-6.878 J8.434 E.25022
G1 X85.493 Y69.343 E.01857
G1 X74.92 Y69.343 E.38175
G1 X74.855 Y69.059 E.01052
G1 X74.677 Y68.751 E.01281
G1 X74.521 Y68.595 E.00799
G1 X74.213 Y68.417 E.01282
G1 X73.845 Y68.343 E.01358
G1 X58.631 Y68.343 E.54933
G1 X58.89 Y68.144 E.0118
G1 X59.219 Y67.754 E.01842
G1 X59.435 Y67.292 E.01842
G1 X59.525 Y66.789 E.01843
G1 X59.482 Y66.281 E.01842
G1 X59.308 Y65.801 E.01843
G1 X59.016 Y65.383 E.01842
G1 X58.631 Y65.057 E.01822
G1 X73.917 Y65.057 E.55193
M73 P2 R3
G1 X74.398 Y64.902 E.01826
G1 X74.677 Y64.649 E.01361
G1 X74.855 Y64.341 E.01281
G1 X74.92 Y64.057 E.01052
G1 X83.298 Y64.059 E.30252
G3 X89.095 Y66.149 I-.03 J9.163 E.22691
G1 X170.958 Y133.459 E3.82659
M73 P3 R3
G3 X173.077 Y135.409 I-9.317 J12.251 E.1041
G3 X174.387 Y137.49 I-7.741 J6.328 E.08903
G3 X175.183 Y140.568 I-8.808 J3.919 E.1153
G1 X175.215 Y141.345 E.02809
G1 X175.215 Y151.478 E.36584
G1 X175.228 Y151.765 E.01039
;WIDTH:0.474286
G1 X175.241 Y152.052 E.0098
;WIDTH:0.448573
G1 X175.261 Y152.325 E.00876
;WIDTH:0.407778
G1 X175.282 Y152.598 E.00788
;WIDTH:0.391395
G1 X175.269 Y153.169 E.01571
;WIDTH:0.427597
G1 X175.251 Y153.339 E.00521
;WIDTH:0.463798
G1 X175.233 Y153.509 E.0057
;WIDTH:0.499999
G1 X175.215 Y153.68 E.00619
G1 X175.215 Y154.146 E.01682
G1 X174.398 Y154.117 F30000
G1 F3600
G1 X174.126 Y154.346 E.01282
G1 X173.664 Y154.563 E.01843
G1 X173.162 Y154.653 E.01842
G1 X172.653 Y154.609 E.01842
G1 X172.216 Y154.453 E.01677
G3 X171.336 Y153.599 I1.004 J-1.913 E.04489
G1 X171.297 Y153.436 E.00603
;WIDTH:0.462925
G1 X171.258 Y153.274 E.00554
;WIDTH:0.425851
G1 X171.218 Y153.112 E.00505
;WIDTH:0.388777
G1 X171.186 Y152.619 E.01349
;WIDTH:0.407773
G1 X171.209 Y152.369 E.00725
;WIDTH:0.448565
G1 X171.233 Y152.118 E.00806
;WIDTH:0.474282
G1 X171.33 Y151.882 E.00869
;WIDTH:0.499999
G1 X171.426 Y151.646 E.0092
G1 X171.755 Y151.256 E.01842
G1 X172.173 Y150.964 E.01843
G1 X172.653 Y150.791 E.01843
G1 X173.162 Y150.747 E.01842
G1 X173.664 Y150.837 E.01842
G1 X174.126 Y151.054 E.01843
G1 X174.516 Y151.383 E.01842
G1 X174.808 Y151.801 E.01842
G1 X174.86 Y151.96 E.00602
;WIDTH:0.474286
G1 X174.911 Y152.118 E.00568
;WIDTH:0.448573
G1 X174.935 Y152.369 E.00807
;WIDTH:0.407778
G1 X174.959 Y152.619 E.00725
;WIDTH:0.391395
G1 X174.924 Y153.139 E.01433
;WIDTH:0.427597
G1 X174.885 Y153.292 E.00481
;WIDTH:0.463798
G1 X174.847 Y153.445 E.00526
;WIDTH:0.499999
G1 X174.808 Y153.599 E.00571
G1 X174.516 Y154.017 E.01842
G1 X174.428 Y154.092 E.00416
G1 X174.347 Y153.487 F30000
;TYPE:Outer wall
G1 F3600
G1 X174.111 Y153.781 E.0136
G1 X173.754 Y154.031 E.01575
G1 X173.432 Y154.156 E.01248
G1 X173.042 Y154.2 E.01414
G1 X172.604 Y154.119 E.0161
G1 X172.391 Y154.031 E.00833
G1 X171.991 Y153.739 E.01788
G1 X171.759 Y153.424 E.01414
G1 X171.616 Y153.059 E.01414
G1 X171.573 Y152.67 E.01414
G1 X171.632 Y152.283 E.01414
G1 X171.789 Y151.924 E.01414
G1 X172.033 Y151.619 E.01414
G1 X172.348 Y151.386 E.01414
G1 X172.713 Y151.244 E.01414
G1 X173.102 Y151.2 E.01414
G1 X173.489 Y151.259 E.01414
G1 X173.848 Y151.416 E.01414
G1 X174.154 Y151.661 E.01414
G1 X174.386 Y151.976 E.01414
G1 X174.528 Y152.341 E.01414
G1 X174.572 Y152.73 E.01414
G1 X174.513 Y153.117 E.01414
G1 X174.366 Y153.452 E.01323
G1 E-.35 F2400
;WIPE_START
G1 F3600
G1 X174.111 Y153.781 E-.06239
G1 X173.754 Y154.031 E-.06544
G1 X173.616 Y154.085 E-.02217
;WIPE_END
G1 X167.427 Y149.617 Z.6 F30000
G1 X54.834 Y68.343 Z.6
G1 Z.2
G1 E.5 F2400
;TYPE:Inner wall
G1 F3600
G1 X53.631 Y68.343 E.04344
G1 X53.89 Y68.144 E.0118
M73 P4 R3
G1 X54.219 Y67.754 E.01842
G1 X54.435 Y67.292 E.01842
G1 X54.525 Y66.789 E.01843
G1 X54.482 Y66.281 E.01842
G1 X54.308 Y65.801 E.01843
G1 X54.016 Y65.383 E.01842
G1 X53.631 Y65.057 E.01822
G1 X56.514 Y65.057 E.10411
G1 X56.255 Y65.256 E.0118
G1 X55.926 Y65.646 E.01842
G1 X55.709 Y66.108 E.01842
G1 X55.62 Y66.611 E.01843
G1 X55.663 Y67.119 E.01842
G1 X55.836 Y67.599 E.01843
G1 X56.128 Y68.017 E.01842
G1 X56.514 Y68.343 E.01822
G1 X54.874 Y68.343 E.05922
G1 E-.35 F2400
;WIPE_START
G1 F3600
G1 X53.874 Y68.343 E-.15
;WIPE_END
G1 X58.863 Y67.46 Z.6 F30000
G1 Z.2
G1 E.5 F2400
;TYPE:Outer wall
G1 F3600
G1 X58.856 Y67.476 E.00062
G1 X58.612 Y67.781 E.01414
G1 X58.296 Y68.014 E.01414
;WIDTH:0.547385
G1 X58.117 Y68.108 E.00808
;WIDTH:0.59477
G1 X57.938 Y68.203 E.00884
G1 X57.538 Y68.236 E.0175
;WIDTH:0.572987
G1 X57.144 Y68.168 E.01673
;WIDTH:0.559747
G1 X56.97 Y68.076 E.00803
;WIDTH:0.529873
G1 X56.797 Y67.984 E.00756
;WIDTH:0.499999
G1 X56.491 Y67.739 E.01414
G1 X56.259 Y67.424 E.01414
G1 X56.116 Y67.059 E.01414
G1 X56.073 Y66.67 E.01414
G1 X56.157 Y66.223 E.01644
G1 X56.289 Y65.924 E.01178
G1 X56.533 Y65.619 E.01414
G1 X56.848 Y65.386 E.01414
;WIDTH:0.547382
G1 X57.028 Y65.292 E.00808
;WIDTH:0.594764
G1 X57.207 Y65.197 E.00884
G1 X57.607 Y65.164 E.0175
;WIDTH:0.572988
G1 X58.001 Y65.232 E.01673
;WIDTH:0.559732
G1 X58.174 Y65.324 E.00803
;WIDTH:0.529866
G1 X58.348 Y65.416 E.00756
;WIDTH:0.499999
G1 X58.654 Y65.661 E.01414
G1 X58.886 Y65.976 E.01414
G1 X59.028 Y66.341 E.01414
G1 X59.072 Y66.73 E.01414
G1 X59.013 Y67.117 E.01414
G1 X58.879 Y67.423 E.01207
G1 E-.35 F2400
;WIPE_START
G1 F3600
G1 X58.856 Y67.476 E-.00858
G1 X58.612 Y67.781 E-.05873
G1 X58.296 Y68.014 E-.05873
G1 X58.155 Y68.088 E-.02396
;WIPE_END
G1 X52.626 Y65.168 Z.6 F30000
G1 Z.2
G1 E.5 F2400
;WIDTH:0.572988
G1 F3600
G1 X53.001 Y65.232 E.01593
;WIDTH:0.559732
G1 X53.174 Y65.324 E.00803
;WIDTH:0.529866
G1 X53.348 Y65.416 E.00756
;WIDTH:0.499999
G1 X53.654 Y65.661 E.01414
G1 X53.886 Y65.976 E.01414
G1 X54.028 Y66.341 E.01414
G1 X54.072 Y66.73 E.01414
G1 X53.988 Y67.177 E.01643
G1 X53.856 Y67.476 E.01178
G1 X53.612 Y67.781 E.01414
G1 X53.296 Y68.014 E.01414
;WIDTH:0.547385
G1 X53.117 Y68.108 E.00808
;WIDTH:0.59477
G1 X52.938 Y68.203 E.00884
G1 X52.538 Y68.236 E.0175
;WIDTH:0.609912
G1 X52.134 Y68.191 E.01817
;WIDTH:0.658684
G1 X51.748 Y68.047 E.02005
;WIDTH:0.67099
G1 X51.423 Y67.791 E.02052
G1 X51.191 Y67.452 E.02039
;WIDTH:0.645793
G1 X51.13 Y67.259 E.00965
;WIDTH:0.620279
G1 X51.069 Y67.065 E.00924
;WIDTH:0.594764
G1 X51.037 Y66.665 E.0175
;WIDTH:0.609913
G1 X51.081 Y66.262 E.01817
;WIDTH:0.658688
G1 X51.226 Y65.876 E.02005
;WIDTH:0.670989
G1 X51.481 Y65.551 E.02052
G1 X51.82 Y65.319 E.02039
;WIDTH:0.645792
G1 X52.014 Y65.258 E.00965
;WIDTH:0.620278
G1 X52.207 Y65.197 E.00924
;WIDTH:0.594764
G1 X52.586 Y65.166 E.01659
G1 E-.35 F2400
;WIPE_START
G1 F3600
G1 X53.001 Y65.232 E-.06296
G1 X53.174 Y65.324 E-.0295
G1 X53.348 Y65.416 E-.0295
G1 X53.494 Y65.533 E-.02805
;WIPE_END
G1 X61.114 Y65.093 Z.6 F30000
G1 X74.349 Y64.33 Z.6
G1 Z.2
G1 E.5 F2400
;WIDTH:0.499999
G1 F3600
G1 X74.354 Y64.325 E.00025
G1 X74.464 Y64.032 E.01133
G1 X74.483 Y63.6 E.0156
G1 X83.308 Y63.602 E.31864
G3 X89.377 Y65.79 I-.034 J9.605 E.23757
M73 P5 R3
G1 X172.162 Y133.858 E3.86968
G3 X175.565 Y139.913 I-6.159 J7.445 E.25653
G3 X175.672 Y141.345 I-9.398 J1.422 E.05189
G1 X175.672 Y154.255 E.46611
M73 P6 R3
G1 X175.652 Y154.986 E.02642
G1 X175.549 Y155.412 E.0158
G1 X175.327 Y155.778 E.01546
G1 X174.96 Y156.129 E.01833
G1 X174.57 Y156.311 E.01556
G1 X174.053 Y156.4 E.01894
G3 X171.879 Y156.379 I-.743 J-35.596 E.0785
G1 X171.461 Y156.276 E.01555
G1 X171.093 Y156.053 E.01554
G1 X170.744 Y155.688 E.01825
G1 X170.563 Y155.302 E.01539
G1 X170.472 Y154.78 E.01911
G1 X170.472 Y141.499 E.47953
G1 X170.403 Y140.39 E.04012
G2 X169.827 Y137.919 I-11.108 J1.286 E.09183
G2 X168.544 Y135.491 I-10.873 J4.197 E.09937
G2 X166.68 Y133.493 I-9.44 J6.936 E.09887
G1 X92.087 Y72.161 E3.48674
M73 P7 R3
G2 X88.134 Y70.142 I-6.796 J8.427 E.16144
G1 X86.941 Y69.911 E.04386
G2 X85.496 Y69.8 I-1.374 J8.46 E.05241
G1 X74.483 Y69.8 E.39762
G1 X74.464 Y69.368 E.0156
G1 X74.354 Y69.075 E.01133
G1 X74.157 Y68.886 E.00986
G1 X73.845 Y68.8 E.01168
G1 X58.625 Y68.8 E.54953
;WIDTH:0.533297
G1 X58.373 Y68.783 E.0098
;WIDTH:0.566594
G1 X58.12 Y68.767 E.01046
;WIDTH:0.572987
G2 X57.098 Y68.782 I-.361 J10.199 E.04285
;WIDTH:0.536493
G1 X56.692 Y68.8 E.01583
;WIDTH:0.499999
G1 X53.625 Y68.8 E.11073
;WIDTH:0.533297
G1 X53.373 Y68.783 E.0098
;WIDTH:0.566594
G1 X53.12 Y68.767 E.01046
;WIDTH:0.572986
G1 X52.503 Y68.764 E.02584
;WIDTH:0.609912
G1 X51.998 Y68.736 E.02265
;WIDTH:0.655391
G1 X51.491 Y68.604 E.02536
;WIDTH:0.670991
G1 X51.091 Y68.341 E.02375
;WIDTH:0.673475
G1 X50.836 Y68.063 E.01878
G1 X50.624 Y67.655 E.02292
;WIDTH:0.645793
G1 X50.523 Y67.164 E.02386
;WIDTH:0.60066
G1 X50.509 Y66.631 E.02351
;WIDTH:0.609913
G1 X50.537 Y66.126 E.02266
;WIDTH:0.655395
G1 X50.668 Y65.618 E.02536
;WIDTH:0.670991
G1 X50.931 Y65.218 E.02375
;WIDTH:0.673474
G1 X51.209 Y64.963 E.01878
G1 X51.618 Y64.752 E.02292
;WIDTH:0.645792
G1 X52.108 Y64.65 E.02386
;WIDTH:0.60066
G1 X52.641 Y64.636 E.02351
;WIDTH:0.572988
G1 X53.047 Y64.618 E.017
;WIDTH:0.536494
G1 X53.453 Y64.6 E.01583
;WIDTH:0.499999
G1 X56.52 Y64.6 E.11073
;WIDTH:0.533291
G1 X56.772 Y64.617 E.00979
;WIDTH:0.566583
G1 X57.024 Y64.633 E.01046
;WIDTH:0.572988
G2 X58.047 Y64.618 I.362 J-10.198 E.04285
;WIDTH:0.536494
G1 X58.453 Y64.6 E.01583
;WIDTH:0.499999
G1 X73.845 Y64.6 E.55575
G1 X74.095 Y64.541 E.00929
G1 X74.318 Y64.355 E.01048
G1 E-.35 F2400
;WIPE_START
G1 F3600
G1 X74.354 Y64.325 E-.00703
G1 X74.464 Y64.032 E-.04705
G1 X74.483 Y63.6 E-.06481
G1 X74.69 Y63.6 E-.03111
;WIPE_END
G1 X67.083 Y64.214 Z.6 F30000
G1 X55.213 Y65.171 Z.6
G1 Z.2
G1 E.5 F2400
;TYPE:Bottom surface
;WIDTH:0.51524
G1 F6300
G1 X55.606 Y65.564 E.02072
G2 X55.402 Y66.028 I2.836 J1.528 E.01892
G1 X54.751 Y65.377 E.03432
G1 X54.415 Y65.377 E.01253
G3 X54.746 Y66.04 I-1.348 J1.087 E.02786
G1 X55.301 Y66.595 E.02929
G2 X55.398 Y67.36 I2.714 J.044 E.02887
G1 X54.845 Y66.806 E.02922
M73 P8 R3
G3 X54.743 Y67.373 I-2.163 J-.097 E.02153
G1 X55.393 Y68.023 E.03432
G1 X54.725 Y68.023 E.02492
G1 X54.388 Y67.685 E.01781
G1 E-.35 F2400
;WIPE_START
G1 F6300
G1 X54.725 Y68.023 E-.0716
G1 X55.248 Y68.023 E-.0784
;WIPE_END
G1 X55.751 Y68.114 Z.6 F30000
G1 Z.2
G1 E.5 F2400
;TYPE:Gap infill
;WIDTH:0.197824
G1 F3600
G1 X55.735 Y67.994 E.00149
;WIDTH:0.160655
G2 X55.699 Y67.919 I-.149 J.027 E.00078
;WIDTH:0.164666
G1 X55.625 Y67.824 E.00116
;WIDTH:0.197587
G1 X55.546 Y67.719 E.00161
;WIDTH:0.215476
G1 X55.463 Y67.596 E.00203
G1 E-.40078 F2400
;WIPE_START
G1 F3600
G1 X55.546 Y67.719 E-.09922
;WIPE_END
G1 X62.144 Y71.555 Z.6 F30000
G1 X173.641 Y136.375 Z.6
G1 Z.2
G1 E.5 F2400
;TYPE:Bottom surface
;WIDTH:0.503441
G1 F6300
G1 X172.232 Y134.965 E.07249
G1 X171.656 Y134.447 E.02819
G1 X168.319 Y131.704 E.15713
G1 X173.963 Y137.347 E.29032
G1 X174.049 Y137.511 E.00672
G1 X174.35 Y138.229 E.02832
G1 X174.424 Y138.46 E.00883
G1 X164.656 Y128.692 E.50251
G1 X160.993 Y125.68 E.17253
G1 X174.674 Y139.362 E.70388
G3 X174.813 Y140.152 I-4.396 J1.179 E.02922
M73 P9 R3
G1 X157.329 Y122.668 E.89949
G1 X153.666 Y119.655 E.17253
G1 X165.652 Y131.642 E.61664
G1 X167.175 Y132.894 E.07175
G3 X169.4 Y135.39 I-6.891 J8.382 E.1221
G1 X174.876 Y140.866 E.28171
G3 X174.895 Y141.536 I-7.589 J.555 E.02442
G1 X170.231 Y136.872 E.23997
G1 X170.553 Y137.64 E.0303
G1 X170.649 Y137.941 E.01149
G1 X174.895 Y142.188 E.21847
G1 X174.895 Y142.839 E.02369
G1 X170.92 Y138.864 E.20449
G3 X171.09 Y139.685 I-4.753 J1.412 E.03054
G1 X174.895 Y143.49 E.19575
G1 X174.895 Y144.141 E.02369
G1 X171.194 Y140.44 E.19044
G1 X171.231 Y141.128 E.02509
G1 X174.895 Y144.793 E.18851
G1 X174.895 Y145.444 E.02369
G1 X171.249 Y141.798 E.18757
G1 X171.249 Y142.449 E.02369
G1 X174.895 Y146.095 E.18757
G1 X174.895 Y146.746 E.02369
G1 X171.249 Y143.101 E.18757
G1 X171.249 Y143.752 E.02369
G1 X174.895 Y147.398 E.18757
G1 X174.895 Y148.049 E.02369
G1 X171.249 Y144.403 E.18757
M73 P10 R3
G1 X171.249 Y145.054 E.02369
G1 X174.895 Y148.7 E.18757
G1 X174.895 Y149.352 E.02369
G1 X171.249 Y145.706 E.18757
G1 X171.249 Y146.357 E.02369
G1 X174.895 Y150.003 E.18757
G1 X174.895 Y150.654 E.02369
G1 X171.249 Y147.008 E.18757
G1 X171.249 Y147.659 E.02369
G1 X174.853 Y151.263 E.1854
G1 X174.833 Y151.27 E.00076
G2 X173.396 Y150.458 I-1.731 J1.386 E.06152
G1 X171.249 Y148.311 E.11046
G1 X171.249 Y148.962 E.02369
G1 X172.745 Y150.458 E.07697
G2 X172.23 Y150.594 I.199 J1.795 E.01945
G1 X171.249 Y149.613 E.05047
G1 X171.249 Y150.265 E.02369
G1 X171.802 Y150.817 E.02841
G2 X171.447 Y151.114 I.951 J1.494 E.01687
G1 X171.044 Y150.71 E.02077
G1 E-.35 F2400
;WIPE_START
G1 F6300
G1 X171.447 Y151.114 E-.08563
G1 X171.555 Y151.006 E-.0229
G1 X171.775 Y150.838 E-.04147
;WIPE_END
G1 X168.939 Y143.751 Z.6 F30000
G1 X163.486 Y130.127 Z.6
G1 Z.2
G1 E.5 F2400
G1 F6300
G1 X150.002 Y116.643 E.6937
G1 X146.339 Y113.631 E.17253
G1 X158.325 Y125.617 E.61664
G1 X154.662 Y122.605 E.17253
M73 P11 R3
G1 X142.675 Y110.619 E.61665
G1 X139.012 Y107.607 E.17253
G1 X150.998 Y119.593 E.61665
G1 X147.335 Y116.581 E.17253
G1 X135.349 Y104.595 E.61665
G1 X131.685 Y101.583 E.17253
G1 X143.671 Y113.569 E.61665
G1 X140.008 Y110.557 E.17253
G1 X128.022 Y98.57 E.61665
