; HEADER_BLOCK_START
; generated by Creality_Print V5.1.6.10470 on 2024-12-10 at 16:11:29
; total layer number: 38
; filament_density: 1.24
; filament_diameter: 1.75
; max_z_height: 7.00
; HEADER_BLOCK_END

; MINX = 77.80
; MINY = 78.76
; MINZ = 0.00
; MAXX = 140.08
; MAXY = 141.24
; MAXZ = 7.00

; THUMBNAIL_BLOCK_START

;
; THUMBNAIL_BLOCK_END

; THUMBNAIL_BLOCK_START

;
; THUMBNAIL_BLOCK_END

; external perimeters extrusion width = 0.42mm
; perimeters extrusion width = 0.45mm
; infill extrusion width = 0.45mm
; solid infill extrusion width = 0.42mm
; top infill extrusion width = 0.42mm
; support material extrusion width = 0.42mm
; first layer extrusion width = 0.50mm

; EXECUTABLE_BLOCK_START
EXCLUDE_OBJECT_DEFINE NAME=Main_Gear.stl_id_0_copy_0 CENTER=108.939,110 POLYGON=[[77.8005,107.366],[77.9333,106.102],[79.0287,100.949],[79.4212,99.7411],[81.564,94.9283],[82.1992,93.8282],[85.2958,89.566],[86.1459,88.622],[90.061,85.0968],[91.0887,84.3501],[95.6512,81.7159],[96.8117,81.1993],[101.822,79.5713],[103.065,79.3071],[108.304,78.7565],[109.574,78.7565],[114.814,79.3071],[116.057,79.5713],[121.067,81.1993],[122.227,81.7159],[126.79,84.3501],[127.818,85.0968],[131.733,88.622],[132.583,89.566],[135.679,93.8282],[136.315,94.9283],[138.457,99.7411],[138.85,100.949],[139.945,106.102],[140.078,107.366],[140.078,112.634],[139.945,113.898],[138.85,119.051],[138.457,120.259],[136.315,125.072],[135.679,126.172],[132.583,130.434],[131.733,131.378],[127.818,134.903],[126.79,135.65],[122.227,138.284],[121.067,138.801],[116.057,140.429],[114.814,140.693],[109.574,141.244],[108.304,141.244],[103.065,140.693],[101.822,140.429],[96.8117,138.801],[95.6512,138.284],[91.0887,135.65],[90.061,134.903],[86.1459,131.378],[85.2958,130.434],[82.1992,126.172],[81.564,125.072],[79.4212,120.259],[79.0287,119.051],[77.9333,113.898],[77.8005,112.634],[77.8005,107.366]]
M73 P0 R12
M106 S0
M106 P2 S0
;TYPE:Custom
M140 S0
M104 S0 
START_PRINT EXTRUDER_TEMP=230 BED_TEMP=50
M141 S35;set chamber_temperature
G90
G21
M83 ; use relative distances for extrusion
; filament start gcode
M106 S0
;LAYER_CHANGE
;Z:0.2
;HEIGHT:0.2
;BEFORE_LAYER_CHANGE
;0.2
G92 E0

G1 E-.5 F2400
;AFTER_LAYER_CHANGE
;0.2
;_SET_FAN_SPEED_CHANGING_LAYER
SET_VELOCITY_LIMIT ACCEL=1000 ACCEL_TO_DECEL=1000
SET_VELOCITY_LIMIT SQUARE_CORNER_VELOCITY=20
; printing object Main Gear.stl id:0 copy 0
EXCLUDE_OBJECT_START NAME=Main_Gear.stl_id_0_copy_0
G1 X92.363 Y92.66 F30000
G1 Z.4
G1 Z.2
G1 E.5 F2400
;TYPE:Support
;WIDTH:0.5
G1 F3600
G1 X93.534 Y91.964 E.0492
G1 X94.574 Y92.058 E.03769
G3 X95.885 Y94.328 I-1.46 J2.357 E.09858
G3 X94.665 Y95.664 I-1.689 J-.318 E.06878
G2 X92.783 Y95.73 I-.68 J7.449 E.06815
G3 X92.338 Y92.691 I1.217 J-1.73 E.12411
G1 X92.751 Y92.937 F30000
G1 F3600
G3 X94.432 Y92.504 I1.151 J.99 E.06672
G3 X95.428 Y94.227 I-1.376 J1.944 E.0741
G3 X94.024 Y95.079 I-.957 J.005 E.07125
G3 X93.003 Y95.303 I-1.119 J-2.654 E.03796
G3 X92.711 Y93.118 I.748 J-1.212 E.09106
G1 X92.742 Y92.976 E.00524
G1 X93.153 Y93.234 F30000
G1 F3600
G3 X94.291 Y92.95 I.772 J.675 E.04507
G3 X94.971 Y94.126 I-1.497 J1.65 E.0498
G3 X94.083 Y94.614 I-.534 J.08 E.04746
G2 X93.196 Y94.85 I.401 J3.292 E.03324
G3 X93.139 Y93.295 I.496 J-.796 E.06624
G1 X93.144 Y93.273 E.00082
G1 X93.514 Y93.546 F30000
G1 F3600
G3 X94.143 Y93.396 I.527 J.817 E.02383
G1 X94.693 Y94.348 E.03968
G2 X93.075 Y94.25 I-.913 J1.67 E.06046
G3 X93.483 Y93.566 I.965 J.112 E.02963
G1 E-.35 F2400
;WIPE_START
G1 F3600
G1 X93.839 Y93.369 E-.06113
G1 X94.143 Y93.396 E-.04576
G1 X94.287 Y93.645 E-.04311
;WIPE_END
G1 X96.461 Y100.961 Z.6 F30000
G1 X107.289 Y137.399 Z.6
G1 Z.2
G1 E.5 F2400
;TYPE:Inner wall
;WIDTH:0.499999
G1 F3600
G1 X107.028 Y137.327 E.00976
G3 X105.127 Y137.127 I1.998 J-28.157 E.06903
G1 X104.722 Y137.138 E.01462
G1 X104.249 Y137.32 E.01832
G1 X103.884 Y137.653 E.01782
G2 X103.433 Y138.779 I8.439 J4.035 E.04382
G1 X102.966 Y139.796 E.0404
G1 X102.277 Y139.649 E.02543
G3 X102.336 Y137.764 I9.924 J-.634 E.06819
G1 X102.31 Y137.318 E.01614
G1 X102.112 Y136.866 E.01782
G1 X101.83 Y136.562 E.01498
G1 X101.389 Y136.332 E.01797
G3 X99.57 Y135.741 I7.805 J-27.115 E.06903
G1 X99.172 Y135.668 E.01463
G1 X98.671 Y135.748 E.01832
G1 X98.245 Y135.998 E.01782
G2 X97.57 Y137.005 I7.417 J5.702 E.04382
G1 X96.902 Y137.903 E.0404
G1 X96.258 Y137.616 E.02543
G3 X96.708 Y135.785 I9.838 J1.443 E.06819
G1 X96.775 Y135.343 E.01614
G1 X96.676 Y134.86 E.01782
G1 X96.462 Y134.504 E.01498
G1 X96.079 Y134.187 E.01797
G3 X94.423 Y133.231 I13.273 J-24.902 E.06903
G1 X94.049 Y133.076 E.01463
G1 X93.542 Y133.051 E.01832
G1 X93.074 Y133.206 E.01782
G2 X92.204 Y134.051 I6.068 J7.119 E.04382
G1 X91.364 Y134.79 E.0404
G1 X90.794 Y134.376 E.02543
G3 X91.614 Y132.678 I9.323 J3.457 E.06819
G1 X91.772 Y132.26 E.01614
G1 X91.775 Y131.767 E.01782
G1 X91.64 Y131.374 E.01498
G1 X91.331 Y130.984 E.01797
G3 X89.91 Y129.705 I18.171 J-21.61 E.06903
G1 X89.576 Y129.476 E.01462
G1 X89.086 Y129.346 E.01832
G1 X88.596 Y129.4 E.01782
G2 X87.569 Y130.046 I4.455 J8.224 E.04382
G1 X86.593 Y130.594 E.0404
G1 X86.122 Y130.071 E.02543
G3 X87.277 Y128.58 I8.4 J5.319 E.06819
G1 X87.519 Y128.204 E.01614
G1 X87.624 Y127.722 E.01782
G1 X87.574 Y127.311 E.01498
G1 X87.353 Y126.865 E.01797
G3 X86.229 Y125.318 I22.27 J-17.362 E.06904
G1 X85.95 Y125.025 E.01462
G1 X85.498 Y124.795 E.01832
G1 X85.007 Y124.747 E.01782
G2 X83.868 Y125.165 I2.648 J8.972 E.04382
G1 X82.8 Y125.498 E.0404
G1 X82.448 Y124.888 E.02543
G3 X83.888 Y123.671 I7.111 J6.95 E.06819
G1 X84.202 Y123.353 E.01614
G1 X84.406 Y122.903 E.01782
G1 X84.442 Y122.49 E.01497
G1 X84.318 Y122.008 E.01797
G3 X83.541 Y120.262 I25.392 J-12.352 E.06904
G1 X83.329 Y119.917 E.01463
G1 X82.934 Y119.598 E.01832
G1 X82.464 Y119.449 E.01782
G2 X81.263 Y119.621 I.725 J9.324 E.04382
G1 X80.149 Y119.725 E.0404
G1 X79.931 Y119.055 E.02543
G3 X81.593 Y118.163 I5.511 J8.277 E.06819
G1 X81.966 Y117.918 E.01614
G1 X82.259 Y117.521 E.01782
G1 X82.381 Y117.124 E.01497
G1 X82.36 Y116.627 E.01797
G3 X81.962 Y114.757 I27.389 J-6.799 E.06904
G1 X81.827 Y114.375 E.01462
G1 X81.507 Y113.982 E.01832
G1 X81.078 Y113.737 E.01782
G2 X79.868 Y113.656 I-1.23 J9.272 E.04382
G1 X78.756 Y113.527 E.04041
G1 X78.683 Y112.826 E.02543
G3 X80.493 Y112.299 I3.669 J9.241 E.06819
G1 X80.91 Y112.137 E.01614
G1 X81.278 Y111.809 E.01782
G1 X81.48 Y111.447 E.01497
G1 X81.563 Y110.956 E.01797
G3 X81.561 Y109.16 I26.501 J-.927 E.06487
G1 X81.509 Y108.643 E.01876
G1 X81.278 Y108.191 E.01832
G1 X80.91 Y107.863 E.01782
G2 X79.743 Y107.532 I-3.131 J8.814 E.04382
G1 X78.683 Y107.174 E.0404
G1 X78.756 Y106.473 E.02543
G3 X80.637 Y106.335 I1.668 J9.803 E.06819
G1 X81.078 Y106.263 E.01614
G1 X81.507 Y106.018 E.01782
G1 X81.779 Y105.706 E.01498
G1 X81.962 Y105.243 E.01797
G3 X82.349 Y103.422 I27.066 J4.789 E.06723
G1 X82.391 Y102.969 E.01641
G1 X82.259 Y102.479 E.01832
G1 X81.966 Y102.082 E.01782
G2 X80.894 Y101.516 I-4.895 J7.971 E.04382
G1 X79.931 Y100.945 E.0404
G1 X80.149 Y100.276 E.02541
G3 X82.017 Y100.53 I-.394 J9.869 E.06819
G1 X82.464 Y100.551 E.01614
G1 X82.934 Y100.402 E.01782
G1 X83.266 Y100.153 E.01498
G1 X83.541 Y99.738 E.01797
G3 X84.318 Y97.992 I26.168 J10.604 E.06903
G1 X84.432 Y97.608 E.01444
G1 X84.406 Y97.097 E.0185
G1 X84.202 Y96.647 E.01782
G2 X83.271 Y95.87 I-6.446 J6.779 E.04382
G1 X82.448 Y95.112 E.0404
G1 X82.8 Y94.502 E.02543
G3 X84.574 Y95.14 I-2.463 J9.634 E.06819
G1 X85.007 Y95.253 E.01614
G1 X85.498 Y95.205 E.01782
G1 X85.873 Y95.031 E.01494
G1 X86.229 Y94.682 E.01801
G3 X87.345 Y93.146 I23.226 J15.698 E.06854
G1 X87.548 Y92.773 E.01534
G1 X87.624 Y92.276 E.01817
G1 X87.519 Y91.796 E.01774
G2 X86.769 Y90.842 I-7.711 J5.288 E.04382
G1 X86.122 Y89.929 E.0404
G1 X86.593 Y89.406 E.02541
G3 X88.196 Y90.399 I-4.375 J8.856 E.06819
G1 X88.596 Y90.6 E.01615
G1 X89.084 Y90.655 E.01773
G1 X89.543 Y90.54 E.0171
G1 X89.91 Y90.295 E.01594
G3 X91.331 Y89.016 I19.586 J20.324 E.06904
G1 X91.622 Y88.661 E.01658
G1 X91.78 Y88.206 E.01736
G1 X91.772 Y87.74 E.01684
G2 X91.237 Y86.651 I-8.648 J3.573 E.04382
G1 X90.794 Y85.624 E.0404
G1 X91.364 Y85.21 E.02543
G3 X92.725 Y86.515 I-6.168 J7.798 E.06819
G1 X93.074 Y86.794 E.01614
G1 X93.515 Y86.946 E.01684
G1 X94.043 Y86.925 E.01909
G1 X94.423 Y86.769 E.01484
G3 X96.079 Y85.813 I14.933 J23.954 E.06903
G1 X96.4 Y85.567 E.01461
G1 X96.676 Y85.14 E.01833
G1 X96.775 Y84.657 E.01782
G2 X96.478 Y83.481 I-9.199 J1.696 E.04382
G1 X96.258 Y82.384 E.0404
G1 X96.902 Y82.097 E.02543
G3 X97.962 Y83.657 I-7.655 J6.346 E.06819
G1 X98.245 Y84.002 E.01614
G1 X98.671 Y84.252 E.01782
G1 X99.108 Y84.333 E.01603
G1 X99.57 Y84.259 E.01693
G3 X101.389 Y83.668 I9.627 J26.536 E.06903
G1 X101.754 Y83.493 E.01462
G1 X102.112 Y83.134 E.01832
G1 X102.31 Y82.682 E.01782
G2 X102.264 Y81.47 I-9.351 J-.254 E.04382
G1 X102.277 Y80.351 E.0404
G1 X102.966 Y80.204 E.02543
G3 X103.679 Y81.95 I-8.807 J4.616 E.06819
G1 X103.884 Y82.347 E.01614
G1 X104.249 Y82.68 E.01782
G1 X104.63 Y82.842 E.01498
G1 X105.127 Y82.873 E.01797
G3 X107.028 Y82.673 I3.9 J27.958 E.06903
G1 X107.422 Y82.578 E.01462
G1 X107.847 Y82.301 E.01832
G1 X108.135 Y81.9 E.01782
G2 X108.342 Y80.705 I-9.092 J-2.192 E.04382
G1 X108.587 Y79.614 E.0404
G1 X109.292 Y79.614 E.02544
G3 X109.626 Y81.469 I-9.573 J2.683 E.06817
G1 X109.744 Y81.9 E.01614
G1 X110.032 Y82.301 E.01782
G1 X110.371 Y82.54 E.01498
G1 X110.85 Y82.673 E.01797
G3 X112.752 Y82.873 I-1.998 J28.157 E.06903
G1 X113.156 Y82.862 E.01462
G1 X113.63 Y82.68 E.01832
G1 X113.994 Y82.347 E.01782
G2 X114.446 Y81.221 I-8.439 J-4.035 E.04382
G1 X114.913 Y80.204 E.0404
G1 X115.602 Y80.351 E.02543
G3 X115.543 Y82.236 I-9.924 J.634 E.06819
G1 X115.569 Y82.682 E.01614
G1 X115.767 Y83.134 E.01782
G1 X116.049 Y83.437 E.01498
G1 X116.49 Y83.668 E.01797
G3 X118.308 Y84.259 I-7.808 J27.125 E.06903
G1 X118.707 Y84.332 E.01462
G1 X119.208 Y84.252 E.01832
G1 X119.633 Y84.002 E.01782
G2 X120.309 Y82.995 I-7.416 J-5.701 E.04382
G1 X120.977 Y82.097 E.0404
G1 X121.62 Y82.384 E.02543
G3 X121.171 Y84.215 I-9.837 J-1.442 E.06819
G1 X121.104 Y84.657 E.01614
G1 X121.203 Y85.14 E.01782
G1 X121.416 Y85.496 E.01498
G1 X121.8 Y85.813 E.01797
G3 X123.455 Y86.769 I-13.279 J24.912 E.06903
G1 X123.83 Y86.924 E.01462
G1 X124.337 Y86.949 E.01832
G1 X124.805 Y86.794 E.01782
G2 X125.675 Y85.949 I-6.068 J-7.119 E.04382
G1 X126.515 Y85.21 E.0404
G1 X127.085 Y85.624 E.02543
G3 X126.265 Y87.322 I-9.324 J-3.457 E.06819
G1 X126.107 Y87.74 E.01614
G1 X126.104 Y88.233 E.01782
G1 X126.238 Y88.626 E.01498
G1 X126.548 Y89.016 E.01797
G3 X127.968 Y90.295 I-18.171 J21.61 E.06903
G1 X128.302 Y90.524 E.01462
G1 X128.793 Y90.654 E.01832
G1 X129.283 Y90.6 E.01782
G2 X130.31 Y89.954 I-4.455 J-8.224 E.04382
G1 X131.285 Y89.406 E.0404
G1 X131.757 Y89.929 E.02543
G3 X130.601 Y91.42 I-8.401 J-5.319 E.06819
G1 X130.36 Y91.796 E.01614
G1 X130.254 Y92.278 E.01782
G1 X130.304 Y92.689 E.01498
G1 X130.526 Y93.135 E.01797
G3 X131.649 Y94.682 I-22.275 J17.365 E.06903
G1 X131.929 Y94.975 E.01463
G1 X132.381 Y95.205 E.01832
G1 X132.872 Y95.253 E.01782
G2 X134.011 Y94.835 I-2.65 J-8.977 E.04382
G1 X135.079 Y94.502 E.0404
G1 X135.431 Y95.112 E.02543
G3 X133.991 Y96.329 I-7.11 J-6.948 E.06818
G1 X133.677 Y96.647 E.01614
G1 X133.473 Y97.097 E.01782
G1 X133.436 Y97.51 E.01497
G1 X133.56 Y97.992 E.01797
G3 X134.338 Y99.738 I-25.304 J12.313 E.06903
M73 P1 R12
G1 X134.55 Y100.083 E.01462
G1 X134.945 Y100.402 E.01833
G1 X135.415 Y100.551 E.01782
G2 X136.616 Y100.379 I-.725 J-9.324 E.04382
G1 X137.73 Y100.275 E.0404
G1 X137.947 Y100.945 E.02543
G3 X136.286 Y101.837 I-5.509 J-8.272 E.06819
G1 X135.912 Y102.082 E.01614
G1 X135.62 Y102.479 E.01782
G1 X135.498 Y102.876 E.01498
G1 X135.519 Y103.373 E.01797
G3 X135.916 Y105.243 I-27.393 J6.799 E.06903
G1 X136.052 Y105.625 E.01462
G1 X136.372 Y106.019 E.01833
G1 X136.801 Y106.263 E.01781
G2 X138.011 Y106.344 I1.23 J-9.271 E.04382
G1 X139.123 Y106.473 E.0404
G1 X139.196 Y107.174 E.02543
G3 X137.385 Y107.701 I-3.669 J-9.238 E.06819
G1 X136.969 Y107.863 E.01614
G1 X136.6 Y108.191 E.01781
G1 X136.399 Y108.553 E.01498
G1 X136.316 Y109.044 E.01797
G3 X136.316 Y110.956 I-28.214 J.956 E.06903
G1 X136.369 Y111.357 E.01462
G1 X136.6 Y111.809 E.01833
G1 X136.969 Y112.137 E.01781
G2 X138.136 Y112.468 I3.131 J-8.815 E.04382
G1 X139.196 Y112.826 E.04041
G1 X139.123 Y113.527 E.02543
G3 X137.242 Y113.665 I-1.668 J-9.802 E.06818
G1 X136.801 Y113.737 E.01614
G1 X136.372 Y113.981 E.01781
G1 X136.099 Y114.294 E.01498
G1 X135.916 Y114.757 E.01797
G3 X135.519 Y116.627 I-27.788 J-4.929 E.06903
G1 X135.488 Y117.03 E.01462
G1 X135.62 Y117.521 E.01833
G1 X135.912 Y117.918 E.01782
G2 X136.985 Y118.484 I4.897 J-7.976 E.04382
G1 X137.947 Y119.055 E.04041
G1 X137.73 Y119.724 E.02541
G3 X135.861 Y119.47 I.394 J-9.869 E.06819
G1 X135.415 Y119.449 E.01613
G1 X134.945 Y119.598 E.01782
G1 X134.613 Y119.847 E.01498
G1 X134.338 Y120.262 E.01797
G3 X133.56 Y122.008 I-26.085 J-10.568 E.06903
G1 X133.446 Y122.397 E.01463
G1 X133.473 Y122.903 E.01832
G1 X133.677 Y123.353 E.01782
G2 X134.608 Y124.13 I6.443 J-6.776 E.04382
G1 X135.431 Y124.888 E.0404
G1 X135.079 Y125.498 E.02543
G3 X133.304 Y124.86 I2.463 J-9.632 E.06819
G1 X132.872 Y124.747 E.01614
G1 X132.381 Y124.795 E.01782
G1 X132.005 Y124.97 E.01497
G1 X131.649 Y125.318 E.01797
G3 X130.526 Y126.865 I-23.398 J-15.818 E.06903
G1 X130.333 Y127.221 E.01462
G1 X130.254 Y127.722 E.01832
G1 X130.36 Y128.204 E.01782
G2 X131.109 Y129.158 I7.714 J-5.291 E.04382
G1 X131.757 Y130.071 E.0404
G1 X131.285 Y130.594 E.02543
G3 X129.682 Y129.601 I4.412 J-8.911 E.06819
G1 X129.283 Y129.4 E.01614
G1 X128.793 Y129.346 E.01782
G1 X128.388 Y129.438 E.01498
G1 X127.968 Y129.705 E.01797
G3 X126.548 Y130.984 I-19.596 J-20.335 E.06903
G1 X126.285 Y131.293 E.01462
G1 X126.104 Y131.767 E.01832
G1 X126.107 Y132.26 E.01782
G2 X126.642 Y133.349 I8.647 J-3.572 E.04382
G1 X127.085 Y134.376 E.0404
G1 X126.515 Y134.79 E.02543
G3 X125.154 Y133.485 I6.168 J-7.798 E.06819
G1 X124.805 Y133.206 E.01613
G1 X124.337 Y133.051 E.01782
G1 X123.922 Y133.057 E.01498
G1 X123.455 Y133.231 E.01797
G3 X121.8 Y134.187 I-14.931 J-23.949 E.06903
G1 X121.479 Y134.434 E.01462
G1 X121.203 Y134.86 E.01832
G1 X121.104 Y135.343 E.01782
G2 X121.4 Y136.519 I9.198 J-1.695 E.04382
G1 X121.62 Y137.616 E.0404
G1 X120.977 Y137.903 E.02543
G3 X119.917 Y136.343 I7.656 J-6.346 E.06819
G1 X119.633 Y135.998 E.01614
G1 X119.208 Y135.748 E.01782
G1 X118.801 Y135.668 E.01498
G1 X118.308 Y135.741 E.01797
G3 X116.49 Y136.332 I-9.622 J-26.52 E.06903
G1 X116.125 Y136.507 E.01462
G1 X115.767 Y136.866 E.01832
G1 X115.569 Y137.318 E.01782
G2 X115.614 Y138.53 I9.351 J.254 E.04382
G1 X115.602 Y139.649 E.0404
G1 X114.913 Y139.796 E.02543
G3 X114.2 Y138.05 I8.808 J-4.616 E.06819
G1 X113.994 Y137.653 E.01614
G1 X113.63 Y137.32 E.01782
G1 X113.248 Y137.158 E.01498
G1 X112.752 Y137.127 E.01797
G3 X110.85 Y137.327 I-3.9 J-27.959 E.06903
G1 X110.457 Y137.421 E.01462
G1 X110.032 Y137.699 E.01832
G1 X109.744 Y138.1 E.01782
G2 X109.537 Y139.295 I9.092 J2.192 E.04382
G1 X109.292 Y140.386 E.04041
G1 X108.587 Y140.386 E.02543
G3 X108.253 Y138.531 I9.574 J-2.683 E.06819
G1 X108.135 Y138.1 E.01614
G1 X107.847 Y137.699 E.01782
G1 X107.508 Y137.46 E.01498
G1 X107.327 Y137.41 E.00677
G1 X107.553 Y138.059 F30000
;TYPE:Outer wall
G1 F3600
G1 X107.313 Y137.876 E.01088
G1 X106.988 Y137.782 E.01222
G2 X104.813 Y137.588 I-6.976 J65.844 E.07884
G1 X104.514 Y137.697 E.01151
G1 X104.271 Y137.904 E.01151
G2 X103.854 Y138.957 I7.937 J3.757 E.04091
G3 X103.24 Y140.237 I-7.903 J-3.001 E.05132
G1 X103.097 Y140.291 E.00554
G1 X101.988 Y140.055 E.04093
G1 X101.871 Y139.998 E.00468
G1 X101.832 Y139.874 E.00471
G3 X101.872 Y137.469 I15.66 J-.945 E.08692
G1 X101.761 Y137.17 E.01151
G1 X101.553 Y136.929 E.01151
G1 X101.255 Y136.769 E.01222
G3 X99.422 Y136.174 I7.868 J-27.333 E.06959
G1 X99.168 Y136.127 E.00933
G1 X98.852 Y136.172 E.01151
G1 X98.572 Y136.324 E.01151
G2 X97.945 Y137.267 I6.983 J5.325 E.04091
G3 X97.078 Y138.391 I-7.105 J-4.577 E.05132
G1 X96.927 Y138.414 E.00554
G1 X95.891 Y137.953 E.04093
G1 X95.789 Y137.873 E.00468
G1 X95.776 Y137.743 E.00471
