; HEADER_BLOCK_START
; generated by Creality_Print V5.1.6.10470 on 2024-12-10 at 16:35:53
; total layer number: 10
; filament_density: 1.24
; filament_diameter: 1.75
; max_z_height: 2.00
; HEADER_BLOCK_END

; MINX = 9.06
; MINY = 68.00
; MINZ = 0.00
; MAXX = 216.06
; MAXY = 147.10
; MAXZ = 2.00

; THUMBNAIL_BLOCK_START

;
; THUMBNAIL_BLOCK_END

; THUMBNAIL_BLOCK_START

;
; THUMBNAIL_BLOCK_END

; external perimeters extrusion width = 0.42mm
; perimeters extrusion width = 0.45mm
; infill extrusion width = 0.45mm
; solid infill extrusion width = 0.42mm
; top infill extrusion width = 0.42mm
; support material extrusion width = 0.42mm
; first layer extrusion width = 0.50mm

; EXECUTABLE_BLOCK_START
EXCLUDE_OBJECT_DEFINE NAME=Main_Support_2.stl_id_0_copy_0 CENTER=112.56,107.554 POLYGON=[[9.06009,140.798],[9.0952,140.207],[9.2,139.624],[9.37289,139.057],[9.6117,138.515],[9.9129,138.005],[10.2723,137.534],[10.6849,137.109],[11.1448,136.736],[11.6457,136.419],[117.904,77.8259],[118.473,77.5572],[119.071,77.3622],[119.69,77.2439],[207.498,68.0427],[207.889,68.0043],[214.06,68.0043],[214.45,68.0427],[214.825,68.1565],[215.171,68.3413],[215.474,68.5901],[215.723,68.8931],[215.908,69.2389],[216.022,69.6141],[216.06,70.0043],[216.022,70.3945],[215.908,70.7697],[215.723,71.1154],[209.723,80.3154],[209.474,80.6185],[209.171,80.8672],[208.825,81.0521],[13.8255,146.952],[13.4503,147.066],[13.0601,147.104],[11.0601,147.104],[10.6699,147.066],[10.2947,146.952],[9.94899,146.767],[9.64589,146.519],[9.3972,146.215],[9.21229,145.87],[9.09849,145.494],[9.06009,145.104],[9.06009,140.798]]
M73 P0 R4
M106 S0
M106 P2 S0
;TYPE:Custom
M140 S0
M104 S0 
START_PRINT EXTRUDER_TEMP=230 BED_TEMP=50
M141 S35;set chamber_temperature
G90
G21
M83 ; use relative distances for extrusion
; filament start gcode
M106 S0
;LAYER_CHANGE
;Z:0.2
;HEIGHT:0.2
;BEFORE_LAYER_CHANGE
;0.2
G92 E0

G1 E-.5 F2400
;AFTER_LAYER_CHANGE
;0.2
;_SET_FAN_SPEED_CHANGING_LAYER
SET_VELOCITY_LIMIT ACCEL=1000 ACCEL_TO_DECEL=1000
SET_VELOCITY_LIMIT SQUARE_CORNER_VELOCITY=20
; printing object Main Support 2.stl id:0 copy 0
EXCLUDE_OBJECT_START NAME=Main_Support_2.stl_id_0_copy_0
G1 X211.691 Y70.517 F30000
G1 Z.4
G1 Z.2
G1 E.5 F2400
;TYPE:Inner wall
;WIDTH:0.499999
G1 F3600
G1 X211.806 Y70.817 E.01162
G2 X212.037 Y71.167 I1.705 J-.874 E.01516
G2 X210.667 Y71.192 I-.493 J10.776 E.04949
G1 X210.211 Y71.355 E.01749
G1 X209.813 Y71.631 E.01749
G1 X209.5 Y72 E.01749
G1 X209.294 Y72.438 E.01748
G1 X209.203 Y72.993 E.02029
G1 X209.203 Y79.162 E.22274
G1 X209.112 Y79.64 E.01756
G1 X208.865 Y80.01 E.01604
G1 X208.496 Y80.256 E.01604
G1 X208.018 Y80.347 E.01756
G1 X121.318 Y80.347 E3.13039
M73 P1 R4
G2 X118.524 Y81.073 I.039 J5.896 E.1053
G1 X17.208 Y136.941 E4.17742
G2 X14.774 Y139.549 I2.986 J5.226 E.13074
G1 X14.476 Y140.319 E.02982
G2 X14.203 Y142.052 I6.133 J1.854 E.06354
G2 X14.216 Y143.169 I12.498 J.415 E.04036
;WIDTH:0.474289
G1 X14.229 Y143.457 E.0098
;WIDTH:0.448578
G1 X14.249 Y143.73 E.00876
;WIDTH:0.407782
G1 X14.27 Y144.002 E.00788
;WIDTH:0.388778
G1 X14.259 Y144.539 E.01466
;WIDTH:0.432747
G1 X14.237 Y144.795 E.00794
;WIDTH:0.476716
G1 X14.215 Y145.052 E.00883
;WIDTH:0.514764
G1 X14.155 Y145.279 E.00874
;WIDTH:0.552812
G1 X14.095 Y145.506 E.00945
;WIDTH:0.567957
G1 X13.858 Y145.865 E.01787
G1 X13.486 Y146.132 E.01897
;WIDTH:0.552808
G1 X13.247 Y146.195 E.00996
;WIDTH:0.514749
G1 X13.008 Y146.259 E.00921
;WIDTH:0.47669
G1 X12.751 Y146.281 E.00883
;WIDTH:0.432725
G1 X12.494 Y146.303 E.00794
;WIDTH:0.38876
G1 X11.958 Y146.314 E.01465
;WIDTH:0.41696
G1 X11.413 Y146.289 E.01614
;WIDTH:0.452041
G1 X11.23 Y146.263 E.00597
;WIDTH:0.487121
G1 X11.047 Y146.238 E.00648
;WIDTH:0.522201
G1 X10.864 Y146.213 E.00699
;WIDTH:0.566449
G1 X10.446 Y146.023 E.01896
G1 X10.141 Y145.718 E.01784
G1 X9.952 Y145.301 E.01896
;WIDTH:0.522228
G1 X9.926 Y145.118 E.00699
;WIDTH:0.487144
G1 X9.901 Y144.935 E.00648
;WIDTH:0.45206
G1 X9.876 Y144.752 E.00597
;WIDTH:0.416976
G1 X9.851 Y144.206 E.01614
;WIDTH:0.388778
G1 X9.862 Y143.67 E.01466
;WIDTH:0.425852
G1 X9.88 Y143.488 E.00553
;WIDTH:0.462926
G1 X9.899 Y143.306 E.00606
;WIDTH:0.499999
G1 X9.917 Y143.124 E.0066
G3 X9.93 Y140.602 I57.921 J-.96 E.09107
G3 X10.703 Y138.383 I4.151 J.2 E.08602
G1 X11.18 Y137.83 E.02636
G3 X12.082 Y137.158 I2.799 J2.816 E.04076
G1 X118.294 Y78.589 E4.37929
M73 P2 R4
G3 X120.345 Y78.061 I2.042 J3.685 E.0773
G1 X197.04 Y78.061 E2.76915
M73 P3 R4
G1 X197.574 Y78.01 E.01936
G1 X198.062 Y77.867 E.01836
G1 X198.562 Y77.615 E.02021
G1 X199.046 Y77.231 E.02233
G1 X207.051 Y69.226 E.40873
G1 X207.453 Y68.952 E.01756
G1 X207.931 Y68.861 E.01757
G1 X211.379 Y68.859 E.12451
G1 X212.045 Y68.833 E.02405
G1 X211.971 Y68.913 E.00392
G1 X211.716 Y69.386 E.01941
G1 X211.611 Y69.908 E.01921
G1 X211.658 Y70.429 E.01888
G1 X211.677 Y70.479 E.00195
G1 X212.066 Y69.988 F30000
;TYPE:Outer wall
G1 F3600
G1 X212.064 Y69.972 E.00057
G1 X212.13 Y69.579 E.01438
G1 X212.269 Y69.28 E.01191
;WIDTH:0.500124
G1 X212.593 Y68.933 E.01715
;WIDTH:0.509868
G1 X212.937 Y68.763 E.01414
G1 X213.52 Y68.671 E.02178
;WIDTH:0.506992
G1 X214.183 Y68.769 E.02457
;WIDTH:0.520058
G1 X214.588 Y68.98 E.0172
;WIDTH:0.539864
G1 X214.864 Y69.273 E.01582
;WIDTH:0.563217
G1 X215.037 Y69.639 E.01663
;WIDTH:0.57033
G1 X215.089 Y70.043 E.01698
G1 X215.013 Y70.442 E.01693
;WIDTH:0.558254
G1 X214.816 Y70.8 E.01664
;WIDTH:0.534502
G1 X214.527 Y71.071 E.01541
;WIDTH:0.514319
G1 X214.183 Y71.24 E.01425
;WIDTH:0.50697
G1 X213.602 Y71.338 E.02161
;WIDTH:0.513407
G1 X212.936 Y71.248 E.02496
G1 X212.528 Y71.026 E.01725
;WIDTH:0.499999
G1 X212.269 Y70.728 E.01426
G1 X212.11 Y70.365 E.01432
G1 X212.071 Y70.027 E.01226
G1 E-.35 F2400
;WIPE_START
G1 F3600
G1 X212.064 Y69.972 E-.00835
G1 X212.13 Y69.579 E-.05975
G1 X212.269 Y69.28 E-.04949
G1 X212.417 Y69.122 E-.03241
;WIPE_END
G1 X205.272 Y71.808 Z.6 F30000
G1 X10.364 Y145.065 Z.6
G1 Z.2
G1 E.5 F2400
;TYPE:Inner wall
;WIDTH:0.522228
G1 F3600
G1 X10.327 Y144.941 E.00491
;WIDTH:0.478618
G1 X10.268 Y144.742 E.00715
;WIDTH:0.435008
G1 X10.209 Y144.543 E.00643
;WIDTH:0.391398
G1 X10.173 Y144.023 E.01433
;WIDTH:0.407783
G1 X10.197 Y143.773 E.00725
;WIDTH:0.448579
G1 X10.221 Y143.522 E.00807
;WIDTH:0.474289
G1 X10.317 Y143.286 E.00868
;WIDTH:0.499999
G1 X10.414 Y143.05 E.0092
G1 X10.743 Y142.66 E.01842
G1 X11.161 Y142.368 E.01842
G1 X11.641 Y142.195 E.01842
G1 X12.15 Y142.152 E.01843
G1 X12.652 Y142.241 E.01842
G1 X13.114 Y142.458 E.01843
G1 X13.504 Y142.787 E.01842
G1 X13.796 Y143.205 E.01842
G1 X13.848 Y143.364 E.00602
;WIDTH:0.474289
G1 X13.899 Y143.522 E.00568
;WIDTH:0.448578
G1 X13.923 Y143.773 E.00807
;WIDTH:0.407782
G1 X13.947 Y144.023 E.00725
;WIDTH:0.391396
G1 X13.911 Y144.543 E.01433
;WIDTH:0.435007
M73 P4 R4
G1 X13.852 Y144.742 E.00643
;WIDTH:0.478618
G1 X13.793 Y144.941 E.00715
;WIDTH:0.522228
G1 X13.733 Y145.14 E.00786
;WIDTH:0.567957
G1 X13.469 Y145.513 E.01897
;WIDTH:0.566451
G1 X13.096 Y145.778 E.01892
;WIDTH:0.522201
G1 X12.897 Y145.837 E.00786
;WIDTH:0.478596
G1 X12.698 Y145.896 E.00715
;WIDTH:0.434991
G1 X12.499 Y145.956 E.00643
;WIDTH:0.391385
G1 X11.979 Y145.991 E.01433
;WIDTH:0.41696
G1 X11.484 Y145.929 E.01474
;WIDTH:0.45441
G1 X11.322 Y145.873 E.00558
;WIDTH:0.491859
G1 X11.16 Y145.818 E.00608
;WIDTH:0.529308
G1 X10.997 Y145.762 E.00659
;WIDTH:0.565588
G1 X10.605 Y145.46 E.02046
G1 X10.387 Y145.14 E.01599
;WIDTH:0.522228
G1 X10.376 Y145.103 E.00144
G1 X10.977 Y145.132 F30000
;TYPE:Outer wall
;WIDTH:0.499999
G1 F3600
G1 X10.956 Y145.114 E.00099
G1 X10.734 Y144.799 E.01394
G1 X10.604 Y144.464 E.01298
G1 X10.561 Y144.074 E.01414
G1 X10.619 Y143.687 E.01414
G1 X10.776 Y143.329 E.01414
G1 X11.021 Y143.023 E.01414
G1 X11.336 Y142.791 E.01414
G1 X11.701 Y142.648 E.01414
G1 X12.09 Y142.605 E.01414
G1 X12.477 Y142.664 E.01414
G1 X12.878 Y142.853 E.01599
G1 X13.142 Y143.065 E.01223
G1 X13.374 Y143.38 E.01414
G1 X13.516 Y143.745 E.01414
G1 X13.56 Y144.134 E.01414
G1 X13.501 Y144.521 E.01414
G1 X13.344 Y144.88 E.01414
G1 X13.07 Y145.208 E.01543
G1 X12.754 Y145.43 E.01394
G1 X12.419 Y145.56 E.01298
G1 X12.03 Y145.604 E.01414
G1 X11.643 Y145.545 E.01414
G1 X11.284 Y145.388 E.01414
G1 X11.008 Y145.158 E.01299
G1 E-.35 F2400
;WIPE_START
G1 F3600
G1 X10.956 Y145.114 E-.01013
G1 X10.734 Y144.799 E-.0579
G1 X10.604 Y144.464 E-.05393
G1 X10.583 Y144.278 E-.02804
;WIPE_END
G1 X17.759 Y141.678 Z.6 F30000
G1 X210.082 Y72.005 Z.6
G1 Z.2
G1 E.5 F2400
G1 F3600
G1 X209.873 Y72.285 E.01261
G2 X209.66 Y72.993 I1.234 J.757 E.027
G1 X209.66 Y79.286 E.22721
G1 X209.537 Y79.816 E.01964
G1 X209.289 Y80.213 E.01689
G1 X208.948 Y80.533 E.01689
G1 X208.522 Y80.726 E.01689
G1 X208.04 Y80.804 E.01761
G1 X121.334 Y80.804 E3.13061
M73 P5 R4
G2 X118.744 Y81.473 I.014 J5.404 E.09759
G1 X17.442 Y137.334 E4.17686
G2 X14.787 Y140.918 I2.685 J4.764 E.16587
G2 X14.66 Y142.052 I4.797 J1.112 E.04129
G1 X14.66 Y144.752 E.09748
M73 P6 R4
G1 X14.634 Y145.347 E.0215
G1 X14.537 Y145.716 E.01379
G1 X14.319 Y146.078 E.01525
G1 X13.948 Y146.433 E.01854
G1 X13.478 Y146.639 E.01851
G1 X13.04 Y146.704 E.01599
G1 X11.413 Y146.704 E.05878
G1 X10.818 Y146.678 E.0215
G1 X10.449 Y146.581 E.01379
G1 X10.087 Y146.363 E.01525
G1 X9.731 Y145.992 E.01854
G1 X9.525 Y145.523 E.01852
G1 X9.46 Y145.085 E.01599
G1 X9.46 Y140.81 E.15435
G3 X11.849 Y136.764 I4.655 J.02 E.17782
G1 X118.086 Y78.182 E4.3803
G3 X120.331 Y77.604 I2.241 J4.055 E.08459
G1 X197.04 Y77.604 E2.76967
M73 P7 R4
G2 X198.346 Y77.212 I-.101 J-2.706 E.04978
G1 X198.723 Y76.907 E.01749
G1 X206.553 Y69.077 E.39983
G1 X207.001 Y68.676 E.02171
G1 X207.427 Y68.482 E.01689
G1 X207.908 Y68.404 E.01761
G2 X211.717 Y68.401 I.112 J-1861.103 E.13752
G1 X212.225 Y68.36 E.01842
;WIDTH:0.509826
G2 X213.489 Y68.244 I-17.684 J-198.763 E.04678
G1 X214.025 Y68.265 E.0198
G1 X214.338 Y68.329 E.01178
;WIDTH:0.513521
G1 X214.798 Y68.552 E.019
;WIDTH:0.534448
G1 X215.187 Y68.887 E.01994
;WIDTH:0.558252
G1 X215.474 Y69.336 E.02169
;WIDTH:0.574631
G1 X215.593 Y69.726 E.01713
G1 X215.62 Y70.03 E.01283
;WIDTH:0.571289
G1 X215.523 Y70.557 E.02236
;WIDTH:0.560397
G1 X215.284 Y70.996 E.02044
;WIDTH:0.539865
G1 X214.95 Y71.349 E.01907
;WIDTH:0.524306
G1 X214.679 Y71.531 E.01242
;WIDTH:0.518473
G1 X214.278 Y71.694 E.01625
;WIDTH:0.50697
G1 X213.634 Y71.765 E.02373
;WIDTH:0.509695
G3 X212.586 Y71.676 I-.1 J-5.012 E.03887
;WIDTH:0.503684
G1 X211.923 Y71.62 E.02422
;WIDTH:0.499999
G2 X210.727 Y71.645 I-.455 J7.058 E.04324
G2 X210.116 Y71.986 I.38 J1.397 E.02554
G1 E-.35 F2400
;WIPE_START
G1 F3600
G1 X209.873 Y72.285 E-.05769
G1 X209.716 Y72.613 E-.0546
G1 X209.679 Y72.862 E-.03771
;WIPE_END
G1 X211.535 Y69.637 Z.6 F30000
G1 Z.2
G1 E.5 F2400
;TYPE:Bottom surface
;WIDTH:0.500509
G1 F6300
G1 X211.077 Y69.179 E.02341
G1 X210.43 Y69.179 E.02337
G1 X211.288 Y70.037 E.04384
G1 X211.286 Y70.068 E.00113
G2 X211.459 Y70.83 I2.195 J-.097 E.02841
G1 X211.434 Y70.83 E.00092
G1 X209.783 Y69.18 E.08437
G1 X209.137 Y69.18 E.02337
G1 X210.81 Y70.853 E.08551
G2 X210.287 Y70.977 I.161 J1.84 E.01949
G1 X208.49 Y69.181 E.09184
G2 X207.853 Y69.191 I-.269 J3.267 E.02308
G1 X209.857 Y71.194 E.10244
G2 X209.505 Y71.49 I.945 J1.484 E.01665
G1 X207.382 Y69.367 E.10849
G2 X207.048 Y69.681 I1.422 J1.852 E.01658
G1 X209.216 Y71.848 E.11081
G2 X209.009 Y72.289 I1.899 J1.16 E.01762
G1 X206.725 Y70.004 E.11678
G1 X206.401 Y70.328 E.01654
G1 X208.901 Y72.827 E.12779
M73 P8 R4
G2 X208.883 Y73.457 I2.787 J.395 E.0228
G1 X206.078 Y70.651 E.1434
G1 X205.754 Y70.975 E.01654
G1 X208.883 Y74.104 E.15994
G1 X208.883 Y74.751 E.02339
G1 X205.431 Y71.298 E.17648
G1 X205.107 Y71.622 E.01654
G1 X208.883 Y75.398 E.19302
G1 X208.883 Y76.045 E.02339
G1 X204.783 Y71.945 E.20956
G1 X204.46 Y72.269 E.01654
G1 X208.883 Y76.692 E.2261
G1 X208.883 Y77.339 E.02339
M73 P8 R3
G1 X204.136 Y72.593 E.24265
G1 X203.813 Y72.916 E.01654
G1 X208.883 Y77.986 E.25919
G1 X208.883 Y78.634 E.02339
G1 X203.489 Y73.24 E.27573
G1 X203.166 Y73.563 E.01654
G1 X208.871 Y79.269 E.29165
G3 X208.683 Y79.728 I-.706 J-.022 E.01832
G1 X202.842 Y73.887 E.29857
G1 X202.519 Y74.21 E.01654
G1 X208.292 Y79.984 E.29513
G3 X207.688 Y80.027 I-.442 J-1.933 E.02197
G1 X202.195 Y74.534 E.28081
G1 X201.871 Y74.858 E.01654
G1 X207.041 Y80.027 E.26427
G1 X206.394 Y80.027 E.02339
G1 X201.548 Y75.181 E.24773
G1 X201.224 Y75.505 E.01654
G1 X205.747 Y80.027 E.23119
G1 X205.1 Y80.027 E.02339
G1 X200.901 Y75.828 E.21465
G1 X200.577 Y76.152 E.01654
G1 X204.453 Y80.027 E.19811
M73 P9 R3
G1 X203.805 Y80.027 E.02339
G1 X200.254 Y76.475 E.18157
G1 X199.93 Y76.799 E.01654
G1 X203.158 Y80.027 E.16503
G1 X202.511 Y80.027 E.02339
G1 X199.606 Y77.123 E.14849
G1 X199.283 Y77.446 E.01654
G1 X201.864 Y80.027 E.13195
G1 X201.217 Y80.027 E.02339
G1 X198.931 Y77.742 E.11683
G3 X198.535 Y77.992 I-1.283 J-1.592 E.01699
G1 X200.57 Y80.027 E.10402
G1 X199.923 Y80.027 E.02339
G1 X198.089 Y78.194 E.09374
G3 X197.579 Y78.331 I-.953 J-2.518 E.01911
G1 X199.276 Y80.027 E.08671
G1 X198.628 Y80.027 E.02339
G1 X196.982 Y78.381 E.08414
G1 X196.335 Y78.381 E.02339
G1 X197.981 Y80.027 E.08414
G1 X197.334 Y80.027 E.02339
G1 X195.688 Y78.381 E.08414
G1 X195.041 Y78.381 E.02339
G1 X196.687 Y80.027 E.08414
G1 X196.04 Y80.027 E.02339
G1 X194.394 Y78.381 E.08414
G1 X193.747 Y78.381 E.02339
G1 X195.393 Y80.027 E.08414
G1 X194.746 Y80.027 E.02339
G1 X193.1 Y78.381 E.08414
G1 X192.453 Y78.381 E.02339
G1 X194.099 Y80.027 E.08414
G1 X193.451 Y80.027 E.02339
G1 X191.805 Y78.381 E.08414
G1 X191.158 Y78.381 E.02339
G1 X192.804 Y80.027 E.08414
G1 X192.157 Y80.027 E.02339
G1 X190.511 Y78.381 E.08414
G1 X189.864 Y78.381 E.02339
G1 X191.51 Y80.027 E.08414
G1 X190.863 Y80.027 E.02339
G1 X189.217 Y78.381 E.08414
G1 X188.57 Y78.381 E.02339
G1 X190.216 Y80.027 E.08414
G1 X189.569 Y80.027 E.02339
G1 X187.923 Y78.381 E.08414
G1 X187.276 Y78.381 E.02339
G1 X188.921 Y80.027 E.08414
G1 X188.274 Y80.027 E.02339
G1 X186.628 Y78.381 E.08414
G1 X185.981 Y78.381 E.02339
G1 X187.627 Y80.027 E.08414
G1 X186.98 Y80.027 E.02339
G1 X185.334 Y78.381 E.08414
G1 X184.687 Y78.381 E.02339
G1 X186.333 Y80.027 E.08414
G1 X185.686 Y80.027 E.02339
G1 X184.04 Y78.381 E.08414
G1 X183.393 Y78.381 E.02339
G1 X185.039 Y80.027 E.08414
M73 P10 R3
G1 X184.392 Y80.027 E.02339
G1 X182.746 Y78.381 E.08414
G1 X182.099 Y78.381 E.02339
G1 X183.744 Y80.027 E.08414
G1 X183.097 Y80.027 E.02339
G1 X181.451 Y78.381 E.08414
G1 X180.804 Y78.381 E.02339
G1 X182.45 Y80.027 E.08414
G1 X181.803 Y80.027 E.02339
G1 X180.157 Y78.381 E.08414
G1 X179.51 Y78.381 E.02339
G1 X181.156 Y80.027 E.08414
G1 X180.509 Y80.027 E.02339
G1 X178.863 Y78.381 E.08414
G1 X178.216 Y78.381 E.02339
G1 X179.862 Y80.027 E.08414
G1 X179.215 Y80.027 E.02339
G1 X177.569 Y78.381 E.08414
G1 X176.921 Y78.381 E.02339
G1 X178.567 Y80.027 E.08414
G1 X177.92 Y80.027 E.02339
G1 X176.274 Y78.381 E.08414
G1 X175.627 Y78.381 E.02339
G1 X177.273 Y80.027 E.08414
G1 X176.626 Y80.027 E.02339
G1 X174.98 Y78.381 E.08414
G1 X174.333 Y78.381 E.02339
G1 X175.979 Y80.027 E.08414
G1 X175.332 Y80.027 E.02339
G1 X173.686 Y78.381 E.08414
G1 X173.039 Y78.381 E.02339
G1 X174.685 Y80.027 E.08414
G1 X174.038 Y80.027 E.02339
G1 X172.392 Y78.381 E.08414
G1 X171.744 Y78.381 E.02339
G1 X173.39 Y80.027 E.08414
G1 X172.743 Y80.027 E.02339
G1 X171.097 Y78.381 E.08414
G1 X170.45 Y78.381 E.02339
G1 X172.096 Y80.027 E.08414
G1 X171.449 Y80.027 E.02339
G1 X169.803 Y78.381 E.08414
G1 X169.156 Y78.381 E.02339
G1 X170.802 Y80.027 E.08414
G1 X170.155 Y80.027 E.02339
G1 X168.509 Y78.381 E.08414
G1 X167.862 Y78.381 E.02339
G1 X169.508 Y80.027 E.08414
G1 X168.86 Y80.027 E.02339
G1 X167.215 Y78.381 E.08414
G1 X166.567 Y78.381 E.02339
G1 X168.213 Y80.027 E.08414
G1 X167.566 Y80.027 E.02339
G1 X165.92 Y78.381 E.08414
G1 X165.273 Y78.381 E.02339
G1 X166.919 Y80.027 E.08414
G1 X166.272 Y80.027 E.02339
G1 X164.626 Y78.381 E.08414
G1 X163.979 Y78.381 E.02339
G1 X165.625 Y80.027 E.08414
G1 X164.978 Y80.027 E.02339
G1 X163.332 Y78.381 E.08414
G1 X162.685 Y78.381 E.02339
M73 P11 R3
G1 X164.331 Y80.027 E.08414
G1 X163.683 Y80.027 E.02339
G1 X162.038 Y78.381 E.08414
G1 X161.39 Y78.381 E.02339
G1 X163.036 Y80.027 E.08414
G1 X162.389 Y80.027 E.02339
