; HEADER_BLOCK_START
; generated by Creality_Print V5.1.6.10470 on 2024-12-10 at 16:27:26
; total layer number: 38
; filament_density: 1.24
; filament_diameter: 1.75
; max_z_height: 7.00
; HEADER_BLOCK_END

; MINX = 77.70
; MINY = 78.86
; MINZ = -0.00
; MAXX = 140.18
; MAXY = 141.14
; MAXZ = 7.00

; THUMBNAIL_BLOCK_START

;
; THUMBNAIL_BLOCK_END

; THUMBNAIL_BLOCK_START

;
; THUMBNAIL_BLOCK_END

; external perimeters extrusion width = 0.42mm
; perimeters extrusion width = 0.45mm
; infill extrusion width = 0.45mm
; solid infill extrusion width = 0.42mm
; top infill extrusion width = 0.42mm
; support material extrusion width = 0.42mm
; first layer extrusion width = 0.50mm

; EXECUTABLE_BLOCK_START
EXCLUDE_OBJECT_DEFINE NAME=Main_Right_Gear.stl_id_0_copy_0 CENTER=108.939,110 POLYGON=[[77.6958,109.365],[78.2465,104.125],[78.5106,102.883],[80.1386,97.8724],[80.6553,96.7119],[83.2895,92.1494],[84.0361,91.1216],[87.5613,87.2065],[88.5054,86.3565],[92.7675,83.2599],[93.8677,82.6247],[98.6805,80.4819],[99.8887,80.0893],[105.042,78.994],[106.305,78.8612],[111.574,78.8612],[112.837,78.994],[117.99,80.0893],[119.198,80.4819],[124.011,82.6247],[125.111,83.2599],[129.373,86.3565],[130.317,87.2065],[133.843,91.1216],[134.589,92.1494],[137.223,96.7119],[137.74,97.8724],[139.368,102.883],[139.632,104.125],[140.183,109.365],[140.183,110.635],[139.632,115.875],[139.368,117.117],[137.74,122.128],[137.223,123.288],[134.589,127.851],[133.843,128.878],[130.317,132.793],[129.373,133.643],[125.111,136.74],[124.011,137.375],[119.198,139.518],[117.99,139.911],[112.837,141.006],[111.574,141.139],[106.305,141.139],[105.042,141.006],[99.8887,139.911],[98.6805,139.518],[93.8677,137.375],[92.7675,136.74],[88.5054,133.643],[87.5613,132.793],[84.0361,128.878],[83.2895,127.851],[80.6553,123.288],[80.1386,122.128],[78.5106,117.117],[78.2465,115.875],[77.6958,110.635],[77.6958,109.365]]
M73 P0 R12
M106 S0
M106 P2 S0
;TYPE:Custom
M140 S0
M104 S0 
START_PRINT EXTRUDER_TEMP=230 BED_TEMP=50
M141 S35;set chamber_temperature
G90
G21
M83 ; use relative distances for extrusion
; filament start gcode
M106 S0
;LAYER_CHANGE
;Z:0.2
;HEIGHT:0.2
;BEFORE_LAYER_CHANGE
;0.2
G92 E0

G1 E-.5 F2400
;AFTER_LAYER_CHANGE
;0.2
;_SET_FAN_SPEED_CHANGING_LAYER
SET_VELOCITY_LIMIT ACCEL=1000 ACCEL_TO_DECEL=1000
SET_VELOCITY_LIMIT SQUARE_CORNER_VELOCITY=20
; printing object Main Right Gear.stl id:0 copy 0
EXCLUDE_OBJECT_START NAME=Main_Right_Gear.stl_id_0_copy_0
G1 X92.267 Y124.709 F30000
G1 Z.4
G1 Z.2
G1 E.5 F2400
;TYPE:Support
;WIDTH:0.5
G1 F3600
G1 X92.83 Y124.388 E.0234
G3 X93.321 Y124.143 I.445 J.279 E.02085
G3 X94.767 Y124.966 I-1.015 J3.462 E.0606
G3 X95.436 Y127.314 I-.307 J1.357 E.10753
G1 X94.355 Y127.938 E.04506
G3 X92.944 Y127.341 I1.731 J-6.058 E.05546
G3 X91.818 Y125.672 I.131 J-1.303 E.08293
G1 X92.25 Y124.745 E.03693
G1 X92.615 Y125.03 F30000
G1 F3600
G3 X93.488 Y124.631 I.927 J.874 E.03553
G3 X95.314 Y125.922 I-22.515 J33.763 E.08074
G3 X93.943 Y127.382 I-1.192 J.254 E.08486
G2 X92.585 Y126.745 I-1.777 J2.022 E.05488
G3 X92.59 Y125.058 I.958 J-.841 E.06655
G1 X92.972 Y125.359 F30000
G1 F3600
G1 X93.546 Y125.148 E.02205
G1 X93.685 Y125.271 E.00673
G2 X94.873 Y126.079 I1.871 J-1.472 E.05268
G3 X94.948 Y126.202 I-.938 J.66 E.00521
G3 X94.011 Y126.888 I-.781 J-.084 E.04718
G1 X93.983 Y126.863 E.00135
G2 X92.916 Y126.404 I-1.089 J1.063 E.04304
G3 X92.945 Y125.385 I.558 J-.494 E.04056
G1 E-.35 F2400
;WIPE_START
G1 F3600
G1 X93.546 Y125.148 E-.09681
G1 X93.685 Y125.271 E-.02795
G1 X93.781 Y125.409 E-.02524
;WIPE_END
G1 X86.416 Y127.284 Z.6 F30000
G1 Z.2
G1 E.5 F2400
;TYPE:Inner wall
;WIDTH:0.499999
G1 F3600
G1 X86.256 Y127.355 E.00634
G2 X85.591 Y127.702 I3.994 J8.457 E.0271
G1 X84.563 Y128.146 E.0404
G1 X84.149 Y127.576 E.02543
G3 X85.454 Y126.214 I7.798 J6.168 E.06819
G1 X85.733 Y125.866 E.01614
G1 X85.889 Y125.397 E.01782
G1 X85.866 Y124.902 E.01789
G1 X85.708 Y124.516 E.01506
G3 X84.769 Y122.89 I23.531 J-14.68 E.06784
G1 X84.514 Y122.548 E.0154
G1 X84.08 Y122.264 E.01872
G1 X83.596 Y122.164 E.01782
G2 X82.42 Y122.461 I1.696 J9.199 E.04382
G1 X81.323 Y122.681 E.0404
G1 X81.037 Y122.038 E.02543
G3 X82.596 Y120.977 I6.346 J7.655 E.06819
G1 X82.942 Y120.694 E.01614
G1 X83.191 Y120.268 E.01782
G1 X83.271 Y119.854 E.01523
G1 X83.198 Y119.369 E.01771
G3 X82.607 Y117.551 I26.528 J-9.625 E.06903
G1 X82.433 Y117.185 E.01462
G1 X82.073 Y116.827 E.01832
G1 X81.621 Y116.629 E.01782
G2 X80.409 Y116.675 I-.254 J9.35 E.04382
G1 X79.29 Y116.662 E.0404
G1 X79.144 Y115.973 E.02543
G3 X80.889 Y115.26 I4.616 J8.808 E.06819
G1 X81.286 Y115.055 E.01614
G1 X81.619 Y114.691 E.01782
G1 X81.782 Y114.309 E.01498
G1 X81.813 Y113.812 E.01797
G3 X81.613 Y111.911 I27.956 J-3.899 E.06903
G1 X81.518 Y111.517 E.01462
G1 X81.241 Y111.092 E.01832
G1 X80.84 Y110.805 E.01782
G2 X79.645 Y110.597 I-2.192 J9.092 E.04382
G1 X78.553 Y110.352 E.04041
G1 X78.553 Y109.648 E.02543
G3 X80.409 Y109.313 I2.684 J9.576 E.06819
G1 X80.84 Y109.195 E.01614
G1 X81.241 Y108.908 E.01782
G1 X81.479 Y108.568 E.01498
G1 X81.613 Y108.089 E.01797
G3 X81.813 Y106.188 I28.156 J1.998 E.06903
G1 X81.802 Y105.783 E.01462
G1 X81.619 Y105.309 E.01832
G1 X81.286 Y104.945 E.01782
G2 X80.161 Y104.494 I-3.999 J8.349 E.04382
G1 X79.144 Y104.027 E.0404
G1 X79.29 Y103.338 E.02543
G3 X81.175 Y103.396 I.634 J9.923 E.06819
G1 X81.621 Y103.371 E.01614
G1 X82.073 Y103.173 E.01782
G1 X82.377 Y102.89 E.01498
G1 X82.607 Y102.449 E.01797
G3 X83.198 Y100.631 I27.118 J7.806 E.06903
G1 X83.271 Y100.233 E.01463
G1 X83.191 Y99.732 E.01832
G1 X82.942 Y99.306 E.01782
G2 X81.934 Y98.631 I-5.702 J7.416 E.04382
G1 X81.037 Y97.962 E.0404
G1 X81.323 Y97.319 E.02543
G3 X83.155 Y97.768 I-1.443 J9.838 E.06819
G1 X83.596 Y97.836 E.01614
G1 X84.08 Y97.736 E.01782
G1 X84.436 Y97.523 E.01498
G1 X84.753 Y97.139 E.01797
G3 X85.708 Y95.484 I24.907 J13.276 E.06903
G1 X85.863 Y95.11 E.01462
G1 X85.889 Y94.603 E.01832
G1 X85.733 Y94.134 E.01782
G2 X84.888 Y93.264 I-7.119 J6.068 E.04382
G1 X84.149 Y92.424 E.0404
G1 X84.563 Y91.854 E.02543
G3 X86.261 Y92.675 I-3.457 J9.323 E.06819
G1 X86.679 Y92.832 E.01614
G1 X87.173 Y92.836 E.01782
G1 X87.565 Y92.701 E.01498
G1 X87.955 Y92.392 E.01797
G3 X89.234 Y90.971 I21.609 J18.171 E.06903
G1 X89.463 Y90.637 E.01463
G1 X89.594 Y90.147 E.01832
G1 X89.539 Y89.656 E.01782
G2 X88.893 Y88.63 I-8.225 J4.456 E.04382
G1 X88.345 Y87.654 E.0404
G1 X88.869 Y87.183 E.02543
G3 X90.359 Y88.338 I-5.319 J8.4 E.06819
G1 X90.735 Y88.579 E.01614
G1 X91.217 Y88.685 E.01782
G1 X91.629 Y88.635 E.01498
G1 X92.074 Y88.414 E.01797
G3 X93.621 Y87.29 I17.359 J22.267 E.06904
G1 X93.915 Y87.011 E.01462
G1 X94.144 Y86.558 E.01832
G1 X94.193 Y86.067 E.01782
G2 X93.775 Y84.929 I-8.972 J2.648 E.04382
G1 X93.441 Y83.861 E.0404
G1 X94.051 Y83.508 E.02543
G3 X95.269 Y84.948 I-6.95 J7.111 E.06819
G1 X95.586 Y85.263 E.01614
G1 X96.036 Y85.466 E.01782
G1 X96.449 Y85.503 E.01498
G1 X96.931 Y85.379 E.01797
G3 X98.677 Y84.601 I12.351 J25.391 E.06903
G1 X99.023 Y84.389 E.01463
G1 X99.341 Y83.995 E.01832
G1 X99.491 Y83.524 E.01782
G2 X99.319 Y82.324 I-9.326 J.725 E.04382
G1 X99.214 Y81.21 E.0404
G1 X99.884 Y80.992 E.02543
G3 X100.776 Y82.653 I-8.277 J5.511 E.06819
G1 X101.021 Y83.027 E.01614
G1 X101.419 Y83.32 E.01782
G1 X101.815 Y83.441 E.01498
G1 X102.312 Y83.42 E.01797
G3 X104.182 Y83.023 I6.8 J27.395 E.06904
G1 X104.564 Y82.887 E.01462
G1 X104.958 Y82.567 E.01832
G1 X105.202 Y82.138 E.01782
G2 X105.283 Y80.928 I-9.273 J-1.23 E.04382
G1 X105.413 Y79.817 E.0404
G1 X106.113 Y79.743 E.02543
G3 X106.64 Y81.554 I-9.241 J3.67 E.06819
G1 X106.802 Y81.97 E.01614
G1 X107.13 Y82.339 E.01782
G1 X107.493 Y82.541 E.01498
G1 X107.984 Y82.623 E.01797
G3 X109.895 Y82.623 I.956 J28.197 E.06903
G1 X110.297 Y82.57 E.01463
G1 X110.748 Y82.339 E.01832
G1 X111.076 Y81.97 E.01782
G2 X111.407 Y80.803 I-8.812 J-3.13 E.04382
G1 X111.765 Y79.743 E.0404
G1 X112.466 Y79.817 E.02543
G3 X112.605 Y81.697 I-9.803 J1.668 E.06819
G1 X112.677 Y82.138 E.01614
G1 X112.921 Y82.567 E.01782
G1 X113.234 Y82.84 E.01498
G1 X113.696 Y83.023 E.01797
G3 X115.566 Y83.42 I-4.93 J27.791 E.06903
G1 X115.97 Y83.452 E.01462
G1 X116.46 Y83.32 E.01832
G1 X116.857 Y83.027 E.01782
G2 X117.424 Y81.955 I-7.97 J-4.895 E.04382
G1 X117.994 Y80.992 E.0404
G1 X118.664 Y81.209 E.02541
G3 X118.409 Y83.078 I-9.869 J-.394 E.06819
G1 X118.388 Y83.524 E.01614
G1 X118.537 Y83.995 E.01782
G1 X118.787 Y84.326 E.01498
G1 X119.201 Y84.601 E.01797
G3 X120.948 Y85.379 I-10.606 J26.171 E.06903
G1 X121.336 Y85.494 E.01462
G1 X121.843 Y85.466 E.01832
G1 X122.292 Y85.263 E.01782
G2 X123.069 Y84.331 I-6.779 J-6.446 E.04382
G1 X123.828 Y83.508 E.0404
G1 X124.438 Y83.861 E.02543
G3 X123.799 Y85.635 I-9.634 J-2.463 E.06819
G1 X123.686 Y86.067 E.01614
G1 X123.735 Y86.558 E.01782
G1 X123.909 Y86.935 E.01498
G1 X124.258 Y87.29 E.01797
G3 X125.804 Y88.414 I-15.813 J23.39 E.06903
G1 X126.16 Y88.607 E.01463
G1 X126.662 Y88.685 E.01832
G1 X127.144 Y88.579 E.01782
G2 X128.097 Y87.83 I-5.291 J-7.715 E.04382
G1 X129.01 Y87.183 E.0404
G1 X129.534 Y87.654 E.02543
G3 X128.54 Y89.257 I-8.911 J-4.412 E.06819
G1 X128.34 Y89.656 E.01614
G1 X128.285 Y90.147 E.01782
G1 X128.378 Y90.551 E.01498
G1 X128.645 Y90.971 E.01797
G3 X129.924 Y92.392 I-20.33 J19.591 E.06903
G1 X130.232 Y92.655 E.01462
G1 X130.706 Y92.836 E.01832
G1 X131.199 Y92.832 E.01782
G2 X132.288 Y92.298 I-3.571 J-8.645 E.04382
G1 X133.316 Y91.854 E.0404
G1 X133.73 Y92.424 E.02543
G3 X132.425 Y93.786 I-7.799 J-6.168 E.06819
G1 X132.145 Y94.134 E.01614
G1 X131.99 Y94.603 E.01782
G1 X131.997 Y95.018 E.01498
G1 X132.17 Y95.484 E.01797
G3 X133.126 Y97.139 I-23.955 J14.934 E.06903
G1 X133.373 Y97.461 E.01462
G1 X133.799 Y97.736 E.01833
G1 X134.282 Y97.836 E.01781
G2 X135.458 Y97.539 I-1.695 J-9.195 E.04382
G1 X136.556 Y97.319 E.0404
G1 X136.842 Y97.962 E.02543
G3 X135.283 Y99.023 I-6.345 J-7.653 E.06819
G1 X134.937 Y99.306 E.01614
G1 X134.688 Y99.732 E.01781
G1 X134.608 Y100.139 E.01498
G1 X134.681 Y100.631 E.01797
G3 X135.271 Y102.449 I-26.619 J9.654 E.06904
G1 X135.446 Y102.815 E.01463
G1 X135.806 Y103.173 E.01832
G1 X136.258 Y103.371 E.01781
G2 X137.47 Y103.325 I.254 J-9.351 E.04382
G1 X138.589 Y103.338 E.0404
G1 X138.735 Y104.027 E.02543
G3 X136.989 Y104.74 I-4.616 J-8.809 E.06819
G1 X136.592 Y104.945 E.01614
G1 X136.26 Y105.309 E.01781
G1 X136.097 Y105.691 E.01498
G1 X136.066 Y106.188 E.01797
G3 X136.266 Y108.089 I-28.06 J3.909 E.06903
G1 X136.361 Y108.483 E.01462
G1 X136.638 Y108.908 E.01833
G1 X137.039 Y109.195 E.01781
G2 X138.234 Y109.403 I2.192 J-9.092 E.04382
G1 X139.326 Y109.648 E.0404
G1 X139.326 Y110.352 E.02543
G3 X137.47 Y110.687 I-2.684 J-9.576 E.06818
G1 X137.039 Y110.805 E.01614
G1 X136.638 Y111.092 E.01781
G1 X136.4 Y111.432 E.01498
G1 X136.266 Y111.911 E.01797
G3 X136.066 Y113.812 I-28.26 J-2.008 E.06903
G1 X136.077 Y114.217 E.01463
G1 X136.26 Y114.691 E.01832
G1 X136.592 Y115.055 E.01781
G2 X137.718 Y115.506 I4.035 J-8.438 E.04382
G1 X138.735 Y115.973 E.04041
G1 X138.589 Y116.662 E.02543
G3 X136.704 Y116.604 I-.634 J-9.922 E.06819
G1 X136.258 Y116.629 E.01614
G1 X135.806 Y116.827 E.01781
G1 X135.502 Y117.11 E.01498
G1 X135.271 Y117.551 E.01797
G3 X134.681 Y119.369 I-27.208 J-7.835 E.06904
G1 X134.607 Y119.767 E.01462
G1 X134.688 Y120.268 E.01832
G1 X134.937 Y120.694 E.01782
G2 X135.944 Y121.369 I5.703 J-7.418 E.04382
G1 X136.842 Y122.038 E.0404
G1 X136.556 Y122.681 E.02543
G3 X134.724 Y122.232 I1.443 J-9.839 E.06819
G1 X134.282 Y122.164 E.01613
G1 X133.799 Y122.264 E.01782
G1 X133.443 Y122.477 E.01498
G1 X133.126 Y122.861 E.01797
G3 X132.17 Y124.516 I-24.913 J-13.28 E.06903
G1 X132.016 Y124.89 E.01462
G1 X131.99 Y125.397 E.01832
G1 X132.145 Y125.866 E.01782
G2 X132.99 Y126.736 I7.048 J-5.999 E.04382
G1 X133.73 Y127.576 E.0404
G1 X133.316 Y128.146 E.02543
G3 X131.618 Y127.325 I3.456 J-9.322 E.06819
G1 X131.199 Y127.168 E.01614
G1 X130.706 Y127.164 E.01782
G1 X130.314 Y127.299 E.01498
G1 X129.924 Y127.608 E.01797
G3 X128.645 Y129.029 I-21.604 J-18.166 E.06903
G1 X128.416 Y129.363 E.01463
G1 X128.285 Y129.853 E.01832
G1 X128.34 Y130.344 E.01782
G2 X128.985 Y131.37 I8.224 J-4.455 E.04382
M73 P1 R12
G1 X129.534 Y132.346 E.0404
G1 X129.01 Y132.817 E.02543
G3 X127.52 Y131.662 I5.319 J-8.401 E.06819
G1 X127.144 Y131.421 E.01614
G1 X126.662 Y131.315 E.01782
G1 X126.25 Y131.365 E.01497
G1 X125.804 Y131.586 E.01797
G3 X124.258 Y132.71 I-17.362 J-22.27 E.06904
G1 X123.964 Y132.989 E.01462
G1 X123.735 Y133.442 E.01832
G1 X123.686 Y133.933 E.01782
G2 X124.104 Y135.071 I8.97 J-2.648 E.04382
G1 X124.438 Y136.139 E.0404
G1 X123.828 Y136.492 E.02543
G3 X122.61 Y135.052 I6.95 J-7.112 E.06819
G1 X122.292 Y134.737 E.01614
G1 X121.843 Y134.534 E.01782
G1 X121.43 Y134.497 E.01498
G1 X120.948 Y134.621 E.01797
G3 X119.201 Y135.399 I-12.349 J-25.386 E.06903
G1 X118.856 Y135.611 E.01462
G1 X118.537 Y136.005 E.01832
G1 X118.388 Y136.476 E.01782
G2 X118.56 Y137.676 I9.326 J-.725 E.04382
G1 X118.664 Y138.79 E.0404
G1 X117.994 Y139.008 E.02543
G3 X117.103 Y137.347 I8.277 J-5.511 E.06819
G1 X116.857 Y136.973 E.01614
G1 X116.46 Y136.68 E.01782
G1 X116.063 Y136.559 E.01498
G1 X115.566 Y136.58 E.01797
G3 X113.696 Y136.977 I-6.802 J-27.403 E.06903
G1 X113.315 Y137.113 E.01462
G1 X112.921 Y137.433 E.01832
G1 X112.677 Y137.862 E.01782
G2 X112.596 Y139.072 I9.273 J1.23 E.04382
G1 X112.466 Y140.183 E.0404
G1 X111.765 Y140.257 E.02543
G3 X111.239 Y138.446 I9.241 J-3.67 E.06819
G1 X111.076 Y138.03 E.01614
G1 X110.748 Y137.661 E.01782
G1 X110.386 Y137.459 E.01498
G1 X109.895 Y137.377 E.01797
G3 X107.984 Y137.377 I-.956 J-28.204 E.06903
G1 X107.582 Y137.43 E.01462
G1 X107.13 Y137.661 E.01832
G1 X106.802 Y138.03 E.01782
G2 X106.471 Y139.197 I8.812 J3.13 E.04382
G1 X106.113 Y140.257 E.0404
G1 X105.413 Y140.183 E.02543
G3 X105.274 Y138.303 I9.802 J-1.668 E.06819
G1 X105.202 Y137.862 E.01614
G1 X104.958 Y137.433 E.01782
G1 X104.645 Y137.16 E.01498
G1 X104.182 Y136.977 E.01797
G3 X102.313 Y136.58 I4.932 J-27.799 E.06903
G1 X101.902 Y136.549 E.01487
G1 X101.419 Y136.68 E.01808
G1 X101.021 Y136.973 E.01782
G2 X100.455 Y138.045 I7.971 J4.895 E.04382
G1 X99.884 Y139.008 E.0404
G1 X99.215 Y138.791 E.02541
G3 X99.47 Y136.922 I9.869 J.394 E.06819
G1 X99.491 Y136.476 E.01614
G1 X99.341 Y136.005 E.01782
G1 X99.095 Y135.677 E.01483
G1 X98.677 Y135.399 E.01811
G3 X96.931 Y134.621 I10.603 J-26.164 E.06903
G1 X96.543 Y134.506 E.01461
G1 X96.036 Y134.534 E.01834
G1 X95.586 Y134.737 E.01782
G2 X94.809 Y135.669 I6.778 J6.444 E.04382
G1 X94.051 Y136.492 E.0404
G1 X93.441 Y136.139 E.02543
G3 X94.079 Y134.365 I9.633 J2.463 E.06819
G1 X94.193 Y133.933 E.01614
G1 X94.144 Y133.442 E.01782
G1 X93.957 Y133.047 E.01577
G1 X93.621 Y132.71 E.01719
G2 X91.867 Y131.467 I-91.392 J127.137 E.07763
G1 X91.553 Y131.351 E.01206
G1 X91.167 Y131.318 E.01401
G1 X90.735 Y131.42 E.01602
G2 X89.781 Y132.17 I5.286 J7.708 E.04382
G1 X88.869 Y132.817 E.0404
G1 X88.345 Y132.346 E.02543
G3 X89.338 Y130.743 I8.91 J4.412 E.06819
G1 X89.539 Y130.343 E.01615
G1 X89.596 Y129.904 E.01601
G1 X89.491 Y129.424 E.01774
G1 X89.235 Y129.029 E.01699
G3 X87.97 Y127.625 I20.119 J-19.395 E.06824
G1 X87.641 Y127.342 E.01567
G1 X87.173 Y127.164 E.01809
G1 X86.679 Y127.168 E.01782
G1 X86.453 Y127.268 E.00894
G1 X86.917 Y127.616 F30000
;TYPE:Outer wall
G1 F3600
G1 X86.799 Y127.613 E.00425
G2 X85.784 Y128.116 I3.385 J8.104 E.04091
G3 X84.472 Y128.657 I-3.864 J-7.517 E.05132
G1 X84.329 Y128.601 E.00554
G1 X83.663 Y127.684 E.04093
G1 X83.614 Y127.564 E.00468
G1 X83.668 Y127.445 E.00471
G3 X85.307 Y125.685 I12.269 J9.776 E.08692
G1 X85.424 Y125.388 E.01151
G1 X85.432 Y125.11 E.01005
G1 X85.317 Y124.751 E.01361
G3 X84.369 Y123.111 I23.725 J-14.801 E.06839
G1 X84.195 Y122.878 E.01052
G1 X83.931 Y122.7 E.01151
G1 X83.621 Y122.625 E.01151
G2 X82.524 Y122.906 I1.624 J8.624 E.04091
G3 X81.127 Y123.162 I-2.217 J-8.154 E.05132
G1 X80.999 Y123.078 E.00554
G1 X80.538 Y122.042 E.04093
G1 X80.516 Y121.914 E.00468
G1 X80.593 Y121.81 E.00471
G3 X82.562 Y120.428 I9.969 J12.113 E.08692
G1 X82.739 Y120.163 E.01151
G1 X82.812 Y119.853 E.01151
G1 X82.766 Y119.517 E.01222
G3 X82.17 Y117.685 I26.742 J-9.702 E.06959
