; HEADER_BLOCK_START
; generated by Creality_Print V5.1.6.10470 on 2024-12-10 at 16:20:54
; total layer number: 10
; filament_density: 1.24
; filament_diameter: 1.75
; max_z_height: 2.00
; HEADER_BLOCK_END

; MINX = 99.05
; MINY = 40.40
; MINZ = 0.00
; MAXX = 120.95
; MAXY = 179.60
; MAXZ = 2.00

; THUMBNAIL_BLOCK_START

;
; THUMBNAIL_BLOCK_END

; THUMBNAIL_BLOCK_START

;
; THUMBNAIL_BLOCK_END

; external perimeters extrusion width = 0.42mm
; perimeters extrusion width = 0.45mm
; infill extrusion width = 0.45mm
; solid infill extrusion width = 0.42mm
; top infill extrusion width = 0.42mm
; support material extrusion width = 0.42mm
; first layer extrusion width = 0.50mm

; EXECUTABLE_BLOCK_START
EXCLUDE_OBJECT_DEFINE NAME=Main_Holder_2.stl_id_0_copy_0 CENTER=110,110 POLYGON=[[99.0527,44.7766],[99.1179,44.1972],[99.2558,43.6306],[99.4644,43.086],[99.7401,42.5722],[100.079,42.0974],[100.475,41.6693],[100.921,41.2946],[101.412,40.9796],[101.939,40.7291],[102.493,40.5472],[103.065,40.437],[103.647,40.4],[104.229,40.437],[104.802,40.5472],[105.356,40.7291],[105.882,40.9796],[106.373,41.2946],[106.82,41.6693],[107.216,42.0974],[107.554,42.5722],[107.83,43.086],[108.039,43.6306],[108.177,44.1972],[120.838,103.196],[120.92,103.713],[120.947,104.236],[120.947,115.764],[120.92,116.287],[120.838,116.804],[108.177,175.803],[108.039,176.369],[107.83,176.914],[107.554,177.428],[107.216,177.903],[106.82,178.331],[106.373,178.705],[105.882,179.02],[105.356,179.271],[104.802,179.453],[104.229,179.563],[103.647,179.6],[103.065,179.563],[102.493,179.453],[101.939,179.271],[101.412,179.02],[100.921,178.705],[100.475,178.331],[100.079,177.903],[99.7401,177.428],[99.4644,176.914],[99.2558,176.369],[99.1179,175.803],[99.0527,175.223],[99.0527,44.7766]]
M73 P0 R4
M106 S0
M106 P2 S0
;TYPE:Custom
M140 S0
M104 S0 
START_PRINT EXTRUDER_TEMP=230 BED_TEMP=50
M141 S35;set chamber_temperature
G90
G21
M83 ; use relative distances for extrusion
; filament start gcode
M106 S0
;LAYER_CHANGE
;Z:0.2
;HEIGHT:0.2
;BEFORE_LAYER_CHANGE
;0.2
G92 E0

G1 E-.5 F2400
;AFTER_LAYER_CHANGE
;0.2
;_SET_FAN_SPEED_CHANGING_LAYER
SET_VELOCITY_LIMIT ACCEL=1000 ACCEL_TO_DECEL=1000
SET_VELOCITY_LIMIT SQUARE_CORNER_VELOCITY=20
; printing object Main Holder 2.stl id:0 copy 0
EXCLUDE_OBJECT_START NAME=Main_Holder_2.stl_id_0_copy_0
G1 X120.094 Y111.899 F30000
G1 Z.4
G1 Z.2
G1 E.5 F2400
;TYPE:Inner wall
;WIDTH:0.499999
G1 F3600
G1 X120.09 Y111.971 E.00261
G3 X120.068 Y116.164 I-130.806 J1.406 E.15139
G1 X119.985 Y116.677 E.01878
G1 X119.759 Y117.374 E.02645
G1 X119.524 Y117.855 E.01932
G1 X106.563 Y140.304 E.93595
G2 X105.79 Y143.207 I5.346 J2.977 E.10958
G1 X105.79 Y169.721 E.95728
G2 X106.625 Y172.692 I5.983 J-.077 E.11272
G1 X107.018 Y173.382 E.02868
G1 X107.246 Y174.01 E.0241
G3 X106.779 Y177.039 I-3.579 J.999 E.11407
G1 X106.322 Y177.607 E.0263
G3 X104.979 Y178.493 I-2.812 J-2.802 E.05851
G1 X104.276 Y178.681 E.02629
G3 X102.668 Y178.608 I-.614 J-4.221 E.05846
G1 X101.989 Y178.346 E.02629
G1 X101.465 Y178.036 E.02198
G3 X100.721 Y177.327 I2.022 J-2.866 E.0372
G1 X100.337 Y176.728 E.0257
G1 X100.09 Y176.152 E.02264
G3 X99.954 Y174.449 I3.776 J-1.158 E.06218
G1 X100.1 Y173.82 E.0233
G1 X100.293 Y173.344 E.01855
G2 X101.163 Y171.661 I-9.401 J-5.926 E.06848
G1 X101.353 Y171.014 E.02436
G2 X101.504 Y169.698 I-6.588 J-1.425 E.04788
G1 X101.504 Y50.279 E4.31174
M73 P1 R4
G2 X100.67 Y47.308 I-5.983 J.077 E.11272
G1 X100.277 Y46.618 E.02869
G1 X100.048 Y45.993 E.02401
G3 X100.516 Y42.961 I3.599 J-.997 E.11416
G1 X100.972 Y42.393 E.02629
G3 X102.316 Y41.507 I2.723 J2.668 E.05854
G1 X103.019 Y41.319 E.02629
G3 X104.627 Y41.392 I.626 J3.935 E.05851
G1 X105.306 Y41.654 E.02629
G1 X105.83 Y41.964 E.02198
G3 X106.957 Y43.272 I-2.387 J3.198 E.06283
G1 X107.204 Y43.848 E.02264
G3 X107.34 Y45.551 I-3.784 J1.159 E.06217
G1 X107.195 Y46.18 E.0233
G1 X107.002 Y46.656 E.01855
G2 X106.132 Y48.339 I9.401 J5.926 E.06848
G1 X105.942 Y48.986 E.02436
G2 X105.79 Y50.302 I6.589 J1.426 E.04788
G1 X105.79 Y76.812 E.9572
G2 X106.573 Y79.713 I6.118 J-.095 E.10958
G1 X119.667 Y102.393 E.94557
G1 X119.9 Y103.008 E.02375
G1 X120.061 Y103.77 E.02813
G1 X120.09 Y104.275 E.01826
G1 X120.09 Y108.029 E.13552
G1 X120.112 Y108.478 E.01624
;WIDTH:0.45719
G1 X120.133 Y108.927 E.01472
;WIDTH:0.414384
G1 X120.133 Y111.069 E.06285
;WIDTH:0.457192
G1 X120.112 Y111.52 E.01478
;WIDTH:0.499999
G1 X120.096 Y111.859 E.01225
G1 E-.35 F2400
;WIPE_START
G1 F3600
G1 X120.09 Y111.971 E-.01686
G1 X120.09 Y112.859 E-.13314
;WIPE_END
M73 P2 R4
G1 X118.488 Y105.397 Z.6 F30000
G1 X106.394 Y49.058 Z.6
G1 Z.2
G1 E.5 F2400
;TYPE:Outer wall
G1 F3600
G1 X106.392 Y49.066 E.00031
G2 X106.247 Y50.302 I6.103 J1.34 E.04499
G1 X106.247 Y76.799 E.95671
G2 X106.968 Y79.484 I5.623 J-.071 E.10145
G1 X119.932 Y101.938 E.93613
G1 X120.26 Y102.654 E.02842
G3 X120.547 Y104.275 I-4.765 J1.681 E.05972
G1 X120.546 Y115.782 E.41548
G1 X120.473 Y116.55 E.02785
G3 X119.926 Y118.073 I-5.022 J-.945 E.05868
G1 X106.965 Y140.521 E.93589
G2 X106.247 Y143.207 I4.905 J2.75 E.10145
G1 X106.247 Y169.705 E.95673
G2 X106.835 Y172.143 I5.403 J-.013 E.09137
G1 X107.412 Y173.141 E.04161
G3 X99.882 Y173.141 I-3.765 J1.855 E.61481
M73 P3 R4
G2 X100.725 Y171.529 I-9.308 J-5.894 E.06573
G1 X100.903 Y170.934 E.02243
G2 X101.047 Y169.698 I-6.102 J-1.34 E.04499
G1 X101.047 Y50.295 E4.31119
G2 X100.46 Y47.857 I-5.403 J.013 E.09137
G1 X99.882 Y46.859 E.04161
G3 X107.412 Y46.859 I3.765 J-1.856 E.615
G2 X106.57 Y48.471 I9.308 J5.894 E.06573
G1 X106.406 Y49.019 E.02068
G1 E-.35 F2400
;WIPE_START
G1 F3600
G1 X106.392 Y49.066 E-.0073
G1 X106.277 Y49.789 E-.10984
G1 X106.264 Y50.008 E-.03286
;WIPE_END
G1 X107.844 Y57.475 Z.6 F30000
G1 X119.366 Y111.922 Z.6
M73 P4 R4
G1 Z.2
G1 E.5 F2400
;TYPE:Inner wall
G1 F3600
G1 X119.088 Y112.082 E.01157
G1 X118.72 Y112.157 E.01358
G1 X113.575 Y112.157 E.18577
G1 X113.206 Y112.082 E.01358
G1 X112.899 Y111.905 E.01281
G1 X112.742 Y111.749 E.00799
G1 X112.565 Y111.441 E.01281
G1 X112.49 Y111.073 E.01358
G1 X112.49 Y108.927 E.07745
G1 X112.565 Y108.559 E.01358
G1 X112.742 Y108.251 E.01281
G1 X112.899 Y108.095 E.00799
G1 X113.206 Y107.918 E.01281
G1 X113.575 Y107.843 E.01358
G1 X118.72 Y107.843 E.18577
G1 X119.088 Y107.918 E.01358
G1 X119.396 Y108.095 E.01281
G1 X119.552 Y108.251 E.00799
G1 X119.713 Y108.563 E.01266
;WIDTH:0.464304
G1 X119.762 Y108.927 E.01223
;WIDTH:0.414384
G1 X119.762 Y111.073 E.06295
;WIDTH:0.444692
G1 X119.74 Y111.255 E.00584
;WIDTH:0.475
G1 X119.718 Y111.438 E.00628
;WIDTH:0.499999
G1 X119.552 Y111.749 E.0127
G1 X119.4 Y111.901 E.00779
G1 X119.282 Y111.331 F30000
;TYPE:Outer wall
G1 F3600
G1 X119.073 Y111.582 E.0118
G1 X118.771 Y111.694 E.01164
G3 X113.575 Y111.7 I-2.997 J-364.362 E.1876
G1 X113.324 Y111.641 E.00929
G1 X113.065 Y111.425 E.01217
G1 X112.947 Y111.111 E.01213
G1 X112.947 Y108.927 E.07884
G1 X113.065 Y108.575 E.01343
G1 X113.324 Y108.359 E.01217
G1 X113.575 Y108.3 E.00929
G1 X118.72 Y108.3 E.18577
G1 X118.97 Y108.359 E.00929
G1 X119.229 Y108.575 E.01217
G1 X119.347 Y108.889 E.01213
G1 X119.347 Y111.073 E.07884
G1 X119.295 Y111.294 E.00821
G1 E-.35 F2400
;WIPE_START
G1 F3600
G1 X119.073 Y111.582 E-.05457
G1 X118.771 Y111.694 E-.04835
G1 X118.457 Y111.695 E-.04708
;WIPE_END
G1 X114.868 Y118.431 Z.6 F30000
G1 X106.109 Y134.869 Z.6
G1 Z.2
G1 E.5 F2400
;TYPE:Inner wall
G1 F3600
G1 X106.072 Y134.83 E.00194
G1 X105.846 Y134.38 E.01818
G1 X105.79 Y134.022 E.01307
G1 X105.79 Y114.783 E.69465
G1 X105.851 Y114.408 E.01372
G1 X105.954 Y114.161 E.00966
G1 X106.189 Y113.834 E.01454
G1 X106.644 Y113.536 E.01963
G1 X107.099 Y113.443 E.01675
G1 X117.464 Y113.443 E.37426
G1 X117.839 Y113.504 E.01372
G1 X118.248 Y113.714 E.01657
G3 X118.743 Y114.408 I-.866 J1.143 E.03126
G1 X118.804 Y114.783 E.01372
G1 X118.804 Y116.177 E.05034
G1 X118.697 Y116.669 E.01819
G1 X118.402 Y117.227 E.02276
G1 X108.315 Y134.699 E.72843
G1 X108.087 Y134.981 E.01308
G1 X107.666 Y135.257 E.01818
G1 X107.174 Y135.36 E.01818
M73 P5 R4
G1 X106.677 Y135.276 E.01818
G1 X106.246 Y135.017 E.01818
G1 X106.136 Y134.898 E.00582
G1 X106.739 Y134.804 F30000
;TYPE:Outer wall
G1 F3600
G1 X106.719 Y134.798 E.00078
G1 X106.459 Y134.586 E.01208
G1 X106.295 Y134.295 E.01208
G1 X106.247 Y134.022 E.01
G1 X106.247 Y114.783 E.69465
G1 X106.334 Y114.415 E.01366
G1 X106.543 Y114.133 E.01268
G1 X106.844 Y113.952 E.01268
G1 X107.12 Y113.9 E.01012
G1 X117.464 Y113.9 E.37349
G1 X117.833 Y113.987 E.01366
G1 X118.114 Y114.196 E.01268
G1 X118.295 Y114.497 E.01268
G1 X118.347 Y114.783 E.0105
G1 X118.347 Y116.177 E.05034
G1 X118.209 Y116.646 E.01766
G1 X107.919 Y134.47 E.74309
G1 X107.675 Y134.736 E.01302
G1 X107.372 Y134.878 E.01208
G1 X107.038 Y134.9 E.01208
G1 X106.777 Y134.816 E.00986
G1 E-.35 F2400
;WIPE_START
G1 F3600
G1 X106.719 Y134.798 E-.00923
G1 X106.459 Y134.586 E-.0502
G1 X106.295 Y134.295 E-.0502
G1 X106.249 Y134.03 E-.04038
;WIPE_END
G1 X106.38 Y126.399 Z.6 F30000
G1 X107.099 Y84.662 Z.6
G1 Z.2
G1 E.5 F2400
;TYPE:Inner wall
G1 F3600
G1 X107.423 Y84.668 E.01169
G1 X107.888 Y84.86 E.01818
G1 X108.273 Y85.23 E.01925
G1 X118.674 Y103.262 E.75164
G1 X118.804 Y103.823 E.02077
G1 X118.804 Y105.217 E.05034
G1 X118.743 Y105.592 E.01372
G1 X118.641 Y105.839 E.00966
G1 X118.401 Y106.17 E.01477
G1 X118.086 Y106.394 E.01391
G1 X117.839 Y106.496 E.00966
G1 X117.464 Y106.557 E.01372
G1 X107.13 Y106.557 E.37311
G1 X106.644 Y106.464 E.01788
G1 X106.189 Y106.166 E.01963
G1 X105.954 Y105.839 E.01454
G1 X105.851 Y105.592 E.00966
G1 X105.79 Y105.217 E.01372
G1 X105.79 Y85.978 E.69465
G1 X105.846 Y85.62 E.01308
G1 X106.072 Y85.17 E.01818
G3 X106.448 Y84.834 I1.075 J.824 E.01829
M73 P6 R4
G1 X106.919 Y84.659 E.01818
G1 X107.059 Y84.661 E.00505
G1 X106.778 Y85.183 F30000
;TYPE:Outer wall
G1 F3600
G1 X107.038 Y85.1 E.00984
G1 X107.372 Y85.122 E.01208
G1 X107.675 Y85.264 E.01208
G1 X107.919 Y85.53 E.01302
G1 X118.232 Y103.394 E.74477
G1 X118.347 Y103.869 E.01766
G1 X118.347 Y105.217 E.04866
G1 X118.261 Y105.585 E.01366
G1 X118.051 Y105.867 E.01268
G1 X117.75 Y106.048 E.01268
G1 X117.464 Y106.1 E.0105
G1 X107.13 Y106.1 E.37311
G1 X106.762 Y106.013 E.01366
G1 X106.48 Y105.804 E.01268
G1 X106.3 Y105.503 E.01268
G1 X106.247 Y105.217 E.0105
G1 X106.247 Y85.978 E.69465
G1 X106.326 Y85.626 E.01302
G1 X106.517 Y85.351 E.01208
G1 X106.719 Y85.202 E.00906
G1 X106.74 Y85.196 E.0008
G1 E-.35 F2400
;WIPE_START
G1 F3600
G1 X107.038 Y85.1 E-.04687
G1 X107.372 Y85.122 E-.05021
G1 X107.675 Y85.264 E-.0502
G1 X107.687 Y85.278 E-.00273
;WIPE_END
G1 X106.563 Y77.729 Z.6 F30000
G1 X101.51 Y43.808 Z.6
G1 Z.2
G1 E.5 F2400
;TYPE:Inner wall
G1 F3600
G1 X101.554 Y43.716 E.00368
G1 X101.871 Y43.305 E.01875
G1 X102.263 Y42.972 E.01853
G1 X102.705 Y42.732 E.01816
G1 X103.207 Y42.584 E.01891
G1 X103.719 Y42.546 E.01853
G1 X104.227 Y42.614 E.0185
G1 X104.711 Y42.787 E.01857
G1 X105.148 Y43.057 E.01853
G1 X105.519 Y43.411 E.01853
G1 X105.786 Y43.79 E.01673
G1 X105.991 Y44.259 E.01847
G1 X106.096 Y44.815 E.02043
G1 X106.081 Y45.328 E.01853
G1 X105.959 Y45.827 E.01853
G1 X105.737 Y46.289 E.01853
G1 X105.423 Y46.695 E.01853
G1 X105.032 Y47.028 E.01853
G1 X104.58 Y47.271 E.01853
G1 X104.087 Y47.416 E.01853
G1 X103.576 Y47.454 E.01853
G1 X103.067 Y47.386 E.01853
G1 X102.584 Y47.213 E.01853
G1 X102.147 Y46.943 E.01853
G1 X101.775 Y46.589 E.01853
G1 X101.486 Y46.165 E.01853
G1 X101.291 Y45.69 E.01853
G1 X101.199 Y45.195 E.01817
G1 X101.214 Y44.672 E.0189
G1 X101.335 Y44.173 E.01853
G1 X101.493 Y43.844 E.0132
G1 X101.75 Y44.373 F30000
;TYPE:Outer wall
G1 F3600
G1 X101.753 Y44.359 E.00052
G1 X101.927 Y43.979 E.0151
G1 X102.248 Y43.58 E.0185
G1 X102.491 Y43.368 E.01164
G1 X102.856 Y43.163 E.01509
G1 X103.371 Y43.027 E.01925
G1 X103.671 Y43 E.01088
G1 X104.086 Y43.049 E.0151
G1 X104.6 Y43.251 E.0199
G1 X104.842 Y43.396 E.01021
G3 X105.384 Y44.006 I-1.321 J1.719 E.02962
G1 X105.556 Y44.405 E.0157
G3 X105.542 Y45.641 I-2.154 J.592 E.04522
G1 X105.367 Y46.021 E.0151
G1 X105.054 Y46.413 E.01813
G1 X104.656 Y46.717 E.01807
G1 X104.22 Y46.908 E.01721
G1 X103.671 Y47 E.02008
G1 X103.208 Y46.951 E.01681
G1 X102.803 Y46.812 E.01548
G1 X102.36 Y46.521 E.01912
G1 X102.145 Y46.32 E.01061
G1 X101.878 Y45.921 E.01735
G3 X101.678 Y44.689 I1.864 J-.935 E.04578
G1 X101.741 Y44.412 E.01024
G1 E-.35 F2400
;WIPE_START
G1 F3600
G1 X101.753 Y44.359 E-.00817
G1 X101.927 Y43.979 E-.06271
G1 X102.248 Y43.58 E-.07685
G1 X102.26 Y43.57 E-.00227
;WIPE_END
G1 X102.482 Y51.199 Z.6 F30000
G1 X106.078 Y174.708 Z.6
M73 P7 R4
G1 Z.2
G1 E.5 F2400
;TYPE:Inner wall
G1 F3600
G1 X106.096 Y174.805 E.00353
G1 X106.081 Y175.328 E.0189
G1 X105.959 Y175.827 E.01853
G1 X105.74 Y176.284 E.01832
G1 X105.423 Y176.695 E.01875
G1 X105.032 Y177.028 E.01853
G1 X104.59 Y177.268 E.01816
G1 X104.087 Y177.416 E.01891
G1 X103.576 Y177.454 E.01853
G1 X103.068 Y177.386 E.0185
G1 X102.584 Y177.213 E.01857
G1 X102.147 Y176.943 E.01853
G1 X101.775 Y176.589 E.01853
G1 X101.486 Y176.165 E.01853
G1 X101.291 Y175.69 E.01853
G1 X101.199 Y175.185 E.01853
G1 X101.214 Y174.672 E.01853
G1 X101.335 Y174.173 E.01853
G1 X101.558 Y173.711 E.01853
G1 X101.871 Y173.305 E.01853
G1 X102.263 Y172.972 E.01853
G1 X102.714 Y172.729 E.01853
G1 X103.207 Y172.584 E.01853
G1 X103.719 Y172.546 E.01853
G1 X104.228 Y172.614 E.01853
G1 X104.711 Y172.787 E.01853
G1 X105.148 Y173.057 E.01853
G1 X105.519 Y173.411 E.01853
G1 X105.809 Y173.835 E.01853
G1 X106.004 Y174.31 E.01853
G1 X106.07 Y174.669 E.0132
G1 X105.551 Y174.391 F30000
;TYPE:Outer wall
G1 F3600
G1 X105.548 Y174.407 E.00058
G3 X105.542 Y175.641 I-1.995 J.606 E.04521
G1 X105.367 Y176.021 E.0151
G1 X105.044 Y176.422 E.01859
G1 X104.803 Y176.632 E.01154
G1 X104.439 Y176.837 E.01509
G1 X103.924 Y176.973 E.01925
G1 X103.623 Y177 E.01088
G1 X103.208 Y176.951 E.0151
G1 X102.695 Y176.749 E.0199
G1 X102.453 Y176.604 E.01021
G3 X101.927 Y173.979 I1.206 J-1.606 E.10576
G1 X102.241 Y173.587 E.01813
G1 X102.638 Y173.283 E.01807
G1 X103.075 Y173.092 E.01721
G1 X103.623 Y173 E.02008
G1 X104.086 Y173.049 E.01681
G1 X104.492 Y173.188 E.01548
G1 X104.934 Y173.479 E.01912
G1 X105.149 Y173.68 E.01061
G1 X105.417 Y174.079 E.01735
G1 X105.535 Y174.355 E.01084
G1 E-.35 F2400
;WIPE_START
G1 F3600
G1 X105.548 Y174.407 E-.00814
G1 X105.639 Y174.815 E-.0626
G1 X105.617 Y175.311 E-.07452
G1 X105.61 Y175.342 E-.00474
;WIPE_END
G1 X105.704 Y167.71 Z.6 F30000
G1 X107.22 Y44.383 Z.6
G1 Z.2
G1 E.5 F2400
;TYPE:Bottom surface
;WIDTH:0.500158
G1 F6300
G1 X104.535 Y41.699 E.13713
G1 X104.506 Y41.689 E.00113
G2 X103.778 Y41.588 I-.761 J2.803 E.02661
G1 X104.595 Y42.405 E.04176
G1 X104.799 Y42.471 E.00772
G1 X105.291 Y42.76 E.02059
G3 X106.261 Y44.071 I-1.803 J2.349 E.05969
G1 X107.063 Y44.873 E.04095
G3 X107.027 Y45.483 I-2.495 J.158 E.02214
G1 X106.415 Y44.871 E.03127
G1 X106.406 Y45.325 E.01642
G1 X106.372 Y45.475 E.00555
G1 X106.909 Y46.012 E.02743
G3 X106.729 Y46.479 I-1.919 J-.473 E.01811
G1 X106.236 Y45.986 E.02519
G1 X106.028 Y46.425 E.01754
G1 X106.497 Y46.894 E.02396
G1 X106.262 Y47.305 E.01712
G1 X105.758 Y46.801 E.02575
G1 X105.429 Y47.119 E.01652
G1 X106.042 Y47.732 E.03132
G1 X105.85 Y48.186 E.01781
G1 X105.05 Y47.386 E.04083
G3 X104.614 Y47.597 I-1.118 J-1.765 E.01754
G1 X105.695 Y48.678 E.05526
G2 X105.581 Y49.21 I2.345 J.785 E.01969
G1 X104.097 Y47.726 E.0758
G1 X103.647 Y47.779 E.01634
G1 X103.483 Y47.759 E.00596
G1 X105.695 Y49.971 E.11296
G1 E-.35 F2400
;WIPE_START
G1 F6300
G1 X104.988 Y49.264 E-.15
;WIPE_END
G1 X104.011 Y42.468 Z.6 F30000
G1 Z.2
G1 E.5 F2400
G1 F6300
G1 X103.161 Y41.617 E.04343
M73 P8 R4
G2 X102.636 Y41.739 I.215 J2.118 E.01951
G1 X103.167 Y42.27 E.02712
G1 X103.086 Y42.279 E.00292
G1 X102.666 Y42.416 E.01597
G1 X102.172 Y41.922 E.02525
G2 X101.759 Y42.155 I.711 J1.735 E.01718
G1 X102.23 Y42.626 E.02406
G2 X101.853 Y42.896 I.466 J1.049 E.01686
G1 X101.393 Y42.436 E.0235
G2 X101.07 Y42.759 I1.066 J1.391 E.01656
G1 X101.528 Y43.218 E.02343
G1 X101.257 Y43.594 E.01673
G1 X100.79 Y43.127 E.02386
G2 X100.557 Y43.54 I1.502 J1.123 E.01718
G1 X101.049 Y44.032 E.02517
G1 X101.021 Y44.096 E.00254
G1 X100.919 Y44.549 E.01674
G1 X100.376 Y44.005 E.02775
