; HEADER_BLOCK_START
; generated by Creality_Print V5.1.6.10470 on 2024-12-10 at 16:38:16
; total layer number: 89
; filament_density: 1.24
; filament_diameter: 1.75
; max_z_height: 17.80
; HEADER_BLOCK_END

; MINX = 93.45
; MINY = 90.30
; MINZ = 0.00
; MAXX = 126.55
; MAXY = 129.70
; MAXZ = 17.80

; THUMBNAIL_BLOCK_START

;
; THUMBNAIL_BLOCK_END

; THUMBNAIL_BLOCK_START

;
; THUMBNAIL_BLOCK_END

; external perimeters extrusion width = 0.42mm
; perimeters extrusion width = 0.45mm
; infill extrusion width = 0.45mm
; solid infill extrusion width = 0.42mm
; top infill extrusion width = 0.42mm
; support material extrusion width = 0.42mm
; first layer extrusion width = 0.50mm

; EXECUTABLE_BLOCK_START
EXCLUDE_OBJECT_DEFINE NAME=Servo_holder.stl_id_0_copy_0 CENTER=110,110 POLYGON=[[93.45,92.3],[93.4884,91.9098],[93.6022,91.5346],[93.7871,91.1889],[94.0358,90.8858],[94.3389,90.6371],[94.6846,90.4522],[95.0598,90.3384],[95.45,90.3],[124.55,90.3],[124.94,90.3384],[125.315,90.4522],[125.661,90.6371],[125.964,90.8858],[126.213,91.1889],[126.398,91.5346],[126.512,91.9098],[126.55,92.3],[126.55,127.7],[126.512,128.09],[126.398,128.465],[126.213,128.811],[125.964,129.114],[125.661,129.363],[125.315,129.548],[124.94,129.662],[124.55,129.7],[95.45,129.7],[95.0598,129.662],[94.6846,129.548],[94.3389,129.363],[94.0358,129.114],[93.7871,128.811],[93.6022,128.465],[93.4884,128.09],[93.45,127.7],[93.45,92.3]]
M73 P0 R9
M106 S0
M106 P2 S0
;TYPE:Custom
M140 S0
M104 S0 
START_PRINT EXTRUDER_TEMP=230 BED_TEMP=50
M141 S35;set chamber_temperature
G90
G21
M83 ; use relative distances for extrusion
; filament start gcode
M106 S0
;LAYER_CHANGE
;Z:0.2
;HEIGHT:0.2
;BEFORE_LAYER_CHANGE
;0.2
G92 E0

G1 E-.5 F2400
;AFTER_LAYER_CHANGE
;0.2
;_SET_FAN_SPEED_CHANGING_LAYER
SET_VELOCITY_LIMIT ACCEL=1000 ACCEL_TO_DECEL=1000
SET_VELOCITY_LIMIT SQUARE_CORNER_VELOCITY=20
; printing object Servo holder.stl id:0 copy 0
EXCLUDE_OBJECT_START NAME=Servo_holder.stl_id_0_copy_0
G1 X125.693 Y101.93 F30000
G1 Z.4
G1 Z.2
G1 E.5 F2400
;TYPE:Inner wall
;WIDTH:0.499999
G1 F3600
G1 X125.693 Y118.332 E.59223
G1 X125.706 Y118.606 E.00988
;WIDTH:0.47383
G1 X125.719 Y118.879 E.00932
;WIDTH:0.44766
G1 X125.739 Y119.139 E.00832
;WIDTH:0.407321
G1 X125.759 Y119.398 E.00749
;WIDTH:0.387048
G1 X125.749 Y119.908 E.01387
;WIDTH:0.424699
G1 X125.731 Y120.081 E.00525
;WIDTH:0.462349
G1 X125.712 Y120.254 E.00577
;WIDTH:0.499999
G1 X125.693 Y120.427 E.00628
G1 X125.693 Y127.658 E.26107
G1 X125.602 Y128.136 E.01756
G1 X125.355 Y128.505 E.01604
G1 X124.986 Y128.752 E.01604
G1 X124.508 Y128.843 E.01756
G1 X95.492 Y128.843 E1.04764
G1 X95.014 Y128.752 E.01756
G1 X94.645 Y128.505 E.01604
G1 X94.398 Y128.136 E.01604
G1 X94.307 Y127.658 E.01756
G1 X94.307 Y120.668 E.25238
G1 X94.292 Y120.394 E.00989
;WIDTH:0.469699
G1 X94.277 Y120.121 E.00923
;WIDTH:0.439398
G1 X94.259 Y119.861 E.00815
;WIDTH:0.40319
G1 X94.241 Y119.602 E.0074
;WIDTH:0.387048
G1 X94.251 Y119.092 E.01387
;WIDTH:0.424699
G1 X94.269 Y118.919 E.00525
;WIDTH:0.462349
G1 X94.288 Y118.746 E.00577
;WIDTH:0.499999
G1 X94.307 Y118.573 E.00628
G1 X94.307 Y101.668 E.61037
G1 X94.292 Y101.394 E.00989
;WIDTH:0.469699
G1 X94.277 Y101.121 E.00923
;WIDTH:0.439398
G1 X94.259 Y100.861 E.00815
;WIDTH:0.40319
G1 X94.241 Y100.602 E.0074
;WIDTH:0.387048
G1 X94.251 Y100.092 E.01387
;WIDTH:0.424699
G1 X94.269 Y99.919 E.00525
;WIDTH:0.462349
G1 X94.288 Y99.746 E.00577
;WIDTH:0.499999
G1 X94.307 Y99.573 E.00628
G1 X94.307 Y92.342 E.26107
G1 X94.398 Y91.864 E.01756
G1 X94.645 Y91.495 E.01604
G1 X95.014 Y91.248 E.01604
G1 X95.492 Y91.157 E.01756
G1 X123.827 Y91.159 E1.02305
G1 X124.772 Y91.183 E.03414
G1 X125.183 Y91.353 E.01604
G1 X125.497 Y91.667 E.01604
G1 X125.634 Y91.971 E.01204
G1 X125.693 Y92.403 E.01575
G1 X125.693 Y99.332 E.25017
G1 X125.706 Y99.606 E.00988
;WIDTH:0.47383
G1 X125.719 Y99.879 E.00932
;WIDTH:0.447661
G1 X125.739 Y100.139 E.00832
;WIDTH:0.407321
G1 X125.759 Y100.398 E.00749
;WIDTH:0.387049
G1 X125.749 Y100.908 E.01387
;WIDTH:0.424699
G1 X125.731 Y101.081 E.00525
;WIDTH:0.462349
G1 X125.712 Y101.254 E.00577
;WIDTH:0.499999
G1 X125.693 Y101.427 E.00628
G1 X125.693 Y101.89 E.0167
G1 E-.35 F2400
;WIPE_START
G1 F3600
G1 X125.693 Y102.89 E-.15
;WIPE_END
G1 X125.172 Y95.275 Z.6 F30000
G1 X124.862 Y90.733 Z.6
G1 Z.2
G1 E.5 F2400
;TYPE:Outer wall
G1 F3600
G1 X125.3 Y90.897 E.01689
G1 X125.68 Y91.17 E.01689
G1 X125.953 Y91.55 E.01689
G1 X126.117 Y91.988 E.01689
G1 X126.15 Y92.403 E.01503
G1 X126.15 Y126.976 E1.24829
G1 X126.133 Y127.856 E.03177
G1 X126.026 Y128.312 E.01689
G1 X125.779 Y128.709 E.01689
G1 X125.438 Y129.029 E.01689
G1 X125.012 Y129.222 E.01689
G1 X124.53 Y129.3 E.01761
G1 X96.174 Y129.3 E1.02384
G1 X95.294 Y129.283 E.03177
G1 X94.838 Y129.176 E.01689
G1 X94.441 Y128.929 E.01689
G1 X94.121 Y128.588 E.01689
G1 X93.928 Y128.162 E.01689
G1 X93.85 Y127.68 E.01761
G1 X93.85 Y93.024 E1.25131
M73 P1 R9
G1 X93.867 Y92.144 E.03177
G1 X93.974 Y91.688 E.01689
G1 X94.221 Y91.291 E.01689
G1 X94.562 Y90.971 E.01689
G1 X94.988 Y90.778 E.01689
G1 X95.47 Y90.7 E.01761
G1 X123.827 Y90.702 E1.02386
M73 P1 R8
G1 X124.822 Y90.731 E.03594
G1 E-.35 F2400
;WIPE_START
G1 F3600
G1 X125.3 Y90.897 E-.07589
G1 X125.68 Y91.17 E-.07018
G1 X125.695 Y91.191 E-.00393
;WIPE_END
G1 X118.515 Y93.779 Z.6 F30000
G1 X95.43 Y102.099 Z.6
G1 Z.2
G1 E.5 F2400
;TYPE:Inner wall
G1 F3600
G1 X95.346 Y102.06 E.00336
G1 X94.977 Y101.747 E.01748
G1 X94.701 Y101.349 E.01748
G1 X94.665 Y101.194 E.00572
;WIDTH:0.462349
G1 X94.629 Y101.04 E.00525
;WIDTH:0.424699
G1 X94.593 Y100.886 E.00478
;WIDTH:0.387048
G1 X94.563 Y100.419 E.01271
;WIDTH:0.407322
G1 X94.586 Y100.182 E.00687
;WIDTH:0.447662
G1 X94.608 Y99.944 E.00763
;WIDTH:0.473831
G1 X94.699 Y99.72 E.00823
;WIDTH:0.499999
G1 X94.79 Y99.496 E.00873
G1 X95.103 Y99.127 E.01748
G1 X95.501 Y98.851 E.01748
G1 X95.957 Y98.687 E.0175
G1 X96.442 Y98.648 E.01755
G1 X96.922 Y98.738 E.01764
G1 X97.369 Y98.958 E.01799
G1 X97.601 Y99.148 E.01082
G3 X97.593 Y94.583 I235.386 J-2.699 E.16482
G1 X97.639 Y94.285 E.01091
G1 X97.844 Y93.883 E.01627
G1 X98.187 Y93.591 E.01627
G1 X98.647 Y93.443 E.01742
G1 X121.267 Y93.443 E.81673
G1 X121.565 Y93.489 E.01091
G1 X121.967 Y93.694 E.01627
G1 X122.263 Y94.044 E.01656
G1 X122.407 Y94.49 E.01693
G1 X122.406 Y97.029 E.09168
G3 X122.401 Y99.146 I-41.798 J.973 E.07643
G1 X122.796 Y98.858 E.01766
G1 X123.255 Y98.689 E.01763
G1 X123.739 Y98.648 E.01754
G1 X124.216 Y98.734 E.0175
G1 X124.654 Y98.94 E.01748
G1 X125.023 Y99.253 E.01748
G1 X125.299 Y99.651 E.01748
G1 X125.335 Y99.806 E.00572
;WIDTH:0.462349
G1 X125.371 Y99.96 E.00525
;WIDTH:0.424699
G1 X125.407 Y100.114 E.00478
;WIDTH:0.387049
G1 X125.437 Y100.581 E.01271
;WIDTH:0.40319
G1 X125.413 Y100.818 E.00677
;WIDTH:0.439398
G1 X125.388 Y101.054 E.00745
;WIDTH:0.469699
G1 X125.344 Y101.202 E.00519
;WIDTH:0.499999
G1 X125.299 Y101.349 E.00555
G1 X125.023 Y101.747 E.01748
G1 X124.654 Y102.06 E.01748
G1 X124.216 Y102.266 E.01749
G1 X123.739 Y102.352 E.0175
G1 X123.255 Y102.311 E.01755
G1 X122.797 Y102.142 E.01763
G1 X122.399 Y101.852 E.01778
G3 X122.407 Y106.417 I-235.506 J2.7 E.16482
G1 X122.361 Y106.715 E.01091
G1 X122.156 Y107.117 E.01627
G1 X121.813 Y107.409 E.01627
G3 X121.267 Y107.557 I-.576 J-1.041 E.02062
G1 X98.733 Y107.557 E.8136
G1 X98.28 Y107.461 E.01671
G1 X98.033 Y107.306 E.01053
G1 X97.741 Y106.963 E.01627
G1 X97.593 Y106.503 E.01743
G1 X97.594 Y103.971 E.09145
G3 X97.599 Y101.854 I41.801 J-.973 E.07643
G1 X97.204 Y102.142 E.01766
G1 X96.745 Y102.311 E.01763
G1 X96.261 Y102.352 E.01754
G1 X95.784 Y102.266 E.0175
G1 X95.467 Y102.117 E.01268
G1 X95.973 Y101.846 F30000
;TYPE:Outer wall
G1 F3600
G1 X95.959 Y101.844 E.0005
G3 X95.339 Y101.469 I.391 J-1.344 E.02646
G3 X96.743 Y99.158 I1.01 J-.968 E.13235
G1 X97.079 Y99.312 E.01335
G1 X97.358 Y99.551 E.01326
;WIDTH:0.501972
G1 X97.563 Y99.866 E.01363
;WIDTH:0.502094
G1 X97.653 Y100.214 E.01304
G1 X97.652 Y100.786 E.02072
;WIDTH:0.500272
G1 X97.53 Y101.201 E.01563
;WIDTH:0.499999
G1 X97.315 Y101.496 E.01317
G1 X97.024 Y101.722 E.0133
G1 X96.684 Y101.858 E.01323
G1 X96.223 Y101.887 E.01667
G1 X96.012 Y101.853 E.00772
G1 E-.35 F2400
;WIPE_START
G1 F3600
G1 X95.959 Y101.844 E-.00806
G1 X95.624 Y101.697 E-.05482
G1 X95.339 Y101.469 E-.05481
G1 X95.212 Y101.295 E-.03231
;WIPE_END
G1 X102.568 Y99.26 Z.6 F30000
G1 X121.593 Y93.998 Z.6
G1 Z.2
G1 E.5 F2400
G1 F3600
G1 X121.776 Y94.137 E.0083
G1 X121.913 Y94.374 E.00987
G1 X121.95 Y94.583 E.00768
G1 X121.947 Y99.025 E.16039
G1 X121.933 Y99.532 E.0183
;WIDTH:0.505163
G2 X121.888 Y100.797 I15.862 J1.196 E.04625
;WIDTH:0.502094
G1 X121.918 Y101.389 E.02149
;WIDTH:0.499999
G3 X121.948 Y102.708 I-13.062 J.959 E.04763
G1 X121.95 Y106.417 E.13393
G1 X121.879 Y106.709 E.01085
G1 X121.713 Y106.926 E.00987
G1 X121.476 Y107.063 E.00987
G1 X121.267 Y107.1 E.00768
G1 X98.733 Y107.1 E.8136
G1 X98.441 Y107.029 E.01085
G1 X98.224 Y106.863 E.00987
G1 X98.087 Y106.626 E.00987
G1 X98.05 Y106.417 E.00768
G1 X98.053 Y101.975 E.16039
G1 X98.067 Y101.468 E.0183
;WIDTH:0.503117
G2 X98.112 Y100.203 I-14.642 J-1.153 E.04604
;WIDTH:0.502094
G1 X98.082 Y99.611 E.02149
;WIDTH:0.499999
G3 X98.052 Y98.293 I13.06 J-.959 E.04763
G1 X98.05 Y94.583 E.13393
G1 X98.121 Y94.291 E.01084
G1 X98.287 Y94.074 E.00987
G1 X98.524 Y93.937 E.00987
G1 X98.733 Y93.9 E.00768
G1 X121.267 Y93.9 E.8136
G1 X121.559 Y93.971 E.01085
G1 X121.561 Y93.973 E.00013
G1 E-.35 F2400
;WIPE_START
G1 F3600
G1 X121.776 Y94.137 E-.04046
G1 X121.913 Y94.374 E-.04099
G1 X121.95 Y94.583 E-.03192
G1 X121.95 Y94.827 E-.03662
;WIPE_END
G1 X122.049 Y102.459 Z.6 F30000
G1 X122.185 Y112.951 Z.6
G1 Z.2
G1 E.5 F2400
;TYPE:Inner wall
G1 F3600
G1 X122.259 Y113.037 E.0041
G1 X122.407 Y113.49 E.01719
G1 X122.406 Y116.029 E.0917
M73 P2 R8
G3 X122.401 Y118.146 I-41.828 J.973 E.07643
G1 X122.796 Y117.858 E.01767
G1 X123.255 Y117.689 E.01763
G1 X123.739 Y117.648 E.01755
G1 X124.216 Y117.734 E.0175
G1 X124.654 Y117.94 E.01749
G1 X125.023 Y118.253 E.01748
G1 X125.299 Y118.651 E.01748
G1 X125.335 Y118.806 E.00572
;WIDTH:0.462349
G1 X125.371 Y118.96 E.00525
;WIDTH:0.424699
G1 X125.407 Y119.114 E.00478
;WIDTH:0.387049
G1 X125.437 Y119.581 E.01271
;WIDTH:0.40319
G1 X125.413 Y119.818 E.00677
;WIDTH:0.439399
G1 X125.388 Y120.054 E.00745
;WIDTH:0.469699
G1 X125.344 Y120.202 E.00519
;WIDTH:0.499999
G1 X125.299 Y120.349 E.00555
G1 X125.023 Y120.747 E.01748
G1 X124.654 Y121.06 E.01748
G1 X124.216 Y121.266 E.01748
G1 X123.739 Y121.352 E.0175
G1 X123.255 Y121.311 E.01755
G1 X122.796 Y121.142 E.01763
G1 X122.399 Y120.852 E.01777
G3 X122.407 Y125.417 I-235.436 J2.699 E.16482
G1 X122.361 Y125.715 E.01091
G1 X122.156 Y126.117 E.01627
G1 X121.813 Y126.409 E.01627
G1 X121.353 Y126.557 E.01742
G1 X98.733 Y126.557 E.81673
G1 X98.435 Y126.511 E.01091
G1 X98.033 Y126.306 E.01627
G1 X97.737 Y125.956 E.01654
G1 X97.593 Y125.503 E.01718
G1 X97.594 Y122.971 E.09143
G3 X97.599 Y120.854 I41.813 J-.973 E.07643
G1 X97.204 Y121.142 E.01766
G1 X96.745 Y121.311 E.01763
G1 X96.261 Y121.352 E.01755
G1 X95.784 Y121.266 E.0175
G1 X95.346 Y121.06 E.01748
G1 X94.977 Y120.747 E.01748
G1 X94.701 Y120.349 E.01748
G1 X94.665 Y120.194 E.00572
;WIDTH:0.462349
G1 X94.629 Y120.04 E.00525
;WIDTH:0.424699
G1 X94.593 Y119.886 E.00478
;WIDTH:0.387048
G1 X94.563 Y119.419 E.01271
;WIDTH:0.407321
G1 X94.586 Y119.182 E.00687
;WIDTH:0.447661
G1 X94.608 Y118.944 E.00763
;WIDTH:0.47383
G1 X94.699 Y118.72 E.00823
;WIDTH:0.499999
G1 X94.79 Y118.496 E.00873
G1 X95.103 Y118.127 E.01748
G1 X95.501 Y117.851 E.01749
G1 X95.957 Y117.687 E.0175
G1 X96.442 Y117.648 E.01755
G1 X96.922 Y117.738 E.01764
G1 X97.369 Y117.958 E.018
G1 X97.601 Y118.148 E.01082
G3 X97.593 Y113.583 I235.462 J-2.7 E.16482
G1 X97.639 Y113.285 E.01091
G1 X97.844 Y112.883 E.01627
G1 X98.187 Y112.591 E.01627
G1 X98.435 Y112.489 E.00966
G1 X98.733 Y112.443 E.01091
G1 X121.267 Y112.443 E.8136
G1 X121.72 Y112.539 E.01671
G1 X121.967 Y112.694 E.01053
G1 X122.159 Y112.921 E.01073
G1 X121.59 Y112.995 F30000
;TYPE:Outer wall
G1 F3600
G1 X121.776 Y113.137 E.00845
G1 X121.913 Y113.374 E.00987
G1 X121.95 Y113.583 E.00768
G1 X121.947 Y118.025 E.16039
G1 X121.933 Y118.532 E.0183
;WIDTH:0.505163
G2 X121.888 Y119.797 I15.861 J1.196 E.04625
;WIDTH:0.502094
G1 X121.918 Y120.389 E.02149
;WIDTH:0.499999
G3 X121.948 Y121.707 I-13.061 J.959 E.04763
G1 X121.95 Y125.417 E.13393
G1 X121.879 Y125.709 E.01084
G1 X121.713 Y125.926 E.00987
G1 X121.476 Y126.063 E.00987
G1 X121.267 Y126.1 E.00768
G1 X98.733 Y126.1 E.8136
G1 X98.441 Y126.029 E.01085
G1 X98.224 Y125.863 E.00987
G1 X98.087 Y125.626 E.00987
G1 X98.05 Y125.417 E.00768
G1 X98.053 Y120.975 E.16039
G1 X98.067 Y120.468 E.0183
;WIDTH:0.503116
G2 X98.112 Y119.203 I-14.644 J-1.153 E.04604
;WIDTH:0.502094
G1 X98.082 Y118.611 E.02149
;WIDTH:0.499999
G3 X98.052 Y117.292 I13.062 J-.959 E.04763
G1 X98.05 Y113.583 E.13393
G1 X98.121 Y113.291 E.01085
G1 X98.287 Y113.074 E.00987
G1 X98.524 Y112.937 E.00987
G1 X98.733 Y112.9 E.00768
G1 X121.267 Y112.9 E.8136
G1 X121.558 Y112.971 E.01082
G1 E-.35 F2400
;WIPE_START
G1 F3600
G1 X121.776 Y113.137 E-.04111
G1 X121.913 Y113.374 E-.04099
G1 X121.95 Y113.583 E-.03193
G1 X121.95 Y113.823 E-.03598
;WIPE_END
G1 X114.581 Y115.812 Z.6 F30000
G1 X97.335 Y120.468 Z.6
G1 Z.2
G1 E.5 F2400
G1 F3600
G1 X97.315 Y120.496 E.00125
G1 X97.024 Y120.722 E.0133
G1 X96.684 Y120.858 E.01323
G1 X96.223 Y120.887 E.01667
G1 X95.959 Y120.844 E.00966
G3 X94.95 Y119.53 I.442 J-1.383 E.06365
G1 X95.006 Y119.109 E.01533
G3 X96.743 Y118.158 I1.342 J.39 E.07945
G1 X97.08 Y118.312 E.01335
G1 X97.358 Y118.551 E.01326
;WIDTH:0.501972
G1 X97.563 Y118.866 E.01363
;WIDTH:0.502094
G1 X97.653 Y119.214 E.01304
G1 X97.652 Y119.786 E.02072
;WIDTH:0.500271
G1 X97.53 Y120.201 E.01563
;WIDTH:0.499999
G1 X97.359 Y120.435 E.01048
G1 E-.35 F2400
;WIPE_START
G1 F3600
G1 X97.315 Y120.496 E-.01117
G1 X97.024 Y120.722 E-.05525
G1 X96.684 Y120.858 E-.05498
G1 X96.494 Y120.87 E-.0286
;WIPE_END
G1 X104.09 Y120.129 Z.6 F30000
G1 X122.965 Y118.287 Z.6
G1 Z.2
G1 E.5 F2400
G1 F3600
G1 X122.976 Y118.278 E.00051
G1 X123.316 Y118.142 E.01323
G1 X123.777 Y118.113 E.01667
G1 X124.041 Y118.156 E.00966
G3 X125.051 Y119.5 I-.443 J1.385 E.06474
G1 X124.994 Y119.891 E.01427
G3 X123.257 Y120.842 I-1.342 J-.39 E.07945
G1 X122.921 Y120.688 E.01335
G1 X122.642 Y120.449 E.01326
;WIDTH:0.50101
G1 X122.438 Y120.134 E.01359
;WIDTH:0.502094
G1 X122.347 Y119.786 E.01304
G1 X122.348 Y119.214 E.02072
;WIDTH:0.500271
G1 X122.47 Y118.799 E.01563
;WIDTH:0.499999
G1 X122.685 Y118.504 E.01317
G1 X122.933 Y118.311 E.01135
G1 E-.35 F2400
;WIPE_START
G1 F3600
G1 X122.976 Y118.278 E-.00811
G1 X123.316 Y118.142 E-.05497
G1 X123.777 Y118.113 E-.06925
G1 X123.893 Y118.132 E-.01767
;WIPE_END
G1 X124.319 Y110.512 Z.6 F30000
G1 X124.838 Y101.237 Z.6
G1 Z.2
G1 E.5 F2400
G1 F3600
G1 X124.618 Y101.51 E.01265
G3 X123.257 Y101.842 I-.967 J-1.011 E.05297
G1 X122.92 Y101.688 E.01335
G1 X122.642 Y101.449 E.01326
;WIDTH:0.50101
G1 X122.438 Y101.134 E.01359
;WIDTH:0.502094
G1 X122.347 Y100.786 E.01304
G1 X122.348 Y100.214 E.02072
;WIDTH:0.500271
G1 X122.47 Y99.799 E.01563
;WIDTH:0.499999
G1 X122.685 Y99.504 E.01317
G1 X122.976 Y99.278 E.0133
G1 X123.316 Y99.142 E.01323
G1 X123.777 Y99.113 E.01667
G1 X124.041 Y99.156 E.00966
G3 X124.859 Y101.204 I-.391 J1.343 E.09171
G1 E-.35 F2400
;WIPE_START
G1 F3600
G1 X124.618 Y101.51 E-.05849
G1 X124.324 Y101.727 E-.0548
G1 X124.096 Y101.816 E-.03671
;WIPE_END
G1 X125.579 Y102.712 Z.6 F30000
G1 Z.2
G1 E.5 F2400
;TYPE:Bottom surface
;WIDTH:0.504896
G1 F6300
G1 X125.036 Y102.17 E.02799
G3 X124.645 Y102.432 I-1.191 J-1.353 E.01723
G1 X125.373 Y103.16 E.03756
G1 X125.373 Y103.813 E.02384
M73 P3 R8
G1 X124.168 Y102.608 E.06217
G3 X123.577 Y102.67 I-.557 J-2.474 E.02175
G1 X125.373 Y104.466 E.0927
G1 X125.373 Y105.12 E.02384
G1 X122.725 Y102.471 E.13668
G1 X122.725 Y103.125 E.02386
G1 X125.373 Y105.773 E.13666
G1 X125.373 Y106.426 E.02384
G1 X122.725 Y103.779 E.13664
G1 X122.726 Y104.433 E.02386
G1 X125.373 Y107.08 E.13662
G1 X125.373 Y107.733 E.02384
G1 X122.726 Y105.086 E.1366
G1 X122.727 Y105.74 E.02386
G1 X125.373 Y108.386 E.13657
