; HEADER_BLOCK_START
; generated by Creality_Print V5.1.6.10470 on 2024-12-10 at 16:39:26
; total layer number: 40
; filament_density: 1.24
; filament_diameter: 1.75
; max_z_height: 8.00
; HEADER_BLOCK_END

; MINX = 102.32
; MINY = 104.92
; MINZ = -0.00
; MAXX = 118.20
; MAXY = 115.08
; MAXZ = 8.00

; THUMBNAIL_BLOCK_START

;
; THUMBNAIL_BLOCK_END

; THUMBNAIL_BLOCK_START

;
; THUMBNAIL_BLOCK_END

; external perimeters extrusion width = 0.42mm
; perimeters extrusion width = 0.45mm
; infill extrusion width = 0.45mm
; solid infill extrusion width = 0.42mm
; top infill extrusion width = 0.42mm
; support material extrusion width = 0.42mm
; first layer extrusion width = 0.50mm

; EXECUTABLE_BLOCK_START
EXCLUDE_OBJECT_DEFINE NAME=Stopper.stl_id_0_copy_0 CENTER=110.257,110 POLYGON=[[102.319,109.689],[102.395,109.071],[102.546,108.467],[102.769,107.886],[103.062,107.337],[103.42,106.827],[103.837,106.365],[104.307,105.958],[104.824,105.611],[105.38,105.33],[105.965,105.118],[106.572,104.98],[107.191,104.917],[107.814,104.93],[118.196,106.2],[118.196,113.8],[107.814,115.07],[107.191,115.083],[106.572,115.02],[105.965,114.882],[105.38,114.67],[104.824,114.389],[104.307,114.042],[103.837,113.635],[103.42,113.173],[103.062,112.663],[102.769,112.114],[102.546,111.533],[102.395,110.929],[102.319,110.311],[102.319,109.689]]
M73 P0 R3
M106 S0
M106 P2 S0
;TYPE:Custom
M140 S0
M104 S0 
START_PRINT EXTRUDER_TEMP=230 BED_TEMP=50
M141 S35;set chamber_temperature
G90
G21
M83 ; use relative distances for extrusion
; filament start gcode
M106 S0
;LAYER_CHANGE
;Z:0.2
;HEIGHT:0.2
;BEFORE_LAYER_CHANGE
;0.2
G92 E0

G1 E-.5 F2400
;AFTER_LAYER_CHANGE
;0.2
;_SET_FAN_SPEED_CHANGING_LAYER
SET_VELOCITY_LIMIT ACCEL=1000 ACCEL_TO_DECEL=1000
SET_VELOCITY_LIMIT SQUARE_CORNER_VELOCITY=20
; printing object Stopper.stl id:0 copy 0
EXCLUDE_OBJECT_START NAME=Stopper.stl_id_0_copy_0
G1 X103.752 Y109.036 F30000
G1 Z.4
G1 Z.2
G1 E.5 F2400
;TYPE:Inner wall
;WIDTH:0.523439
G1 F2726
G1 X103.727 Y109.274 E.00907
;WIDTH:0.553097
G2 X103.731 Y110.657 I11.749 J.664 E.05579
;WIDTH:0.516952
G1 X103.749 Y111.073 E.01556
;WIDTH:0.480806
G1 X103.896 Y111.583 E.01836
;WIDTH:0.49313
G1 X104.15 Y111.903 E.01454
;WIDTH:0.499999
G1 X104.455 Y112.082 E.01278
G1 X104.824 Y112.157 E.01358
G1 X110.633 Y112.157 E.20974
;WIDTH:0.545436
G1 X110.785 Y112.18 E.00613
;WIDTH:0.590873
G1 X110.938 Y112.203 E.00668
;WIDTH:0.63631
G1 X111.091 Y112.225 E.00723
;WIDTH:0.681746
G1 X111.243 Y112.248 E.00779
G1 X111.767 Y112.239 E.02645
;WIDTH:0.66438
G1 X114.989 Y112.239 E.15816
G1 X114.989 Y112.861 E.03051
G1 X111.727 Y112.861 E.16011
;WIDTH:0.667266
G1 X111.158 Y112.909 E.0282
G1 X111.028 Y112.96 E.00688
;WIDTH:0.62545
G1 X110.898 Y113.012 E.00642
;WIDTH:0.583633
G1 X110.768 Y113.063 E.00596
;WIDTH:0.541816
G1 X110.639 Y113.115 E.0055
;WIDTH:0.499999
G1 X110.122 Y113.316 E.02004
G1 X109.187 Y113.827 E.03845
G3 X103.781 Y112.196 I-1.785 J-3.859 E.22298
;WIDTH:0.494785
G1 X103.524 Y111.755 E.01821
;WIDTH:0.46899
G1 X103.346 Y111.266 E.01751
;WIDTH:0.496215
G1 X103.297 Y111.011 E.00931
;WIDTH:0.523439
G1 X103.249 Y110.755 E.00987
;WIDTH:0.553097
G3 X103.205 Y109.721 I5.431 J-.748 E.04181
;WIDTH:0.552727
G1 X103.254 Y109.216 E.02043
;WIDTH:0.523439
G1 X103.304 Y108.962 E.0098
;WIDTH:0.496215
G1 X103.354 Y108.709 E.00925
;WIDTH:0.46899
G1 X103.535 Y108.222 E.01748
;WIDTH:0.489448
G1 X103.798 Y107.771 E.0184
;WIDTH:0.499999
G3 X109.235 Y106.192 I3.603 J2.256 E.22371
G1 X110.122 Y106.684 E.03661
G1 X110.639 Y106.885 E.02004
;WIDTH:0.548257
G1 X110.768 Y106.94 E.00559
;WIDTH:0.596515
G1 X110.897 Y106.995 E.00613
;WIDTH:0.644773
G1 X111.026 Y107.049 E.00666
;WIDTH:0.69303
G2 X111.266 Y107.114 I.222 J-.345 E.01297
;WIDTH:0.681744
G1 X111.767 Y107.139 E.02533
;WIDTH:0.66438
G1 X114.989 Y107.139 E.15816
M73 P1 R3
G1 X114.989 Y107.761 E.03051
G1 X111.721 Y107.761 E.16044
;WIDTH:0.69303
G1 X111.086 Y107.746 E.03261
G1 X110.972 Y107.771 E.00595
;WIDTH:0.644773
G1 X110.859 Y107.795 E.00551
;WIDTH:0.596515
G1 X110.746 Y107.819 E.00507
;WIDTH:0.548257
G1 X110.633 Y107.843 E.00462
;WIDTH:0.499999
G1 X104.824 Y107.843 E.20974
G1 X104.455 Y107.918 E.01358
G1 X104.164 Y108.087 E.01217
;WIDTH:0.489448
G1 X103.896 Y108.417 E.01501
;WIDTH:0.462106
G1 X103.781 Y108.755 E.01181
;WIDTH:0.492773
G1 X103.756 Y108.996 E.00863
G1 X104.276 Y108.626 F30000
;TYPE:Outer wall
;WIDTH:0.499999
G1 F2726
G1 X104.196 Y108.927 E.01125
G1 X104.196 Y111.073 E.07745
G1 X104.296 Y111.404 E.01251
G1 X104.573 Y111.641 E.01316
G1 X104.824 Y111.7 E.00929
G1 X115.528 Y111.7 E.3865
M73 P1 R2
G1 X115.528 Y113.4 E.06138
G1 X111.767 Y113.4 E.13579
G2 X110.343 Y113.716 I.097 J3.81 E.05299
G1 X109.433 Y114.221 E.03759
G3 X109.433 Y105.779 I-2.03 J-4.221 E.6829
G1 X110.343 Y106.284 E.03759
G2 X111.767 Y106.6 I1.521 J-3.493 E.05299
G1 X115.528 Y106.6 E.13579
G1 X115.528 Y108.3 E.06138
G1 X104.817 Y108.3 E.38673
M73 P2 R2
G1 X104.475 Y108.414 E.01303
G1 X104.303 Y108.597 E.00906
G1 E-.35 F2400
;WIPE_START
G1 F3600
G1 X104.196 Y108.927 E-.05209
G1 X104.196 Y109.58 E-.09791
;WIPE_END
G1 X109.19 Y106.298 Z.6 F30000
G1 Z.2
G1 E.5 F2400
;TYPE:Bottom surface
;WIDTH:0.524615
G1 F2726
G1 X110.415 Y107.523 E.06593
G1 X109.734 Y107.523 E.02592
G1 X108.457 Y106.246 E.0687
G2 X107.633 Y106.104 I-1.142 J4.142 E.03187
G1 X109.052 Y107.523 E.07638
G1 X108.371 Y107.523 E.02592
G1 X106.973 Y106.125 E.07523
G2 X106.395 Y106.228 I.089 J2.186 E.02243
G1 X107.69 Y107.523 E.06971
G1 X107.009 Y107.523 E.02592
G1 X105.884 Y106.399 E.0605
G1 X105.429 Y106.624 E.01935
G1 X106.328 Y107.523 E.04838
G1 X105.647 Y107.523 E.02592
G1 X105.021 Y106.897 E.03368
G1 X104.656 Y107.214 E.01837
G1 X105.171 Y107.729 E.0277
G1 E-.35 F2400
;WIPE_START
G1 F6300
G1 X104.656 Y107.214 E-.10919
G1 X104.862 Y107.036 E-.04081
;WIPE_END
G1 X110.71 Y107.581 Z.6 F30000
G1 Z.2
G1 E.5 F2400
;TYPE:Gap infill
;WIDTH:0.194936
G1 F2726
G1 X110.744 Y107.518 E.00086
;WIDTH:0.241998
G1 X110.777 Y107.455 E.00113
;WIDTH:0.301356
G1 X110.811 Y107.392 E.00146
G2 X110.372 Y107.019 I-3.946 J4.206 E.01175
G1 E-.35 F2400
;WIPE_START
G1 F3600
G1 X110.811 Y107.392 E-.1334
G1 X110.777 Y107.455 E-.0166
;WIPE_END
G1 X110.809 Y112.919 Z.6 F30000
G1 Z.2
G1 E.5 F2400
;TYPE:Bottom surface
;WIDTH:0.515061
G1 F2726
G1 X110.366 Y112.477 E.02333
G1 X109.699 Y112.477 E.0249
G1 X110.178 Y112.956 E.02526
G2 X109.724 Y113.17 I.493 J1.629 E.01877
G1 X109.031 Y112.477 E.03658
G1 X108.363 Y112.477 E.0249
G1 X109.295 Y113.409 E.04914
G3 X108.841 Y113.623 I-1.13 J-1.803 E.01875
G1 X107.695 Y112.477 E.06045
G1 X107.028 Y112.477 E.0249
G1 X108.337 Y113.786 E.06907
G3 X107.77 Y113.887 I-.693 J-2.254 E.02153
G1 X106.36 Y112.477 E.07438
G1 X105.692 Y112.477 E.0249
M73 P3 R2
G1 X107.107 Y113.891 E.0746
G3 X106.298 Y113.75 I.168 J-3.356 E.03069
G1 X105.024 Y112.477 E.06717
G3 X104.394 Y112.397 I-.083 J-1.881 E.02382
G1 X104.358 Y112.456 E.00255
G1 X104.569 Y112.689 E.01171
G1 X105.545 Y113.665 E.05153
G1 X105.844 Y113.663 F30000
;TYPE:Gap infill
;WIDTH:0.0977699
G1 F2726
G1 X105.672 Y113.538 E.00092
; stop printing object Stopper.stl id:0 copy 0
;TIME_ELAPSED:5.691972

M106 S255
;LAYER_CHANGE
;Z:0.4
;HEIGHT:0.2
;BEFORE_LAYER_CHANGE
;0.4
G92 E0

G1 E-.35906 F2400
;WIPE_START
G1 F3600
G1 X105.844 Y113.663 E-.14094
;WIPE_END
EXCLUDE_OBJECT_END NAME=Stopper.stl_id_0_copy_0
;AFTER_LAYER_CHANGE
;0.4
;_SET_FAN_SPEED_CHANGING_LAYER
SET_VELOCITY_LIMIT ACCEL=12000 ACCEL_TO_DECEL=12000
M140 S50 ; set bed temperature
; printing object Stopper.stl id:0 copy 0
EXCLUDE_OBJECT_START NAME=Stopper.stl_id_0_copy_0
G17
G3 Z.6 I1.129 J-.454 P1  F30000
G1 X103.994 Y109.059 Z.6
G1 Z.4
G1 E.5 F2400
SET_VELOCITY_LIMIT ACCEL=5000 ACCEL_TO_DECEL=5000
;TYPE:Inner wall
;WIDTH:0.449999
G1 F3565
G1 X104.001 Y111.144 E.06705
G1 X104.102 Y111.467 E.01088
G1 X104.299 Y111.696 E.00971
G1 X104.542 Y111.841 E.0091
G1 X104.843 Y111.902 E.00988
G1 X105.141 Y111.902 E.00958
G1 X115.028 Y111.902 E.31793
G1 X115.891 Y111.902 E.02775
G1 X115.891 Y113.198 E.04167
G1 X115.028 Y113.198 E.02775
G1 X112.046 Y113.198 E.09589
G1 X111.749 Y113.198 E.00955
G1 X111.219 Y113.242 E.0171
G1 X110.718 Y113.357 E.01653
G1 X110.235 Y113.545 E.01667
G1 X109.346 Y114.038 E.03269
G1 X108.838 Y114.246 E.01765
G1 X108.287 Y114.393 E.01834
G1 X107.764 Y114.469 E.01699
G1 X107.216 Y114.48 E.01763
G1 X106.67 Y114.425 E.01765
G1 X106.135 Y114.303 E.01765
G1 X105.619 Y114.117 E.01764
G1 X105.129 Y113.869 E.01766
G1 X104.674 Y113.563 E.01763
G1 X104.259 Y113.204 E.01765
G1 X103.892 Y112.797 E.01762
G1 X103.566 Y112.329 E.01834
G1 X103.318 Y111.863 E.01697
G1 X103.121 Y111.351 E.01764
G1 X102.988 Y110.819 E.01763
G1 X102.921 Y110.274 E.01766
G1 X102.921 Y109.726 E.01762
G1 X102.988 Y109.181 E.01766
G1 X103.121 Y108.649 E.01763
G1 X103.318 Y108.137 E.01764
G1 X103.576 Y107.653 E.01764
G1 X103.891 Y107.204 E.01764
G1 X104.259 Y106.796 E.01767
G1 X104.674 Y106.437 E.01765
G1 X105.129 Y106.131 E.01763
G1 X105.619 Y105.883 E.01766
G1 X106.135 Y105.697 E.01764
G1 X106.67 Y105.575 E.01765
G1 X107.216 Y105.52 E.01765
G1 X107.764 Y105.531 E.01763
G1 X108.307 Y105.61 E.01764
G1 X108.837 Y105.754 E.01766
G1 X109.346 Y105.962 E.01768
G1 X110.235 Y106.455 E.03269
G1 X110.718 Y106.643 E.01667
G1 X111.219 Y106.758 E.01653
G1 X111.773 Y106.802 E.01787
G1 X112.071 Y106.802 E.00958
G1 X115.028 Y106.802 E.09509
G1 X115.891 Y106.802 E.02775
G1 X115.891 Y108.098 E.04167
G1 X115.028 Y108.098 E.02775
G1 X105.534 Y108.098 E.30529
G1 X105.236 Y108.098 E.00958
G1 X104.693 Y108.118 E.01747
G1 X104.324 Y108.28 E.01296
G1 X104.2 Y108.403 E.00562
G1 X104.069 Y108.605 E.00774
G1 X103.994 Y108.947 E.01126
G1 X103.994 Y109.019 E.00232
SET_VELOCITY_LIMIT ACCEL=12000 ACCEL_TO_DECEL=12000
G1 X104.477 Y108.681 F30000
SET_VELOCITY_LIMIT ACCEL=5000 ACCEL_TO_DECEL=5000
;TYPE:Outer wall
;WIDTH:0.419999
G1 F3565
G1 X104.386 Y108.947 E.00837
G1 X104.386 Y111.053 E.06273
G1 X104.428 Y111.235 E.00556
G1 X104.577 Y111.419 E.00705
G1 X104.843 Y111.51 E.00837
G1 X105.473 Y111.51 E.01877
G1 X115.088 Y111.51 E.2864
G1 F3000
G1 X115.928 Y111.51 E.02502
G1 F1500
G1 X116.128 Y111.51 E.00596
SET_VELOCITY_LIMIT ACCEL=2500 ACCEL_TO_DECEL=2500
;TYPE:Overhang wall
G1 X116.283 Y111.51 E.00461
G1 X116.283 Y113.59 E.06196
M73 P4 R2
G1 X116.128 Y113.59 E.00461
SET_VELOCITY_LIMIT ACCEL=5000 ACCEL_TO_DECEL=5000
;TYPE:Outer wall
G1 X115.928 Y113.59 E.00596
M106 S255
G1 F3000
G1 X115.088 Y113.59 E.02502
G1 F3565
G1 X112.403 Y113.59 E.07998
G1 X111.773 Y113.59 E.01877
G1 X111.329 Y113.621 E.01326
G1 X110.881 Y113.717 E.01365
G1 X110.425 Y113.887 E.0145
G1 X109.516 Y114.392 E.03097
G1 X108.963 Y114.618 E.01779
G1 X108.366 Y114.778 E.01841
G1 X107.796 Y114.86 E.01715
G1 X107.2 Y114.873 E.01776
G1 X106.606 Y114.812 E.01779
G1 X106.024 Y114.68 E.01778
G1 X105.463 Y114.477 E.01777
G1 X104.931 Y114.208 E.01776
G1 X104.435 Y113.875 E.01779
G1 X103.984 Y113.484 E.01778
G1 X103.584 Y113.042 E.01776
G1 X103.231 Y112.534 E.01843
G1 X102.96 Y112.026 E.01715
G1 X102.746 Y111.47 E.01775
G1 X102.601 Y110.891 E.01778
G1 X102.529 Y110.298 E.01779
G1 X102.529 Y109.702 E.01775
G1 X102.601 Y109.109 E.01779
G1 X102.746 Y108.53 E.01778
G1 X102.96 Y107.974 E.01775
G1 X103.241 Y107.447 E.01779
G1 X103.584 Y106.959 E.01777
G1 X103.984 Y106.516 E.01778
G1 X104.435 Y106.125 E.01778
G1 X104.931 Y105.792 E.01779
G1 X105.463 Y105.523 E.01776
G1 X106.024 Y105.32 E.01777
G1 X106.606 Y105.188 E.01778
G1 X107.2 Y105.127 E.01779
G1 X107.796 Y105.14 E.01776
G1 X108.387 Y105.225 E.01778
G1 X108.963 Y105.382 E.01778
G1 X109.516 Y105.608 E.01779
G1 X110.425 Y106.113 E.03097
G1 X110.855 Y106.275 E.01369
G1 X111.303 Y106.375 E.01367
G1 X111.773 Y106.41 E.01404
G1 X112.403 Y106.41 E.01877
G1 X115.088 Y106.41 E.07998
G1 F3000
G1 X115.928 Y106.41 E.02502
G1 F1500
G1 X116.128 Y106.41 E.00596
SET_VELOCITY_LIMIT ACCEL=2500 ACCEL_TO_DECEL=2500
;TYPE:Overhang wall
G1 X116.283 Y106.41 E.00461
G1 X116.283 Y108.49 E.06196
G1 X116.128 Y108.49 E.00461
SET_VELOCITY_LIMIT ACCEL=5000 ACCEL_TO_DECEL=5000
;TYPE:Outer wall
G1 X115.928 Y108.49 E.00596
M106 S255
G1 F3000
G1 X115.088 Y108.49 E.02502
G1 F3565
G1 X105.473 Y108.49 E.2864
G1 X104.843 Y108.49 E.01877
G1 X104.661 Y108.532 E.00556
G1 X104.508 Y108.655 E.00585
SET_VELOCITY_LIMIT ACCEL=12000 ACCEL_TO_DECEL=12000
G1 E-.35 F2400
;WIPE_START
G1 F12000
G1 X104.386 Y108.947 E-.04743
G1 X104.386 Y109.631 E-.10257
;WIPE_END
G1 X108.918 Y113.009 Z.8 F30000
G1 Z.4
G1 E.5 F2400
;TYPE:Internal solid infill
;WIDTH:0.353003
G1 F3565
G3 X105.907 Y113.015 I-2.69 J-660.192 E.07376
G1 X106.442 Y113.23 E.01413
G1 X106.86 Y113.325 E.01049
G1 X107.662 Y113.35 E.01965
G2 X108.881 Y113.025 I-.224 J-3.294 E.0311
G1 X110.372 Y112.671 F30000
;WIDTH:0.419999
G1 F3565
G1 X104.818 Y112.671 E.16541
G2 X105.577 Y113.233 I2.468 J-2.535 E.02823
G1 X106.325 Y113.554 E.02424
G2 X109.031 Y113.333 I1.07 J-3.585 E.08276
G1 X109.972 Y112.821 E.03189
G1 X110.334 Y112.685 E.01153
G1 X110.644 Y112.294 F30000
G1 F3565
G1 X104.813 Y112.294 E.1737
G1 X104.389 Y112.2 E.01292
G1 X104.036 Y111.985 E.01232
;WIDTH:0.443862
G1 X103.889 Y111.853 E.00624
;WIDTH:0.474444
G1 X103.743 Y111.721 E.00671
G1 X103.942 Y112.183 E.01712
;WIDTH:0.419999
G2 X109.212 Y113.664 I3.461 J-2.196 E.17855
G1 X110.152 Y113.152 E.03189
G1 X110.691 Y112.957 E.01706
;WIDTH:0.442343
G1 X110.94 Y112.881 E.00823
;WIDTH:0.488746
G1 X111.19 Y112.804 E.00919
G1 X111.761 Y112.772 E.02016
G1 X115.465 Y112.772 E.13043
G1 X115.465 Y112.328 E.01565
G1 X111.172 Y112.339 E.15118
;WIDTH:0.487029
G1 X110.928 Y112.318 E.0086
;WIDTH:0.464686
G1 X110.684 Y112.297 E.00816
G1 E-.45406 F2400
;WIPE_START
M73 P5 R2
G1 F12803.324
G1 X110.928 Y112.318 E-.04594
;WIPE_END
G1 X110.643 Y107.706 Z.8 F30000
G1 Z.4
G1 E.5 F2400
;WIDTH:0.443113
G1 F3565
G1 X110.891 Y107.683 E.00785
;WIDTH:0.489021
G1 X111.138 Y107.66 E.00875
G1 X115.465 Y107.672 E.15249
G1 X115.465 Y107.228 E.01566
G1 X111.773 Y107.228 E.13012
G1 X111.157 Y107.191 E.02174
;WIDTH:0.489341
G1 X110.662 Y107.023 E.01844
;WIDTH:0.421569
G1 X110.166 Y106.856 E.01564
G1 X109.212 Y106.336 E.03251
G2 X103.89 Y107.897 I-1.81 J3.682 E.18215
;WIDTH:0.43675
G1 X103.841 Y108.024 E.00423
;WIDTH:0.470252
G1 X103.793 Y108.151 E.00459
;WIDTH:0.503754
G1 X103.744 Y108.278 E.00495
G1 X103.862 Y108.173 E.00574
;WIDTH:0.470252
G1 X103.979 Y108.068 E.00532
;WIDTH:0.420785
G1 X104.097 Y107.963 E.0047
G1 X104.446 Y107.779 E.01177
G1 X104.843 Y107.706 E.01207
G1 X110.603 Y107.706 E.17193
G1 X110.371 Y107.329 F30000
;WIDTH:0.419999
G1 F3565
G1 X109.972 Y107.179 E.0127
G1 X109.014 Y106.658 E.03248
G2 X108.121 Y106.36 I-1.643 J3.442 E.02811
G1 X107.337 Y106.292 E.02343
G2 X104.818 Y107.33 I.046 J3.689 E.08314
G3 X110.331 Y107.329 I3.179 J1958.879 E.16422
G1 X108.921 Y106.991 F30000
;WIDTH:0.352733
G1 F3565
G2 X108.073 Y106.694 I-1.501 J2.927 E.02205
G1 X107.33 Y106.645 E.01822
G1 X106.834 Y106.679 E.01217
G1 X106.063 Y106.906 E.01967
G1 X105.906 Y106.985 E.0043
G3 X108.881 Y106.991 I.481 J516.362 E.0728
G1 X103.744 Y108.278 F30000
;WIDTH:0.535939
G1 F3565
G1 X103.558 Y108.787 E.02112
;WIDTH:0.567535
G1 X103.535 Y108.936 E.00627
;WIDTH:0.583696
G1 X103.513 Y109.086 E.00646
G1 X103.628 Y109.758 F30000
;WIDTH:0.371128
G1 F3565
G1 X103.634 Y109.523 E.00609
;WIDTH:0.384762
G1 X103.613 Y109.457 E.00188
;WIDTH:0.426808
G1 X103.592 Y109.391 E.00211
;WIDTH:0.468855
G1 X103.57 Y109.324 E.00234
;WIDTH:0.510902
G1 X103.549 Y109.258 E.00257
;WIDTH:0.552948
G1 X103.528 Y109.192 E.00281
;WIDTH:0.594995
G1 X103.507 Y109.125 E.00304
G1 X103.475 Y109.189 E.00309
;WIDTH:0.552948
G1 X103.443 Y109.252 E.00285
;WIDTH:0.510902
G1 X103.411 Y109.315 E.00262
;WIDTH:0.468855
G1 X103.379 Y109.378 E.00238
;WIDTH:0.426808
G1 X103.347 Y109.441 E.00215
;WIDTH:0.372691
G1 X103.315 Y109.504 E.00184
G1 X103.292 Y110.241 E.0192
;WIDTH:0.364891
G1 X103.338 Y110.744 E.01284
;WIDTH:0.375215
G1 X103.391 Y110.852 E.00315
;WIDTH:0.42473
G1 X103.443 Y110.96 E.00362
;WIDTH:0.474245
G1 X103.495 Y111.068 E.00409
;WIDTH:0.523761
G1 X103.547 Y111.176 E.00456
G1 X103.572 Y111.063 E.00439
;WIDTH:0.474245
G1 X103.596 Y110.951 E.00393
;WIDTH:0.42473
G1 X103.62 Y110.838 E.00348
