; HEADER_BLOCK_START
; generated by Creality_Print V5.1.6.10470 on 2024-12-10 at 16:41:22
; total layer number: 34
; filament_density: 1.24
; filament_diameter: 1.75
; max_z_height: 6.00
; HEADER_BLOCK_END

; MINX = 101.33
; MINY = 101.26
; MINZ = 0.00
; MAXX = 119.79
; MAXY = 118.36
; MAXZ = 5.99

; THUMBNAIL_BLOCK_START

;
; THUMBNAIL_BLOCK_END

; THUMBNAIL_BLOCK_START

;
; THUMBNAIL_BLOCK_END

; external perimeters extrusion width = 0.42mm
; perimeters extrusion width = 0.45mm
; infill extrusion width = 0.45mm
; solid infill extrusion width = 0.42mm
; top infill extrusion width = 0.42mm
; support material extrusion width = 0.42mm
; first layer extrusion width = 0.50mm

; EXECUTABLE_BLOCK_START
EXCLUDE_OBJECT_DEFINE NAME=Tail_Vertical_Mount.stl_id_0_copy_0 CENTER=110.56,109.814 POLYGON=[[101.333,101.264],[115.787,101.264],[116.31,101.298],[116.823,101.401],[117.318,101.569],[117.787,101.8],[118.222,102.091],[118.616,102.436],[118.961,102.829],[119.252,103.264],[119.483,103.734],[119.651,104.229],[119.753,104.742],[119.787,105.264],[119.787,117.701],[118.82,117.981],[117.833,118.186],[116.834,118.314],[115.828,118.363],[114.821,118.335],[113.819,118.229],[112.828,118.046],[111.855,117.786],[110.904,117.452],[109.983,117.046],[101.641,112.826],[101.479,112.718],[101.371,112.556],[101.333,112.364],[101.333,101.264]]
M73 P0 R3
M106 S0
M106 P2 S0
;TYPE:Custom
M140 S0
M104 S0 
START_PRINT EXTRUDER_TEMP=230 BED_TEMP=50
M141 S35;set chamber_temperature
G90
G21
M83 ; use relative distances for extrusion
; filament start gcode
M106 S0
;LAYER_CHANGE
;Z:0.2
;HEIGHT:0.2
;BEFORE_LAYER_CHANGE
;0.2
G92 E0

G1 E-.5 F2400
;AFTER_LAYER_CHANGE
;0.2
;_SET_FAN_SPEED_CHANGING_LAYER
SET_VELOCITY_LIMIT ACCEL=1000 ACCEL_TO_DECEL=1000
SET_VELOCITY_LIMIT SQUARE_CORNER_VELOCITY=20
; printing object Tail Vertical Mount.stl id:0 copy 0
EXCLUDE_OBJECT_START NAME=Tail_Vertical_Mount.stl_id_0_copy_0
G1 X102.001 Y100.894 F30000
G1 Z.4
G1 Z.2
G1 E.5 F2400
;TYPE:Support interface
;WIDTH:0.5
G1 F3600
G3 X103.074 Y100.494 I.761 J.402 E.04521
G3 X103.666 Y100.836 I-.05 J.771 E.02557
G2 X102.597 Y101.136 I-.368 J.742 E.04395
G1 X102.597 Y104.393 E.11758
G2 X103.666 Y104.693 I.701 J-.442 E.04395
G1 X103.649 Y104.718 E.00108
G3 X102.286 Y103.403 I-.777 J-.559 E.11848
G3 X102.27 Y102.002 I1.12 J-.713 E.0533
G3 X101.984 Y100.929 I.492 J-.706 E.04359
G1 E-.35 F2400
;WIPE_START
G1 F3600
G1 X102.39 Y100.547 E-.08353
G1 X102.832 Y100.513 E-.06647
;WIPE_END
G1 X104.985 Y100.836 Z.6 F30000
G1 Z.2
G1 E.5 F2400
G1 F3600
G1 X105.001 Y100.811 E.00108
G3 X106.087 Y100.494 I.799 J.721 E.04298
G3 X107.029 Y101.493 I-.341 J1.265 E.05215
G1 X115.782 Y101.493 E.31605
G3 X119.559 Y105.272 I-.075 J3.852 E.21316
G1 X119.559 Y116.526 E.40633
G3 X106.849 Y113.136 I-3.833 J-11.149 E.50384
M73 P1 R3
G2 X106.011 Y112.754 I-.906 J.877 E.03406
G1 X105.903 Y112.785 E.00404
G2 X106.054 Y112.398 I-.763 J-.52 E.01515
G1 X106.054 Y108.136 E.15387
G2 X104.985 Y107.836 I-.701 J.442 E.04395
G1 X105.001 Y107.811 E.00108
G3 X106.566 Y107.702 I.857 J1.023 E.06055
G1 X107.554 Y108.689 E.05042
G1 X107.836 Y108.573 E.01103
G1 X107.836 Y103.956 E.16669
G1 X107.554 Y103.839 E.01103
G3 X106.087 Y105.034 I-2.243 J-1.255 E.06996
G3 X104.985 Y104.693 I-.289 J-1.017 E.04407
G2 X106.054 Y104.393 I.368 J-.742 E.04395
G1 X106.054 Y101.136 E.11758
G2 X105.018 Y100.82 I-.701 J.442 E.04263
G1 E-.35 F2400
;WIPE_START
G1 F3600
G1 X105.001 Y100.811 E-.00281
G1 X105.387 Y100.531 E-.07151
G1 X105.891 Y100.505 E-.07568
;WIPE_END
G1 X106.863 Y101.91 Z.6 F30000
G1 Z.2
G1 E.5 F2400
;WIDTH:0.42
G1 F3600
G1 X106.647 Y101.91 E.00644
G1 X106.471 Y101.421 E.01547
G1 X106.471 Y104.332 E.0867
G1 X107.052 Y103.751 E.02446
G1 X107.052 Y101.91 E.05485
G1 X107.929 Y101.91 E.02613
G1 X107.929 Y102.874 E.02873
G1 X108.253 Y102.55 E.01366
G1 X108.253 Y109.978 E.22127
G1 X107.929 Y109.654 E.01366
G1 X107.929 Y113.686 E.12011
G2 X108.806 Y114.419 I5.128 J-5.248 E.03407
G1 X108.806 Y101.91 E.3726
G1 X109.683 Y101.91 E.02613
G1 X109.683 Y115.023 E.3906
G2 X110.56 Y115.518 I3.568 J-5.304 E.03002
G1 X110.56 Y101.91 E.40533
M73 P2 R3
G1 X111.437 Y101.91 E.02613
G1 X111.437 Y115.916 E.4172
G2 X112.314 Y116.23 I2.61 J-5.917 E.02777
G1 X112.314 Y101.91 E.42654
G1 X113.191 Y101.91 E.02613
G1 X113.191 Y116.464 E.43353
G2 X114.068 Y116.626 I1.603 J-6.259 E.02658
G3 X114.068 Y114.736 I4.27 J-.945 E.05673
G1 X114.068 Y105.992 E.26044
G3 X114.068 Y104.736 I2.687 J-.628 E.03775
G1 X114.068 Y101.91 E.08418
G1 X114.757 Y101.91 E.02051
G1 E-.35 F2400
;WIPE_START
G1 F3600
G1 X114.068 Y101.91 E-.10328
G1 X114.068 Y102.221 E-.04672
;WIPE_END
G1 X114.757 Y99.665 Z.6 F30000
G1 Z.2
G1 E.5 F2400
;TYPE:Support
;WIDTH:0.5
G1 F3600
G1 X110.905 Y99.665 E.13908
G3 X112.123 Y98.549 I1.524 J.442 E.06272
G2 X114.543 Y98.675 I1.628 J-7.962 E.0878
G3 X115.076 Y99.665 I-.342 J.823 E.04391
G1 X114.797 Y99.665 E.01007
G1 X114.797 Y100.122 F30000
G1 F3600
G1 X110.062 Y100.122 E.17095
G3 X111.905 Y98.101 I3.352 J1.206 E.10136
G3 X112.152 Y98.093 I.169 J1.464 E.00892
G2 X114.634 Y98.222 I1.86 J-11.811 E.08989
G3 X115.374 Y100.122 I-.414 J1.255 E.08406
G1 X114.837 Y100.122 E.01938
G1 X114.837 Y100.579 F30000
G1 F3600
G1 X109.615 Y100.579 E.18855
G3 X111.959 Y97.636 I3.299 J.223 E.14448
M73 P3 R3
G3 X112.181 Y97.636 I.111 J1.765 E.00802
G2 X114.668 Y97.756 I1.831 J-12.125 E.09007
G3 X115.611 Y100.579 I-.445 J1.717 E.12744
G1 X114.877 Y100.579 E.02651
G1 X114.876 Y101.035 F30000
G1 F3600
G1 X109.259 Y101.029 E.20283
G3 X110.12 Y98.329 I2.767 J-.606 E.10717
G3 X112.209 Y97.18 I1.964 J1.097 E.09076
G2 X114.782 Y97.313 I2.089 J-15.417 E.09312
G3 X115.793 Y101.036 I-.552 J2.148 E.16885
G1 X114.916 Y101.035 E.03165
G1 E-.35 F2400
;WIPE_START
G1 F3600
G1 X113.916 Y101.034 E-.15
;WIPE_END
G1 X119.195 Y106.547 Z.6 F30000
G1 X120.016 Y107.404 Z.6
G1 Z.2
G1 E.5 F2400
G1 F3600
G3 X121.722 Y106.763 I1.583 J1.621 E.06772
G3 X122.304 Y111.18 I-.19 J2.272 E.22329
G3 X120.016 Y111.779 I-1.629 J-1.55 E.08991
G1 X120.016 Y107.444 E.15651
G1 X120.473 Y107.601 F30000
G1 F3600
G3 X121.693 Y107.219 I1.117 J1.429 E.04717
G3 X122.097 Y110.723 I-.14 J1.791 E.17882
G3 X120.473 Y111.418 I-1.435 J-1.108 E.0666
G1 X120.473 Y107.641 E.13637
G1 X120.93 Y107.838 F30000
G1 F3600
G3 X121.664 Y107.676 I.673 J1.299 E.02747
G3 X121.787 Y110.383 I-.136 J1.363 E.14099
G3 X120.93 Y110.976 I-1.35 J-1.034 E.03825
G1 X120.93 Y107.878 E.11184
G1 X121.387 Y108.137 F30000
G1 F3600
G3 X121.636 Y108.132 I.16 J1.972 E.00898
G3 X121.763 Y109.835 I-.062 J.861 E.08875
G1 X121.387 Y110.108 E.01679
G1 X121.387 Y108.177 E.06976
G1 E-.35 F2400
;WIPE_START
G1 F3600
G1 X121.636 Y108.132 E-.03787
G1 X122.166 Y108.362 E-.08674
G1 X122.239 Y108.515 E-.02539
;WIPE_END
G1 X119.052 Y115.45 Z.6 F30000
M73 P4 R3
G1 X118.637 Y116.353 Z.6
G1 Z.2
G1 E.5 F2400
;TYPE:Support interface
;WIDTH:0.42
G1 F3600
G2 X119.142 Y116.221 I-.599 J-3.323 E.01555
G1 X119.142 Y105.285 E.32573
G2 X118.454 Y103.232 I-3.492 J.029 E.06557
G1 X118.454 Y116.396 E.3921
G3 X117.577 Y116.58 I-1.587 J-5.373 E.02672
G1 X117.577 Y102.436 E.42132
G2 X116.7 Y102.041 I-1.905 J3.057 E.02874
G1 X116.7 Y103.952 E.05695
G2 X115.823 Y103.631 I-1.03 J1.453 E.02816
G1 X115.823 Y101.914 E.05115
G2 X114.945 Y101.91 I-.466 J6.69 E.02614
G1 X114.945 Y103.792 E.05607
G2 X114.141 Y104.562 I2.116 J3.019 E.0333
G1 X114.611 Y104.751 F30000
;WIDTH:0.5
G1 F3600
G1 X114.363 Y105.379 E.0244
G2 X115.672 Y104.036 I1.324 J-.02 E.22506
G1 X115.358 Y104.077 E.01145
G2 X114.738 Y104.436 I.329 J1.282 E.02619
G1 X114.626 Y104.713 E.0108
G1 X115.02 Y104.877 F30000
;TYPE:Support
G1 F3600
G1 X115.074 Y104.75 E.00495
G3 X115.687 Y104.495 I.614 J.61 E.02464
G1 X115.912 Y104.524 E.0082
G3 X114.822 Y105.364 I-.225 J.836 E.13898
G1 X115.005 Y104.914 E.01755
G1 X115.398 Y105.077 F30000
G1 F3600
G1 X115.399 Y105.076 E.00005
G3 X115.687 Y104.956 I.289 J.287 E.01157
G1 X115.793 Y104.97 E.00385
G3 X115.281 Y105.364 I-.105 J.393 E.06529
G1 X115.383 Y105.114 E.00977
G1 E-.35 F2400
;WIPE_START
G1 F3600
G1 X115.399 Y105.076 E-.00616
G1 X115.687 Y104.956 E-.04685
G1 X115.793 Y104.97 E-.01599
G1 X116.096 Y105.364 E-.0746
G1 X116.08 Y105.404 E-.00639
;WIPE_END
G1 X117.275 Y106.068 Z.6 F30000
G1 Z.2
G1 E.5 F2400
;TYPE:Support interface
;WIDTH:0.42
G1 F3600
G3 X116.7 Y106.776 I-1.604 J-.716 E.02748
G1 X116.7 Y113.953 E.21376
M73 P5 R3
G2 X115.823 Y113.631 I-1.03 J1.453 E.02816
G1 X115.823 Y107.098 E.1946
G3 X114.945 Y106.936 I-.121 J-1.806 E.02684
G1 X114.945 Y113.792 E.20422
G2 X114.141 Y114.562 I2.115 J3.018 E.0333
G1 X114.611 Y114.751 F30000
;WIDTH:0.5
G1 F3600
G1 X114.363 Y115.379 E.02438
G2 X115.673 Y114.036 I1.324 J-.019 E.22506
G1 X115.358 Y114.077 E.01145
G2 X114.738 Y114.436 I.328 J1.282 E.02619
G1 X114.626 Y114.714 E.01082
G1 E-.35 F2400
;WIPE_START
G1 F3600
G1 X114.363 Y115.379 E-.1073
G1 X114.474 Y115.641 E-.0427
;WIPE_END
G1 X114.141 Y116.167 Z.6 F30000
G1 Z.2
G1 E.5 F2400
;WIDTH:0.42
G1 F3600
G2 X114.552 Y116.681 I1.785 J-1.005 E.01971
G3 X114.255 Y116.655 I.11 J-2.964 E.00889
G1 X114.148 Y117.48 F30000
;TYPE:Support
;WIDTH:0.5
G1 F3600
G1 X115.13 Y117.59 E.03568
G2 X120.016 Y116.767 I.471 J-12.12 E.18018
G1 X120.029 Y116.101 E.02405
G3 X118.555 Y117.741 I-.464 J1.065 E.15875
G3 X113.5 Y117.923 I-3.026 J-13.71 E.18362
G3 X111.592 Y117.396 I-.832 J-.706 E.08957
G3 X106.827 Y114.542 I4.815 J-13.446 E.20184
G3 X105.454 Y113.394 I-.391 J-.927 E.07961
G3 X106.474 Y113.459 I.475 J.582 E.04059
G2 X113.117 Y117.343 I9.126 J-7.989 E.2827
G1 X114.108 Y117.475 E.03612
G1 X114.113 Y117.436 F30000
;WIDTH:0.42
G1 F3600
G1 X115.132 Y117.555 E.03056
G2 X119.976 Y116.754 I.488 J-12.097 E.14726
G1 X119.977 Y116.048 E.02102
G3 X118.554 Y117.782 I-.368 J1.148 E.13995
G3 X113.518 Y117.96 I-3 J-13.547 E.15093
G3 X111.57 Y117.43 I-.848 J-.728 E.07503
M73 P6 R3
G3 X106.824 Y114.583 I4.728 J-13.26 E.16595
G3 X105.437 Y113.357 I-.397 J-.948 E.06861
G3 X106.512 Y113.434 I.496 J.618 E.03531
G2 X113.126 Y117.305 I9.108 J-7.976 E.23225
G1 X114.073 Y117.431 E.02848
G1 E-.35 F2400
;WIPE_START
G1 F3600
G1 X115.067 Y117.547 E-.15
;WIPE_END
G1 X120.208 Y118.179 Z.6 F30000
G1 Z.2
G1 E.5 F2400
G1 F3600
G1 X120.165 Y116.311 E.05565
G3 X119.331 Y117.234 I-.679 J.225 E.04492
G1 X119.331 Y118.11 E.02608
G3 X118.558 Y117.587 I1.198 J-2.604 E.02793
G1 X118.454 Y117.447 E.0052
G3 X117.577 Y117.615 I-1.504 J-5.476 E.02663
G1 X117.577 Y117.777 E.00483
G3 X116.7 Y117.879 I-1.12 J-5.83 E.02632
G1 X116.7 Y117.719 E.00477
G3 X115.823 Y117.761 I-.709 J-5.643 E.02618
G1 X115.823 Y117.919 E.00471
G3 X114.945 Y117.897 I-.296 J-5.892 E.02616
G1 X114.945 Y117.741 E.00466
G3 X114.068 Y117.662 I.371 J-9.017 E.02624
G1 X114.068 Y117.815 E.00455
G2 X113.191 Y117.975 I-.336 J.64 E.02862
G1 X113.088 Y117.493 E.01469
G3 X112.314 Y117.299 I4.924 J-21.246 E.02375
G1 X112.314 Y118.085 E.02343
G3 X111.672 Y117.267 I.712 J-1.219 E.03171
G1 X111.219 Y116.936 E.01674
G3 X110.56 Y116.652 I5.445 J-13.524 E.02136
G1 X110.56 Y116.826 E.00518
G3 X109.683 Y116.211 I.022 J-.964 E.03383
G3 X108.806 Y115.678 I3.001 J-5.928 E.0306
G1 X108.806 Y115.865 E.00558
G3 X107.204 Y114.411 I6.287 J-8.534 E.06457
G1 X107.052 Y114.265 E.00626
G1 X107.052 Y114.484 E.00652
G3 X106.175 Y114.419 I-.004 J-5.831 E.02622
G1 X106.175 Y113.287 E.03371
G1 E-.35 F2400
;WIPE_START
G1 F3600
G1 X106.175 Y114.287 E-.15
;WIPE_END
G1 X107.796 Y109.521 Z.6 F30000
G1 Z.2
G1 E.5 F2400
;TYPE:Support interface
G1 F3600
G1 X107.052 Y108.777 E.03133
G1 X107.052 Y112.771 E.11895
G3 X106.909 Y112.648 I.102 J-.264 E.00572
G1 X106.466 Y112.479 E.01412
G1 X106.471 Y108.196 E.12756
G1 X106.918 Y108.644 E.01884
G1 E-.35 F2400
;WIPE_START
G1 F3600
G1 X106.471 Y108.196 E-.09489
G1 X106.471 Y108.564 E-.05511
;WIPE_END
G1 X103.666 Y107.836 Z.6 F30000
M73 P7 R3
G1 Z.2
G1 E.5 F2400
;WIDTH:0.5
G1 F3600
G2 X102.597 Y108.136 I-.368 J.742 E.04395
G1 X102.597 Y112.394 E.15375
G2 X102.68 Y112.654 I.775 J-.105 E.00991
G3 X102.523 Y111.329 I70.88 J-9.056 E.0482
G3 X102.552 Y109.864 I.558 J-.722 E.06143
G2 X102.023 Y108.678 I-.835 J-.338 E.05238
G3 X103.074 Y107.494 I.734 J-.407 E.07466
G3 X103.645 Y107.806 I-.05 J.771 E.02425
G1 E-.35 F2400
;WIPE_START
G1 F3600
G1 X102.897 Y107.836 E-.1123
G1 X102.719 Y108.013 E-.0377
;WIPE_END
G1 X104.835 Y108.514 Z.6 F30000
G1 Z.2
G1 E.5 F2400
;TYPE:Outer wall
;WIDTH:0.499999
G1 F3600
G1 X104.835 Y109.025 E.01843
G1 X104.835 Y112.302 E.11831
G1 X104.458 Y112.397 E.01404
G1 X103.928 Y112.344 E.01922
G1 X103.814 Y112.258 E.00515
G1 X103.814 Y108.514 E.13519
G1 X104.795 Y108.514 E.03542
G1 E-.35 F2400
;WIPE_START
G1 F3600
G1 X104.835 Y109.025 E-.07681
G1 X104.835 Y109.513 E-.07319
;WIPE_END
G1 X104.324 Y111.88 Z.6 F30000
G1 Z.2
G1 E.5 F2400
;TYPE:Inner wall
;WIDTH:0.606818
G1 F3600
G1 X104.324 Y109.025 E.12718
G1 E-.35 F2400
;WIPE_START
G1 F3600
G1 X104.324 Y110.025 E-.15
;WIPE_END
G1 X104.835 Y104.014 Z.6 F30000
G1 Z.2
G1 E.5 F2400
;TYPE:Outer wall
;WIDTH:0.499999
G1 F3600
G1 X103.814 Y104.014 E.03686
G1 X103.814 Y101.514 E.09026
G1 X104.835 Y101.514 E.03686
G1 X104.835 Y103.974 E.08882
G1 X104.324 Y103.504 F30000
;TYPE:Inner wall
;WIDTH:0.606818
G1 F3600
G1 X104.324 Y102.025 E.06588
; stop printing object Tail Vertical Mount.stl id:0 copy 0
;TIME_ELAPSED:17.123371

M106 S255
;LAYER_CHANGE
;Z:0.4
;HEIGHT:0.2
;BEFORE_LAYER_CHANGE
;0.4
G92 E0

G1 E-.35 F2400
;WIPE_START
G1 F3600
G1 X104.324 Y103.025 E-.15
;WIPE_END
EXCLUDE_OBJECT_END NAME=Tail_Vertical_Mount.stl_id_0_copy_0
;AFTER_LAYER_CHANGE
;0.4
;_SET_FAN_SPEED_CHANGING_LAYER
SET_VELOCITY_LIMIT ACCEL=12000 ACCEL_TO_DECEL=12000
M140 S50 ; set bed temperature
; printing object Tail Vertical Mount.stl id:0 copy 0
EXCLUDE_OBJECT_START NAME=Tail_Vertical_Mount.stl_id_0_copy_0
G17
G3 Z.6 I.641 J1.035 P1  F30000
G1 X106.863 Y101.453 Z.6
G1 Z.4
G1 E.5 F2400
;TYPE:Support interface
;WIDTH:0.42
G1 F4800
G1 X106.56 Y101.453 E.00904
G1 X106.56 Y104.076 E.07813
G3 X107.052 Y104.082 I.211 J2.711 E.01467
G1 X107.052 Y101.453 E.07831
G1 X107.74 Y101.453 E.02051
G1 E-.35 F2400
;WIPE_START
G1 F4800
G1 X107.052 Y101.453 E-.10328
G1 X107.052 Y101.764 E-.04672
;WIPE_END
G1 X110.371 Y101.076 Z.8 F30000
G1 Z.4
G1 E.5 F2400
;TYPE:Support
G1 F9000
G3 X110.888 Y99.301 I1.327 J-.576 E.05972
G3 X112.068 Y98.413 I1.164 J.32 E.04732
M73 P8 R3
G3 X113.016 Y98.826 I-.307 J2.003 E.03115
G3 X114.809 Y100.645 I.931 J.875 E.12251
G3 X112.727 Y100.33 I-.811 J-1.676 E.06664
G2 X112.227 Y101.076 I.782 J1.065 E.02729
G1 X110.411 Y101.076 E.05409
G1 X110.775 Y99.703 F30000
G1 F9000
G3 X110.934 Y99.598 I.814 J1.06 E.00568
G3 X112.499 Y98.711 I1.08 J.082 E.06322
G2 X113.077 Y98.993 I.751 J-.807 E.01942
G3 X115.144 Y99.814 I.893 J.765 E.08686
G1 X110.654 Y99.814 E.13373
G2 X110.467 Y100.905 I.754 J.691 E.03484
G1 X112.134 Y100.912 E.04965
G3 X112.968 Y100.183 I.819 J.095 E.0362
G2 X115.109 Y99.974 I1.005 J-.771 E.0765
G1 X115.109 Y99.974 E.00002
G1 E-.35 F2400
;WIPE_START
G1 F9000
G1 X115.109 Y99.974 E-.00009
G1 X114.812 Y100.436 E-.08234
G1 X114.397 Y100.611 E-.06758
;WIPE_END
G1 X119.424 Y106.353 Z.8 F30000
G1 X121.029 Y108.186 Z.8
G1 Z.4
G1 E.5 F2400
G1 F9000
G3 X121.548 Y107.977 I2.648 J5.84 E.01666
G3 X121.504 Y110.285 I-.134 J1.152 E.10182
G3 X119.976 Y110.677 I-.981 J-.647 E.05152
G1 X119.976 Y108.789 E.05624
G3 X120.993 Y108.202 I3.701 J5.236 E.03504
G1 X121.473 Y110.076 F30000
G1 F9000
G3 X120.14 Y110.575 I-.951 J-.511 E.04629
G1 X120.14 Y109.814 E.02266
G1 X122.023 Y109.814 E.05608
G2 X121.481 Y108.141 I-.524 J-.755 E.0699
G2 X120.161 Y108.875 I2.142 J5.4 E.04511
G1 X120.14 Y109.65 E.02309
G1 E-.35 F2400
;WIPE_START
G1 F9000
G1 X120.161 Y108.875 E-.11628
G1 X120.376 Y108.809 E-.03372
;WIPE_END
G1 X120.359 Y116.442 Z.8 F30000
G1 X120.356 Y117.858 Z.8
G1 Z.4
G1 E.5 F2400
;TYPE:Support interface
G1 F4800
G2 X120.222 Y116.357 I-.821 J-.683 E.04982
G1 X120.208 Y117.973 E.04815
G3 X119.353 Y118.106 I-.589 J-.976 E.02642
G1 X119.331 Y103.872 E.42397
G2 X118.454 Y102.544 I-3.754 J1.527 E.04771
G1 X118.454 Y117.806 E.45459
G3 X117.577 Y117.968 I-1.526 J-5.802 E.02659
G1 X117.577 Y101.906 E.47843
G2 X116.7 Y101.568 I-1.99 J3.855 E.02805
G1 X116.7 Y104.582 E.08977
