; HEADER_BLOCK_START
; generated by Creality_Print V5.1.6.10470 on 2024-12-10 at 16:42:43
; total layer number: 5
; filament_density: 1.24
; filament_diameter: 1.75
; max_z_height: 1.00
; HEADER_BLOCK_END

; MINX = 4.11
; MINY = 4.96
; MINZ = 0.00
; MAXX = 215.21
; MAXY = 216.05
; MAXZ = 1.00

; THUMBNAIL_BLOCK_START

;
; THUMBNAIL_BLOCK_END

; THUMBNAIL_BLOCK_START

;
; THUMBNAIL_BLOCK_END

; external perimeters extrusion width = 0.42mm
; perimeters extrusion width = 0.45mm
; infill extrusion width = 0.45mm
; solid infill extrusion width = 0.42mm
; top infill extrusion width = 0.42mm
; support material extrusion width = 0.42mm
; first layer extrusion width = 0.50mm

; EXECUTABLE_BLOCK_START
EXCLUDE_OBJECT_DEFINE NAME=Tail.stl_id_0_copy_0 CENTER=109.66,110.503 POLYGON=[[4.11219,46.4759],[4.12667,45.9873],[5.76914,27.3472],[5.84036,26.8635],[9.63731,8.54045],[9.76423,8.06831],[9.96611,7.62306],[10.2376,7.21647],[10.5717,6.85938],[10.9592,6.56133],[11.3901,6.33018],[11.8527,6.17207],[13.5615,5.77948],[15.2858,5.46214],[17.0224,5.22067],[18.7679,5.05556],[20.519,4.96717],[22.2722,4.95549],[24.0243,5.02069],[25.7718,5.16261],[27.5115,5.38089],[29.2399,5.67532],[30.9537,6.04522],[32.6497,6.48977],[34.3246,7.00822],[164.628,48.1636],[164.927,48.2905],[165.196,48.472],[165.426,48.7015],[171.462,54.737],[171.691,54.967],[171.873,55.2366],[172,55.5358],[213.155,185.839],[213.674,187.514],[214.118,189.21],[214.488,190.923],[214.782,192.652],[215.001,194.392],[215.143,196.139],[215.208,197.891],[215.196,199.644],[215.108,201.395],[214.943,203.141],[214.701,204.878],[214.384,206.602],[213.991,208.311],[213.833,208.773],[213.602,209.204],[213.304,209.592],[212.947,209.926],[212.54,210.197],[212.095,210.399],[211.623,210.526],[193.3,214.323],[192.816,214.394],[174.176,216.037],[173.687,216.051],[154.983,215.517],[154.496,215.475],[135.98,212.771],[135.501,212.673],[117.424,207.836],[116.96,207.683],[99.568,200.779],[99.1248,200.572],[82.6524,191.695],[82.2363,191.438],[66.9067,180.707],[66.5232,180.404],[52.5441,167.965],[52.1984,167.619],[39.7591,153.64],[39.4559,153.257],[28.7249,137.927],[28.4683,137.511],[19.5909,121.039],[19.3843,120.595],[12.4808,103.203],[12.3271,102.739],[7.49082,84.6625],[7.39212,84.1837],[4.68861,65.6677],[4.6462,65.1806],[4.11219,46.4759]]
M73 P0 R22
M106 S0
M106 P2 S0
;TYPE:Custom
M140 S0
M104 S0 
START_PRINT EXTRUDER_TEMP=230 BED_TEMP=50
M141 S35;set chamber_temperature
G90
G21
M83 ; use relative distances for extrusion
; filament start gcode
M106 S0
;LAYER_CHANGE
;Z:0.2
;HEIGHT:0.2
;BEFORE_LAYER_CHANGE
;0.2
G92 E0

G1 E-.5 F2400
;AFTER_LAYER_CHANGE
;0.2
;_SET_FAN_SPEED_CHANGING_LAYER
SET_VELOCITY_LIMIT ACCEL=1000 ACCEL_TO_DECEL=1000
SET_VELOCITY_LIMIT SQUARE_CORNER_VELOCITY=20
; printing object Tail.stl id:0 copy 0
EXCLUDE_OBJECT_START NAME=Tail.stl_id_0_copy_0
G1 X118.154 Y180.631 F30000
G1 Z.4
G1 Z.2
G1 E.5 F2400
;TYPE:Inner wall
;WIDTH:0.499999
G1 F3600
G1 X116.816 Y180.1 E.05197
G1 X116.453 Y180.141 E.01318
G1 X116.196 Y180.306 E.01102
G1 X116.042 Y180.548 E.01037
G3 X103.232 Y198.671 I-37.295 J-12.774 E.81228
G1 X101.882 Y199.689 E.06103
G1 X101.4 Y199.947 E.01976
G1 X100.897 Y200.086 E.01883
G1 X100.376 Y200.086 E.01883
G1 X99.867 Y199.973 E.01883
G1 X99.406 Y199.727 E.01884
G1 X99.01 Y199.388 E.01883
G1 X98.719 Y198.954 E.01883
G1 X98.529 Y198.469 E.01883
G1 X98.465 Y197.986 E.0176
G3 X103.075 Y176.606 I39.241 J-2.725 E.80022
G1 X104.077 Y174.847 E.07308
G1 X104.101 Y174.496 E.01269
G1 X103.982 Y174.208 E.01126
G1 X103.75 Y174.003 E.01118
G1 X102.18 Y173.157 E.06438
G1 X101.815 Y173.16 E.01317
G1 X101.543 Y173.295 E.01096
G1 X101.365 Y173.515 E.01023
G3 X86.536 Y190.027 I-35.559 J-17.02 E.81229
G1 X85.078 Y190.881 E.06102
G1 X84.569 Y191.081 E.01976
G1 X84.053 Y191.161 E.01883
G1 X83.535 Y191.1 E.01884
G1 X83.043 Y190.929 E.01883
G1 X82.614 Y190.631 E.01884
G1 X82.26 Y190.248 E.01883
G1 X82.022 Y189.785 E.01883
G1 X81.889 Y189.28 E.01884
G1 X81.882 Y188.792 E.0176
G3 X88.944 Y168.093 I39.292 J1.852 E.80022
G1 X90.143 Y166.463 E.07303
G1 X90.209 Y166.122 E.01255
G1 X90.126 Y165.821 E.01128
G1 X89.917 Y165.586 E.01135
G1 X88.461 Y164.567 E.06416
G1 X88.099 Y164.523 E.01318
G1 X87.811 Y164.624 E.01102
G1 X87.605 Y164.824 E.01036
G3 X70.958 Y179.502 I-33.34 J-21.036 E.81229
G1 X69.41 Y180.181 E.06102
G1 X68.881 Y180.32 E.01976
G1 X68.36 Y180.34 E.01883
G1 X67.853 Y180.219 E.01883
G1 X67.383 Y179.992 E.01883
G1 X66.992 Y179.647 E.01883
G1 X66.685 Y179.225 E.01884
G1 X66.502 Y178.737 E.01883
G1 X66.429 Y178.22 E.01884
G1 X66.478 Y177.735 E.0176
G3 X75.898 Y157.996 I38.81 J6.404 E.80022
G1 X77.279 Y156.516 E.07308
G1 X77.383 Y156.18 E.01268
G1 X77.334 Y155.873 E.01126
G1 X77.155 Y155.619 E.0112
G2 X75.781 Y154.427 I-27.214 J29.967 E.06569
G1 X75.472 Y154.352 E.01147
G1 X75.175 Y154.419 E.01102
G1 X74.947 Y154.594 E.01035
G3 X56.708 Y167.238 I-30.67 J-24.767 E.81228
G1 X55.092 Y167.733 E.06103
G1 X54.55 Y167.81 E.01976
G1 X54.03 Y167.769 E.01883
G1 X53.54 Y167.59 E.01884
G1 X53.101 Y167.309 E.01883
G1 X52.752 Y166.921 E.01884
G1 X52.496 Y166.467 E.01883
G1 X52.371 Y165.96 E.01883
G1 X52.359 Y165.439 E.01883
G1 X52.464 Y164.963 E.0176
G3 X64.113 Y146.452 I37.804 J10.87 E.80022
G1 X65.656 Y145.142 E.07308
G1 X65.799 Y144.822 E.01267
G1 X65.786 Y144.51 E.01126
G1 X65.642 Y144.242 E.01097
G2 X64.412 Y142.893 I-30.605 J26.674 E.06592
G1 X64.114 Y142.783 E.01147
G1 X63.81 Y142.815 E.01102
G1 X63.564 Y142.963 E.01036
G3 X43.979 Y153.402 I-27.586 J-28.162 E.81229
G1 X42.317 Y153.705 E.06102
G1 X41.77 Y153.719 E.01976
G1 X41.258 Y153.618 E.01884
G1 X40.792 Y153.384 E.01883
G1 X40.388 Y153.054 E.01884
G1 X40.087 Y152.628 E.01883
G1 X39.886 Y152.147 E.01884
G1 X39.82 Y151.629 E.01883
G1 X39.869 Y151.11 E.01883
G1 X40.028 Y150.649 E.01761
G3 X53.749 Y133.617 I36.285 J15.188 E.80022
G1 X55.434 Y132.495 E.07308
G1 X55.613 Y132.193 E.01268
G1 X55.636 Y131.882 E.01126
G1 X55.521 Y131.594 E.0112
G1 X54.498 Y130.134 E.06438
G1 X54.171 Y129.972 E.01317
G1 X53.867 Y129.97 E.01096
G1 X53.609 Y130.087 E.01023
G3 X32.944 Y138.181 I-24.127 J-31.176 E.81228
G1 X31.258 Y138.289 E.06102
G1 X30.713 Y138.239 E.01975
G1 X30.216 Y138.079 E.01884
G1 X29.781 Y137.792 E.01883
G1 X29.418 Y137.418 E.01883
G1 X29.168 Y136.959 E.01884
G1 X29.024 Y136.458 E.01882
G1 X29.019 Y135.936 E.01884
G1 X29.128 Y135.426 E.01883
G1 X29.34 Y134.987 E.0176
G3 X44.946 Y119.665 I34.275 J19.3 E.80022
G1 X46.749 Y118.747 E.07302
G1 X46.961 Y118.472 E.01255
G1 X47.023 Y118.165 E.01128
G1 X46.941 Y117.862 E.01135
G1 X46.098 Y116.298 E.06415
G1 X45.794 Y116.096 E.01318
G1 X45.491 Y116.056 E.01102
G1 X45.217 Y116.143 E.01037
G3 X23.752 Y121.78 I-20.342 J-33.769 E.81228
G1 X22.064 Y121.692 E.06102
G1 X21.529 Y121.579 E.01976
G1 X21.054 Y121.363 E.01883
G1 X20.655 Y121.027 E.01884
G1 X20.338 Y120.613 E.01883
G1 X20.144 Y120.129 E.01883
G1 X20.059 Y119.614 E.01883
G1 X20.115 Y119.096 E.01884
G1 X20.281 Y118.601 E.01883
G1 X20.543 Y118.19 E.0176
G3 X37.824 Y104.784 I31.801 J23.152 E.80023
G1 X39.722 Y104.082 E.07308
G1 X39.967 Y103.829 E.01269
G1 X40.061 Y103.532 E.01126
G1 X40.015 Y103.225 E.01118
G1 X39.359 Y101.574 E.06415
G1 X39.081 Y101.338 E.01317
G1 X38.785 Y101.264 E.01102
G1 X38.503 Y101.318 E.01038
G3 X16.528 Y104.424 I-16.281 J-35.903 E.81228
G1 X14.862 Y104.14 E.06102
G1 X14.343 Y103.966 E.01976
G1 X13.897 Y103.695 E.01884
G1 X13.539 Y103.315 E.01883
G1 X13.272 Y102.867 E.01883
G1 X13.136 Y102.364 E.01884
G1 X13.111 Y101.843 E.01883
G1 X13.227 Y101.334 E.01883
G1 X13.45 Y100.863 E.01883
G1 X13.758 Y100.485 E.0176
G3 X32.479 Y89.177 I28.895 J26.689 E.80022
G1 X34.446 Y88.7 E.07309
G1 X34.718 Y88.477 E.0127
G1 X34.846 Y88.193 E.01126
G1 X34.836 Y87.883 E.01118
G1 X34.374 Y86.16 E.06442
G1 X34.121 Y85.896 E.01322
G1 X33.836 Y85.791 E.01094
G1 X33.555 Y85.813 E.01017
G3 X11.369 Y86.345 I-12 J-37.552 E.81229
G1 X9.747 Y85.869 E.06102
G1 X9.252 Y85.636 E.01977
G1 X8.84 Y85.316 E.01883
G1 X8.529 Y84.897 E.01883
G1 X8.316 Y84.421 E.01884
G1 X8.239 Y83.905 E.01884
G1 X8.275 Y83.385 E.01883
G1 X8.449 Y82.893 E.01883
G1 X8.725 Y82.451 E.01883
G1 X9.075 Y82.111 E.01761
G3 X28.983 Y73.055 I25.599 J29.865 E.80022
G1 X30.99 Y72.81 E.073
G1 X31.283 Y72.625 E.0125
G1 X31.446 Y72.358 E.01129
G1 X31.474 Y72.044 E.01141
G1 X31.217 Y70.285 E.06418
G1 X31 Y69.99 E.01321
G1 X30.729 Y69.851 E.01101
G1 X30.443 Y69.839 E.01033
G3 X8.345 Y67.789 I-7.556 J-38.691 E.81228
G1 X6.789 Y67.128 E.06102
G1 X6.324 Y66.839 E.01976
G1 X5.953 Y66.474 E.01883
G1 X5.693 Y66.021 E.01884
G1 X5.536 Y65.524 E.01884
G1 X5.519 Y65.002 E.01883
G1 X5.616 Y64.49 E.01883
G1 X5.846 Y64.022 E.01883
G1 X6.172 Y63.614 E.01884
G1 X6.558 Y63.317 E.0176
G3 X27.384 Y56.636 I21.956 J32.636 E.80023
G1 X29.407 Y56.625 E.07306
G1 X29.723 Y56.472 E.01265
G1 X29.914 Y56.225 E.01127
G1 X29.976 Y55.92 E.01123
G1 X29.925 Y54.135 E.06448
G1 X29.736 Y53.818 E.01332
G1 X29.483 Y53.653 E.01089
G1 X29.208 Y53.611 E.01006
G3 X7.497 Y49.008 I-3.01 J-39.307 E.81228
G1 X6.127 Y48.227 E.05693
G1 X5.724 Y47.953 E.0176
G1 X5.376 Y47.565 E.01884
G1 X5.119 Y47.11 E.01884
G1 X4.994 Y46.604 E.01884
G1 X4.981 Y46.083 E.01882
G1 X5.109 Y45.577 E.01884
G1 X5.343 Y45.111 E.01883
G1 X5.693 Y44.724 E.01883
G1 X6.14 Y44.409 E.01976
G3 X27.703 Y40.142 I18.119 J34.943 E.80433
G1 X29.601 Y40.354 E.06896
G1 X29.814 Y40.344 E.00769
G1 X30.076 Y40.23 E.01033
G1 X30.268 Y40.021 E.01024
G1 X30.36 Y39.732 E.01093
G1 X30.505 Y38.093 E.0594
G1 X30.491 Y37.884 E.00758
G1 X30.362 Y37.611 E.01088
G1 X30.13 Y37.421 E.01082
G1 X29.866 Y37.349 E.0099
G3 X8.837 Y30.255 I1.577 J-39.389 E.81228
G1 X7.567 Y29.321 E.05693
G1 X7.199 Y29.001 E.0176
G1 X6.898 Y28.575 E.01885
G1 X6.696 Y28.095 E.01882
G1 X6.63 Y27.577 E.01883
G1 X6.678 Y27.058 E.01884
G1 X6.864 Y26.57 E.01884
G1 X7.15 Y26.134 E.01883
G1 X7.543 Y25.791 E.01883
G1 X8.024 Y25.53 E.01976
G3 X29.936 Y23.796 I13.937 J36.812 E.80433
M73 P1 R22
G1 X31.797 Y24.228 E.06896
G1 X32.006 Y24.243 E.00756
G1 X32.278 Y24.163 E.01023
G1 X32.494 Y23.979 E.01027
G1 X32.623 Y23.699 E.01112
G1 X32.957 Y22.088 E.0594
G1 X32.965 Y21.859 E.00825
G1 X32.868 Y21.588 E.01042
G1 X32.683 Y21.39 E.00976
G1 X32.409 Y21.274 E.01076
G3 X12.347 Y11.785 I6.143 J-38.941 E.81228
G1 X11.111 Y10.632 E.06102
G1 X10.774 Y10.201 E.01976
G1 X10.549 Y9.73 E.01883
G1 X10.46 Y9.217 E.01883
G1 X10.483 Y8.695 E.01884
G1 X10.646 Y8.199 E.01884
G1 X10.911 Y7.751 E.01883
G1 X11.288 Y7.39 E.01883
G1 X11.734 Y7.119 E.01883
G1 X12.198 Y6.972 E.0176
G3 X35.702 Y8.412 I9.466 J38.019 E.86354
G1 X154.732 Y45.942 E4.50627
G2 X156.905 Y46.552 I6.685 J-19.642 E.08151
G2 X156.613 Y46.897 I.748 J.928 E.01642
G1 X156.427 Y47.369 E.01831
G1 X156.381 Y47.882 E.0186
G1 X156.474 Y48.37 E.01793
G1 X156.66 Y48.777 E.01616
G1 X157.01 Y49.194 E.01965
G1 X157.428 Y49.486 E.01841
G1 X157.908 Y49.659 E.01842
G1 X158.417 Y49.703 E.01843
G1 X158.919 Y49.613 E.01843
G1 X159.383 Y49.394 E.01852
G1 X159.775 Y49.06 E.0186
G1 X160.073 Y48.607 E.01956
G1 X160.218 Y48.103 E.01895
G1 X160.217 Y47.606 E.01793
G2 X161.241 Y47.994 I9.329 J-23.091 E.03955
G1 X164.288 Y48.955 E.11536
G1 X164.649 Y49.137 E.01459
G1 X164.853 Y49.383 E.01153
G1 X164.95 Y49.687 E.01153
G3 X164.81 Y50.635 I-5.453 J-.317 E.03464
G2 X164.954 Y52.299 I4.627 J.439 E.06061
G2 X165.423 Y53.36 I4.074 J-1.165 E.04204
;WIDTH:0.502487
M73 P1 R21
G1 X165.74 Y53.807 E.01988
;WIDTH:0.532517
G1 X165.913 Y54.019 E.01058
;WIDTH:0.562546
G2 X166.319 Y54.407 I.977 J-.617 E.02327
;WIDTH:0.531273
G1 X166.552 Y54.582 E.01126
;WIDTH:0.499999
G2 X168.844 Y55.375 I2.477 J-3.452 E.08879
G1 X169.574 Y55.349 E.0264
G3 X170.476 Y55.214 I1.14 J4.534 E.03297
G1 X170.78 Y55.311 E.01153
G1 X171.026 Y55.514 E.01153
G1 X171.195 Y55.833 E.01301
G1 X211.513 Y183.707 E4.84107
G2 X212.342 Y186.11 I32.023 J-9.697 E.09182
G3 X214.351 Y197.904 I-37.932 J12.529 E.4336
G3 X213.191 Y207.965 I-39.042 J.598 E.36669
G1 X213.045 Y208.43 E.0176
G1 X212.774 Y208.875 E.01884
G1 X212.413 Y209.252 E.01883
G1 X211.964 Y209.518 E.01884
G1 X211.468 Y209.68 E.01883
G1 X210.947 Y209.704 E.01884
G1 X210.433 Y209.614 E.01882
G1 X209.962 Y209.39 E.01883
G1 X209.531 Y209.052 E.01976
G3 X198.92 Y187.924 I28.072 J-27.327 E.86717
G1 X198.823 Y187.562 E.01354
G1 X198.63 Y187.332 E.01086
G1 X198.356 Y187.207 E.01084
G1 X198.076 Y187.207 E.01013
G1 X196.465 Y187.54 E.0594
G1 X196.268 Y187.614 E.00758
G1 X196.044 Y187.816 E.01088
G1 X195.929 Y188.092 E.01082
G1 X195.936 Y188.366 E.0099
G3 X195.201 Y210.547 I-38.175 J9.837 E.81229
G1 X194.672 Y212.033 E.05693
G1 X194.472 Y212.477 E.0176
G1 X194.151 Y212.888 E.01883
G1 X193.749 Y213.22 E.01883
G1 X193.272 Y213.432 E.01884
G1 X192.761 Y213.536 E.01883
G1 X192.241 Y213.499 E.01883
G1 X191.74 Y213.35 E.01884
G1 X191.299 Y213.073 E.01884
G1 X190.91 Y212.687 E.01975
G3 X182.938 Y192.203 I31.235 J-23.95 E.80433
G1 X182.814 Y190.298 E.06895
G1 X182.769 Y190.093 E.00757
G1 X182.614 Y189.856 E.01023
G1 X182.375 Y189.701 E.01027
G1 X182.07 Y189.659 E.01112
G1 X180.291 Y189.816 E.06448
G1 X179.986 Y190.023 E.01332
G1 X179.836 Y190.285 E.01089
G1 X179.81 Y190.562 E.01006
G3 X176.503 Y212.508 I-39.058 J5.336 E.81228
G1 X175.805 Y213.921 E.05692
G1 X175.555 Y214.34 E.0176
G1 X175.188 Y214.711 E.01883
G1 X174.75 Y214.994 E.01884
G1 X174.252 Y215.149 E.01884
G1 X173.732 Y215.192 E.01883
G1 X173.219 Y215.095 E.01884
G1 X172.74 Y214.889 E.01882
G1 X172.334 Y214.562 E.01883
G1 X171.993 Y214.135 E.01976
G3 X166.454 Y192.863 I33.807 J-20.16 E.80433
G1 X166.553 Y190.956 E.06895
G1 X166.531 Y190.744 E.0077
G1 X166.401 Y190.489 E.01033
G1 X166.181 Y190.31 E.01024
G1 X165.888 Y190.235 E.01093
G1 X164.111 Y190.184 E.06418
G1 X163.783 Y190.347 E.01321
G1 X163.599 Y190.59 E.01101
G1 X163.538 Y190.87 E.01033
G3 X157.704 Y212.282 I-39.414 J.762 E.81228
G1 X156.784 Y213.7 E.06102
G1 X156.419 Y214.108 E.01976
G1 X155.995 Y214.411 E.01883
G1 X155.504 Y214.589 E.01884
G1 X154.987 Y214.657 E.01883
G1 X154.471 Y214.584 E.01883
G1 X153.982 Y214.401 E.01884
G1 X153.561 Y214.093 E.01884
G1 X153.216 Y213.702 E.01883
G1 X152.991 Y213.27 E.0176
G3 X150.005 Y191.603 I35.938 J-15.991 E.80022
G1 X150.344 Y189.608 E.07307
G1 X150.248 Y189.271 E.01265
G1 X150.038 Y189.041 E.01127
G1 X149.748 Y188.927 E.01124
G1 X147.982 Y188.669 E.06442
G1 X147.64 Y188.798 E.01322
G1 X147.431 Y189.018 E.01094
G1 X147.34 Y189.285 E.01017
G3 X139.058 Y209.874 I-39.235 J-3.822 E.81228
G1 X137.98 Y211.176 E.06102
G1 X137.57 Y211.539 E.01977
G1 X137.113 Y211.79 E.01883
G1 X136.606 Y211.91 E.01884
G1 X136.084 Y211.918 E.01883
G1 X135.58 Y211.785 E.01883
G1 X135.116 Y211.546 E.01884
G1 X134.733 Y211.192 E.01884
G1 X134.436 Y210.763 E.01883
G1 X134.262 Y210.308 E.0176
G3 X133.814 Y188.441 I37.552 J-11.708 E.80022
G1 X134.382 Y186.501 E.073
G1 X134.328 Y186.159 E.0125
G1 X134.148 Y185.903 E.01129
G1 X133.869 Y185.753 E.01141
G1 X132.153 Y185.294 E.06415
G1 X131.798 Y185.376 E.01317
G1 X131.561 Y185.569 E.01102
G1 X131.437 Y185.828 E.01038
G3 X120.818 Y205.317 I-38.527 J-8.355 E.81228
G1 X119.597 Y206.484 E.06102
G1 X119.147 Y206.797 E.01976
G1 X118.664 Y206.994 E.01883
G1 X118.146 Y207.054 E.01884
G1 X117.627 Y207.001 E.01882
G1 X117.142 Y206.81 E.01884
G1 X116.709 Y206.519 E.01883
G1 X116.37 Y206.123 E.01883
G1 X116.124 Y205.662 E.01884
G1 X116.005 Y205.19 E.0176
G3 X118.1 Y183.419 I38.658 J-7.266 E.80022
G1 X118.89 Y181.556 E.07309
G1 X118.873 Y181.204 E.0127
G1 X118.722 Y180.932 E.01126
G1 X118.467 Y180.756 E.01118
G1 X118.191 Y180.646 E.01074
G1 X118.424 Y181.301 F30000
;TYPE:Outer wall
G1 F3600
G1 X118.302 Y181.182 E.00615
G1 X116.769 Y180.574 E.05954
G1 X116.596 Y180.576 E.00628
G1 X116.471 Y180.707 E.00653
G3 X103.515 Y199.029 I-37.723 J-12.932 E.82132
G1 X102.248 Y199.985 E.05729
G1 X101.766 Y200.293 E.02066
G1 X101.166 Y200.495 E.02287
G1 X100.536 Y200.563 E.02287
G1 X99.911 Y200.46 E.02287
G1 X99.323 Y200.224 E.02287
G1 X98.821 Y199.839 E.02287
G1 X98.413 Y199.354 E.02287
G1 X98.15 Y198.778 E.02287
G1 X98.016 Y198.146 E.0233
G3 X102.673 Y176.388 I39.721 J-2.875 E.81423
M73 P2 R21
G1 X103.623 Y174.72 E.06932
G1 X103.643 Y174.54 E.00654
G1 X103.536 Y174.407 E.00617
