; HEADER_BLOCK_START
; generated by Creality_Print V5.1.6.10470 on 2024-12-10 at 16:54:30
; total layer number: 65
; filament_density: 1.24
; filament_diameter: 1.75
; max_z_height: 13.00
; HEADER_BLOCK_END

; MINX = 106.01
; MINY = 106.00
; MINZ = 0.00
; MAXX = 113.99
; MAXY = 114.00
; MAXZ = 13.00

; THUMBNAIL_BLOCK_START

;
; THUMBNAIL_BLOCK_END

; THUMBNAIL_BLOCK_START

;
; THUMBNAIL_BLOCK_END

; external perimeters extrusion width = 0.42mm
; perimeters extrusion width = 0.45mm
; infill extrusion width = 0.45mm
; solid infill extrusion width = 0.42mm
; top infill extrusion width = 0.42mm
; support material extrusion width = 0.42mm
; first layer extrusion width = 0.50mm

; EXECUTABLE_BLOCK_START
EXCLUDE_OBJECT_DEFINE NAME=washer_6.stl_id_0_copy_0 CENTER=110,110 POLYGON=[[106.009,109.727],[106.084,109.186],[106.231,108.66],[106.448,108.16],[106.732,107.693],[107.077,107.27],[107.476,106.897],[107.922,106.582],[108.406,106.331],[108.921,106.148],[109.455,106.037],[110,106],[110.545,106.037],[111.079,106.148],[111.594,106.331],[112.078,106.582],[112.524,106.897],[112.923,107.27],[113.268,107.693],[113.552,108.16],[113.769,108.66],[113.916,109.186],[113.991,109.727],[113.991,110.273],[113.916,110.814],[113.769,111.34],[113.552,111.84],[113.268,112.307],[112.923,112.73],[112.524,113.103],[112.078,113.418],[111.594,113.669],[111.079,113.852],[110.545,113.963],[110,114],[109.455,113.963],[108.921,113.852],[108.406,113.669],[107.922,113.418],[107.476,113.103],[107.077,112.73],[106.732,112.307],[106.448,111.84],[106.231,111.34],[106.084,110.814],[106.009,110.273],[106.009,109.727]]
M73 P0 R4
M106 S0
M106 P2 S0
;TYPE:Custom
M140 S0
M104 S0 
START_PRINT EXTRUDER_TEMP=230 BED_TEMP=50
M141 S35;set chamber_temperature
G90
G21
M83 ; use relative distances for extrusion
; filament start gcode
M106 S0
;LAYER_CHANGE
;Z:0.2
;HEIGHT:0.2
;BEFORE_LAYER_CHANGE
;0.2
G92 E0

G1 E-.5 F2400
;AFTER_LAYER_CHANGE
;0.2
;_SET_FAN_SPEED_CHANGING_LAYER
SET_VELOCITY_LIMIT ACCEL=1000 ACCEL_TO_DECEL=1000
SET_VELOCITY_LIMIT SQUARE_CORNER_VELOCITY=20
; printing object washer 6.stl id:0 copy 0
EXCLUDE_OBJECT_START NAME=washer_6.stl_id_0_copy_0
G1 X108.064 Y107.537 F30000
G1 Z.4
G1 Z.2
G1 E.5 F2400
;TYPE:Inner wall
;WIDTH:0.499999
G1 F1318
G1 X108.39 Y107.317 E.0142
G3 X109.54 Y106.895 I1.772 J3.05 E.04444
G3 X110.876 Y106.986 I.437 J3.463 E.04866
G1 X111.54 Y107.269 E.02608
G3 X112.347 Y107.889 I-1.734 J3.091 E.03687
G1 X111.4 Y107.843 E.03423
G2 X107.652 Y107.889 I-1.179 J57.716 E.13536
G3 X107.965 Y107.608 I2.51 J2.478 E.01519
G1 X108.031 Y107.56 E.00294
G1 E-.35 F2400
;WIPE_START
G1 F3600
G1 X108.39 Y107.317 E-.06501
G1 X108.9 Y107.07 E-.08499
;WIPE_END
G1 X109.807 Y112.155 Z.6 F30000
G1 Z.2
G1 E.5 F2400
G1 F1318
G1 X111.469 Y112.154 E.06002
G1 X112.343 Y112.112 E.03159
G3 X111.54 Y112.731 I-2.486 J-2.396 E.03673
G1 X110.876 Y113.014 E.02607
G3 X109.124 Y113.014 I-.876 J-3.019 E.0641
G1 X108.46 Y112.731 E.02607
G3 X107.653 Y112.111 I1.734 J-3.091 E.03688
G1 X108.6 Y112.157 E.03424
G1 X109.767 Y112.155 E.04214
G1 E-.35 F2400
;WIPE_START
G1 F3600
G1 X110.767 Y112.155 E-.15
;WIPE_END
G1 X107.014 Y108.54 Z.6 F30000
G1 Z.2
G1 E.5 F2400
;TYPE:Outer wall
;WIDTH:0.495434
G1 F1318
G1 X107.133 Y108.461 E.0051
;WIDTH:0.499999
G1 X107.643 Y108.351 E.01885
G3 X109.067 Y108.3 I1.292 J16.219 E.05145
G1 X111.4 Y108.301 E.08425
G1 X112.323 Y108.349 E.03336
G1 X112.867 Y108.461 E.02006
;WIDTH:0.495434
G1 X113.017 Y108.599 E.00728
;WIDTH:0.51755
G1 X113.118 Y109.276 E.02566
;WIDTH:0.520411
G1 X113.148 Y110.253 E.03687
G1 X113.065 Y111.181 E.03514
;WIDTH:0.504469
G1 X112.986 Y111.46 E.01058
;WIDTH:0.493779
G1 X112.867 Y111.538 E.00507
;WIDTH:0.499999
G1 X112.349 Y111.65 E.01914
G3 X110.728 Y111.699 I-1.286 J-15.448 E.05857
G1 X108.6 Y111.699 E.07684
G1 X107.677 Y111.651 E.03336
G1 X107.133 Y111.538 E.02006
;WIDTH:0.493782
G1 X106.999 Y111.434 E.00603
;WIDTH:0.504447
G1 X106.935 Y111.181 E.00952
;WIDTH:0.513528
G1 X106.857 Y110.458 E.02704
;WIDTH:0.520466
M73 P1 R4
G1 X106.852 Y109.747 E.02683
;WIDTH:0.513489
G1 X106.935 Y108.819 E.03464
;WIDTH:0.504477
G1 X107.003 Y108.578 E.00912
G1 E-.35 F2400
;WIPE_START
G1 F3600
G1 X107.133 Y108.461 E-.02624
G1 X107.643 Y108.351 E-.0783
G1 X107.946 Y108.335 E-.04546
;WIPE_END
G1 X113.332 Y108.282 Z.6 F30000
G1 Z.2
G1 E.5 F2400
;WIDTH:0.50447
G1 F1318
G1 X113.518 Y108.732 E.01775
;WIDTH:0.51755
G1 X113.591 Y109.235 E.01908
;WIDTH:0.520411
G1 X113.625 Y109.747 E.01933
G1 X113.612 Y110.499 E.02836
;WIDTH:0.513519
G1 X113.523 Y111.241 E.02778
;WIDTH:0.504469
G1 X113.381 Y111.635 E.01527
;WIDTH:0.493779
G1 X113.131 Y111.968 E.01483
;WIDTH:0.499999
G3 X111.911 Y113.046 I-5.153 J-4.602 E.05893
G3 X107.698 Y112.767 I-1.91 J-3.104 E.16261
G3 X106.677 Y111.74 I5.145 J-6.141 E.05234
;WIDTH:0.504447
G1 X106.482 Y111.268 E.01863
;WIDTH:0.517479
G1 X106.409 Y110.761 E.01923
;WIDTH:0.520436
G3 X106.388 Y109.501 I7.422 J-.75 E.04756
;WIDTH:0.513489
G1 X106.477 Y108.759 E.02778
;WIDTH:0.504477
G1 X106.657 Y108.284 E.01854
;WIDTH:0.499999
G3 X108.174 Y106.902 I4.718 J3.656 E.07445
G1 X108.778 Y106.624 E.024
G1 X109.447 Y106.448 E.02497
G3 X112.302 Y107.233 I.551 J3.579 E.11016
G3 X113.313 Y108.247 I-5.145 J6.141 E.05177
G1 E-.35 F2400
;WIPE_START
G1 F3600
G1 X113.518 Y108.732 E-.07893
G1 X113.586 Y109.201 E-.07107
;WIPE_END
G1 X110.137 Y106.983 Z.6 F30000
G1 Z.2
G1 E.5 F2400
;TYPE:Bottom surface
;WIDTH:0.50448
G1 F1318
G1 X110.679 Y107.525 E.02794
G1 X110.027 Y107.526 E.02375
G1 X109.702 Y107.201 E.01677
G2 X109.161 Y107.312 I.375 J3.197 E.02018
G1 X109.581 Y107.733 E.02168
G1 E-.35 F2400
;WIPE_START
G1 F6300
G1 X109.161 Y107.312 E-.08918
G1 X109.556 Y107.22 E-.06082
;WIPE_END
G1 X111.283 Y107.51 Z.6 F30000
G1 Z.2
G1 E.5 F2400
;TYPE:Gap infill
;WIDTH:0.12527
G1 F1318
G1 X110.708 Y107.2 E.00425
G1 E-.35 F2400
;WIPE_START
G1 F3600
G1 X111.283 Y107.51 E-.15
;WIPE_END
G1 X110.411 Y112.27 Z.6 F30000
G1 Z.2
G1 E.5 F2400
;TYPE:Bottom surface
;WIDTH:0.502857
G1 F1318
G1 X110.832 Y112.69 E.02162
G3 X110.291 Y112.8 I-.932 J-3.201 E.02007
G1 X109.966 Y112.475 E.01671
G1 X109.315 Y112.474 E.02366
G1 X109.857 Y113.017 E.02786
G1 E-.35 F2400
;WIPE_START
G1 F6300
G1 X109.315 Y112.474 E-.11503
G1 X109.548 Y112.475 E-.03497
;WIPE_END
G1 X109.071 Y112.383 Z.6 F30000
G1 Z.2
G1 E.5 F2400
;TYPE:Gap infill
;WIDTH:0.27535
G1 F1318
G1 X108.983 Y112.457 E.00212
;WIDTH:0.319895
G1 X108.898 Y112.537 E.00255
;WIDTH:0.314369
G1 X109.028 Y112.66 E.00385
;WIDTH:0.294791
G1 X109.158 Y112.784 E.00357
G1 X109.286 Y112.799 F30000
;WIDTH:0.0977703
G1 F1318
G1 X108.712 Y112.489 E.00282
; stop printing object washer 6.stl id:0 copy 0
;TIME_ELAPSED:5.565059

M106 S255
;LAYER_CHANGE
;Z:0.4
;HEIGHT:0.2
;BEFORE_LAYER_CHANGE
;0.4
G92 E0

G1 E-.35 F2400
;WIPE_START
G1 F3600
G1 X109.286 Y112.799 E-.15
;WIPE_END
EXCLUDE_OBJECT_END NAME=washer_6.stl_id_0_copy_0
;AFTER_LAYER_CHANGE
;0.4
;_SET_FAN_SPEED_CHANGING_LAYER
SET_VELOCITY_LIMIT ACCEL=12000 ACCEL_TO_DECEL=12000
M140 S50 ; set bed temperature
; printing object washer 6.stl id:0 copy 0
EXCLUDE_OBJECT_START NAME=washer_6.stl_id_0_copy_0
G17
G3 Z.6 I1.145 J-.412 P1  F30000
G1 X107.469 Y107.744 Z.6
G1 Z.4
G1 E.5 F2400
SET_VELOCITY_LIMIT ACCEL=5000 ACCEL_TO_DECEL=5000
;TYPE:Inner wall
;WIDTH:0.449999
G1 F1476
G1 X107.509 Y107.697 E.002
G3 X112.809 Y108.098 I2.491 J2.302 E.19642
M73 P2 R4
G1 X107.191 Y108.098 E.18067
G1 X107.444 Y107.775 E.01318
SET_VELOCITY_LIMIT ACCEL=12000 ACCEL_TO_DECEL=12000
G1 E-.35 F2400
;WIPE_START
G1 F13265.237
G1 X107.509 Y107.697 E-.01533
G1 X107.836 Y107.385 E-.0678
G1 X108.198 Y107.124 E-.06687
;WIPE_END
G1 X108.927 Y111.902 Z.8 F30000
G1 Z.4
G1 E.5 F2400
SET_VELOCITY_LIMIT ACCEL=5000 ACCEL_TO_DECEL=5000
G1 F1476
G1 X112.809 Y111.902 E.12483
G3 X107.191 Y111.902 I-2.809 J-1.9 E.21291
G1 X108.887 Y111.902 E.05455
SET_VELOCITY_LIMIT ACCEL=12000 ACCEL_TO_DECEL=12000
G1 E-.35 F2400
;WIPE_START
G1 F13265.237
G1 X109.887 Y111.902 E-.15
;WIPE_END
G1 X107.031 Y108.537 Z.8 F30000
G1 Z.4
G1 E.5 F2400
SET_VELOCITY_LIMIT ACCEL=5000 ACCEL_TO_DECEL=5000
;TYPE:Outer wall
;WIDTH:0.450973
G1 F1476
G1 X107.255 Y108.49 E.00735
;WIDTH:0.419999
G1 X112.821 Y108.49 E.16582
;WIDTH:0.45097
G1 X112.969 Y108.537 E.00498
;WIDTH:0.473589
G1 X113.031 Y108.628 E.00375
G1 X113.02 Y108.965 E.01145
;WIDTH:0.446794
G1 X113.01 Y109.301 E.01074
;WIDTH:0.419999
G1 X113.01 Y110.699 E.04164
;WIDTH:0.447869
G1 X113.024 Y111.321 E.01992
;WIDTH:0.47359
G1 X113.001 Y111.44 E.00411
G1 X112.911 Y111.475 E.00328
;WIDTH:0.446795
G1 X112.821 Y111.51 E.00308
;WIDTH:0.419999
G1 X107.179 Y111.51 E.16808
;WIDTH:0.446797
G1 X107.089 Y111.475 E.00308
;WIDTH:0.473594
G1 X106.999 Y111.44 E.00328
G1 X106.994 Y111.064 E.01281
;WIDTH:0.446797
G1 X106.99 Y110.687 E.01201
;WIDTH:0.419999
G1 X106.99 Y109.289 E.04163
;WIDTH:0.459612
G1 X106.97 Y108.679 E.02012
;WIDTH:0.470355
G3 X107.001 Y108.564 I.14 J-.023 E.00412
SET_VELOCITY_LIMIT ACCEL=12000 ACCEL_TO_DECEL=12000
G1 E-.35 F2400
;WIPE_START
G1 F12000
G1 X107.255 Y108.49 E-.03959
G1 X107.991 Y108.49 E-.11041
;WIPE_END
G1 X113.355 Y108.274 Z.8 F30000
G1 Z.4
G1 E.5 F2400
SET_VELOCITY_LIMIT ACCEL=5000 ACCEL_TO_DECEL=5000
;WIDTH:0.45097
G1 F1476
G1 X113.357 Y108.279 E.00018
G3 X113.567 Y108.753 I-4.805 J2.407 E.01671
;WIDTH:0.439192
G1 X113.714 Y109.253 E.01632
;WIDTH:0.419999
G1 X113.781 Y109.768 E.01546
G3 X113.704 Y110.794 I-3.787 J.232 E.03076
;WIDTH:0.428685
G1 X113.559 Y111.285 E.0156
;WIDTH:0.462921
G3 X113.096 Y112.185 I-8.252 J-3.676 E.03359
;WIDTH:0.419999
G3 X106.904 Y112.185 I-3.096 J-2.188 E.2158
;WIDTH:0.462924
G3 X106.434 Y111.268 I7.169 J-4.256 E.03423
;WIDTH:0.428782
G1 X106.288 Y110.759 E.01614
;WIDTH:0.419999
G3 X106.293 Y109.217 I4.138 J-.757 E.04618
;WIDTH:0.439191
G1 X106.446 Y108.717 E.01638
;WIDTH:0.450973
G3 X106.904 Y107.815 I5.237 J2.092 E.03265
;WIDTH:0.419999
G3 X113.111 Y107.84 I3.095 J2.194 E.21652
;WIDTH:0.45097
G1 X113.335 Y108.239 E.01475
SET_VELOCITY_LIMIT ACCEL=12000 ACCEL_TO_DECEL=12000
G1 E-.35 F2400
;WIPE_START
G1 F12000
G1 X113.357 Y108.279 E-.00683
G1 X113.567 Y108.753 E-.07773
G1 X113.69 Y109.171 E-.06545
;WIPE_END
G1 X113.363 Y109.301 Z.8 F30000
G1 Z.4
M73 P3 R4
G1 E.5 F2400
SET_VELOCITY_LIMIT ACCEL=5000 ACCEL_TO_DECEL=5000
;TYPE:Inner wall
;WIDTH:0.404592
G1 F1476
G1 X113.379 Y109.767 E.01331
;WIDTH:0.436522
G3 X113.379 Y110.466 I-3.394 J.349 E.02177
;WIDTH:0.404592
G1 X113.363 Y110.699 E.00668
SET_VELOCITY_LIMIT ACCEL=12000 ACCEL_TO_DECEL=12000
G1 E-.35 F2400
;WIPE_START
G1 F14930.657
G1 X113.379 Y110.466 E-.03508
G1 X113.395 Y110.232 E-.03508
G1 X113.379 Y109.767 E-.06988
G1 X113.377 Y109.7 E-.00996
;WIPE_END
G1 X106.638 Y109.289 Z.8 F30000
G1 Z.4
G1 E.5 F2400
SET_VELOCITY_LIMIT ACCEL=5000 ACCEL_TO_DECEL=5000
;WIDTH:0.403005
G1 F1476
G1 X106.621 Y109.529 E.00683
;WIDTH:0.436524
G2 X106.62 Y110.228 I3.357 J.355 E.02177
;WIDTH:0.405408
G1 X106.636 Y110.687 E.01316
SET_VELOCITY_LIMIT ACCEL=12000 ACCEL_TO_DECEL=12000
G1 X108.069 Y112.294 F30000
;TYPE:Internal solid infill
;WIDTH:0.419999
G1 F1476
G2 X110.025 Y113.001 I1.963 J-2.372 E.06321
G1 X110.79 Y112.896 E.023
G2 X111.931 Y112.294 I-.896 J-3.082 E.0387
G1 X108.109 Y112.294 E.11387
G1 X109.638 Y112.636 F30000
;WIDTH:0.349616
G1 F1476
G1 X110.356 Y112.633 E.01739
G1 E-.38514 F2400
;WIPE_START
G1 F15000
G1 X109.638 Y112.636 E-.11486
;WIPE_END
G1 X108.069 Y107.706 Z.8 F30000
G1 Z.4
G1 E.5 F2400
;WIDTH:0.419999
G1 F1476
G1 X111.931 Y107.706 E.11506
G2 X110.79 Y107.104 I-2.07 J2.541 E.03869
G1 X110.068 Y107.001 E.02172
G2 X108.101 Y107.682 I-.05 J3.037 E.06329
G1 X109.633 Y107.364 F30000
;WIDTH:0.348658
G1 F1476
G1 X110.322 Y107.364 E.01665
; stop printing object washer 6.stl id:0 copy 0
;TIME_ELAPSED:10.134367

M106 P2 S204
;LAYER_CHANGE
;Z:0.6
;HEIGHT:0.2
;BEFORE_LAYER_CHANGE
;0.6
G92 E0

G1 E-.38971 F2400
;WIPE_START
G1 F15000
G1 X109.633 Y107.364 E-.11029
;WIPE_END
EXCLUDE_OBJECT_END NAME=washer_6.stl_id_0_copy_0
;AFTER_LAYER_CHANGE
;0.6
;_SET_FAN_SPEED_CHANGING_LAYER
; printing object washer 6.stl id:0 copy 0
EXCLUDE_OBJECT_START NAME=washer_6.stl_id_0_copy_0
G17
G3 Z.8 I-.21 J-1.199 P1  F30000
G1 X107.469 Y107.744 Z.8
G1 Z.6
G1 E.5 F2400
SET_VELOCITY_LIMIT ACCEL=5000 ACCEL_TO_DECEL=5000
;TYPE:Inner wall
;WIDTH:0.449999
G1 F1468
G1 X107.509 Y107.697 E.002
G3 X112.809 Y108.098 I2.491 J2.302 E.19641
G1 X107.191 Y108.098 E.18067
G1 X107.444 Y107.775 E.01318
SET_VELOCITY_LIMIT ACCEL=12000 ACCEL_TO_DECEL=12000
G1 E-.35 F2400
;WIPE_START
G1 F13265.237
G1 X107.509 Y107.697 E-.01533
G1 X107.836 Y107.385 E-.0678
G1 X108.198 Y107.124 E-.06687
;WIPE_END
G1 X108.928 Y111.902 Z1 F30000
G1 Z.6
G1 E.5 F2400
SET_VELOCITY_LIMIT ACCEL=5000 ACCEL_TO_DECEL=5000
G1 F1468
G1 X112.809 Y111.902 E.12482
G3 X107.191 Y111.902 I-2.809 J-1.901 E.2129
G1 X108.888 Y111.902 E.05457
SET_VELOCITY_LIMIT ACCEL=12000 ACCEL_TO_DECEL=12000
G1 E-.35 F2400
;WIPE_START
G1 F13265.237
G1 X109.888 Y111.902 E-.15
;WIPE_END
G1 X107.031 Y108.537 Z1 F30000
G1 Z.6
G1 E.5 F2400
SET_VELOCITY_LIMIT ACCEL=5000 ACCEL_TO_DECEL=5000
;TYPE:Outer wall
;WIDTH:0.450971
G1 F1468
G1 X107.255 Y108.49 E.00735
;WIDTH:0.419999
G1 X112.821 Y108.49 E.16582
;WIDTH:0.45097
G1 X112.969 Y108.537 E.00498
;WIDTH:0.473591
G1 X113.031 Y108.628 E.00375
G1 X113.02 Y108.965 E.01145
;WIDTH:0.446795
G1 X113.01 Y109.301 E.01074
;WIDTH:0.419999
G1 X113.01 Y110.699 E.04164
;WIDTH:0.447868
G1 X113.024 Y111.321 E.01992
;WIDTH:0.47359
G1 X113.001 Y111.44 E.00411
M73 P4 R4
G1 X112.911 Y111.475 E.00328
;WIDTH:0.446795
G1 X112.821 Y111.51 E.00308
;WIDTH:0.419999
G1 X107.179 Y111.51 E.16808
;WIDTH:0.446796
G1 X107.089 Y111.475 E.00308
;WIDTH:0.473593
G1 X106.999 Y111.44 E.00328
G1 X106.994 Y111.06 E.01292
;WIDTH:0.446796
G1 X106.99 Y110.681 E.01212
;WIDTH:0.419999
G1 X106.99 Y109.283 E.04163
;WIDTH:0.459612
G1 X106.97 Y108.679 E.01991
;WIDTH:0.470354
G3 X107.001 Y108.564 I.14 J-.023 E.00412
SET_VELOCITY_LIMIT ACCEL=12000 ACCEL_TO_DECEL=12000
G1 E-.35 F2400
;WIPE_START
G1 F12000
G1 X107.255 Y108.49 E-.03959
G1 X107.991 Y108.49 E-.11041
;WIPE_END
G1 X113.355 Y108.274 Z1 F30000
G1 Z.6
G1 E.5 F2400
SET_VELOCITY_LIMIT ACCEL=5000 ACCEL_TO_DECEL=5000
;WIDTH:0.45097
G1 F1468
G1 X113.357 Y108.279 E.00017
G3 X113.567 Y108.753 I-4.805 J2.407 E.01671
;WIDTH:0.439192
G1 X113.714 Y109.253 E.01632
;WIDTH:0.419999
G1 X113.781 Y109.768 E.01546
G3 X113.714 Y110.747 I-3.787 J.232 E.02932
;WIDTH:0.428685
G1 X113.572 Y111.249 E.01589
;WIDTH:0.46292
G3 X113.111 Y112.16 I-7.605 J-3.272 E.0339
;WIDTH:0.419999
G3 X106.904 Y112.185 I-3.112 J-2.177 E.21641
;WIDTH:0.462923
G3 X106.434 Y111.268 I7.165 J-4.253 E.03423
;WIDTH:0.428826
G1 X106.293 Y110.775 E.01563
;WIDTH:0.419999
G3 X106.295 Y109.211 I4.051 J-.778 E.04687
;WIDTH:0.439191
G1 X106.446 Y108.717 E.01617
;WIDTH:0.450971
G3 X106.904 Y107.815 I5.237 J2.092 E.03265
;WIDTH:0.419999
G3 X113.111 Y107.84 I3.095 J2.194 E.21652
;WIDTH:0.45097
G1 X113.335 Y108.239 E.01476
SET_VELOCITY_LIMIT ACCEL=12000 ACCEL_TO_DECEL=12000
G1 E-.35 F2400
;WIPE_START
G1 F12000
G1 X113.357 Y108.279 E-.00678
G1 X113.567 Y108.753 E-.07773
G1 X113.69 Y109.172 E-.06549
;WIPE_END
G1 X113.363 Y109.301 Z1 F30000
G1 Z.6
G1 E.5 F2400
SET_VELOCITY_LIMIT ACCEL=5000 ACCEL_TO_DECEL=5000
;TYPE:Inner wall
;WIDTH:0.404592
G1 F1468
G1 X113.379 Y109.767 E.01331
;WIDTH:0.436522
G3 X113.379 Y110.466 I-3.394 J.349 E.02177
;WIDTH:0.404592
G1 X113.363 Y110.699 E.00668
SET_VELOCITY_LIMIT ACCEL=12000 ACCEL_TO_DECEL=12000
G1 E-.35 F2400
;WIPE_START
G1 F14930.657
G1 X113.379 Y110.466 E-.03508
G1 X113.395 Y110.232 E-.03508
G1 X113.379 Y109.767 E-.06988
G1 X113.377 Y109.7 E-.00996
;WIPE_END
G1 X106.635 Y110.681 Z1 F30000
G1 Z.6
G1 E.5 F2400
SET_VELOCITY_LIMIT ACCEL=5000 ACCEL_TO_DECEL=5000
;WIDTH:0.405854
G1 F1468
G1 X106.62 Y110.225 E.01307
;WIDTH:0.436524
G3 X106.622 Y109.526 I3.339 J-.34 E.02177
;WIDTH:0.402117
G1 X106.639 Y109.283 E.00691
SET_VELOCITY_LIMIT ACCEL=12000 ACCEL_TO_DECEL=12000
G1 X108.069 Y107.706 F30000
;TYPE:Internal solid infill
;WIDTH:0.419999
G1 F1468
G1 X111.931 Y107.706 E.11506
G2 X110.386 Y107.023 I-1.924 J2.264 E.05104
G1 X109.615 Y107.023 E.02295
G2 X108.101 Y107.682 I.368 J2.915 E.04986
