; HEADER_BLOCK_START
; generated by Creality_Print V5.1.6.10470 on 2024-12-10 at 16:53:15
; total layer number: 75
; filament_density: 1.24
; filament_diameter: 1.75
; max_z_height: 15.00
; HEADER_BLOCK_END

; MINX = 104.91
; MINY = 104.91
; MINZ = 0.00
; MAXX = 115.09
; MAXY = 115.09
; MAXZ = 15.00

; THUMBNAIL_BLOCK_START

;
; THUMBNAIL_BLOCK_END

; THUMBNAIL_BLOCK_START

;
; THUMBNAIL_BLOCK_END

; external perimeters extrusion width = 0.42mm
; perimeters extrusion width = 0.45mm
; infill extrusion width = 0.45mm
; solid infill extrusion width = 0.42mm
; top infill extrusion width = 0.42mm
; support material extrusion width = 0.42mm
; first layer extrusion width = 0.50mm

; EXECUTABLE_BLOCK_START
EXCLUDE_OBJECT_DEFINE NAME=Washer_4.stl_id_0_copy_0 CENTER=110,110 POLYGON=[[104.913,110],[104.95,109.387],[105.061,108.783],[105.244,108.196],[105.496,107.636],[105.813,107.11],[106.192,106.627],[106.627,106.192],[107.11,105.813],[107.636,105.496],[108.196,105.244],[108.783,105.061],[109.387,104.95],[110,104.913],[110.613,104.95],[111.217,105.061],[111.804,105.244],[112.364,105.496],[112.89,105.813],[113.373,106.192],[113.808,106.627],[114.187,107.11],[114.504,107.636],[114.756,108.196],[114.939,108.783],[115.05,109.387],[115.087,110],[115.05,110.613],[114.939,111.217],[114.756,111.804],[114.504,112.364],[114.187,112.89],[113.808,113.373],[113.373,113.808],[112.89,114.187],[112.364,114.504],[111.804,114.756],[111.217,114.939],[110.613,115.05],[110,115.087],[109.387,115.05],[108.783,114.939],[108.196,114.756],[107.636,114.504],[107.11,114.187],[106.627,113.808],[106.192,113.373],[105.813,112.89],[105.496,112.364],[105.244,111.804],[105.061,111.217],[104.95,110.613],[104.913,110]]
M73 P0 R5
M106 S0
M106 P2 S0
;TYPE:Custom
M140 S0
M104 S0 
START_PRINT EXTRUDER_TEMP=230 BED_TEMP=50
M141 S35;set chamber_temperature
G90
G21
M83 ; use relative distances for extrusion
; filament start gcode
M106 S0
;LAYER_CHANGE
;Z:0.2
;HEIGHT:0.2
;BEFORE_LAYER_CHANGE
;0.2
G92 E0

G1 E-.5 F2400
;AFTER_LAYER_CHANGE
;0.2
;_SET_FAN_SPEED_CHANGING_LAYER
SET_VELOCITY_LIMIT ACCEL=1000 ACCEL_TO_DECEL=1000
SET_VELOCITY_LIMIT SQUARE_CORNER_VELOCITY=20
; printing object Washer 4.stl id:0 copy 0
EXCLUDE_OBJECT_START NAME=Washer_4.stl_id_0_copy_0
G1 X113.814 Y111.938 F30000
G1 Z.4
G1 Z.2
G1 E.5 F2400
;TYPE:Inner wall
;WIDTH:0.424588
G1 F2467
G1 X113.789 Y112 E.00203
;WIDTH:0.423885
G1 X113.686 Y112.134 E.00508
;WIDTH:0.460571
G1 X113.584 Y112.269 E.00557
;WIDTH:0.497257
G1 X113.481 Y112.403 E.00606
;WIDTH:0.499999
G3 X106.513 Y112.392 I-3.481 J-2.417 E.29539
;WIDTH:0.497258
G1 X106.409 Y112.256 E.00616
;WIDTH:0.460572
G1 X106.305 Y112.119 E.00566
;WIDTH:0.423886
G1 X106.202 Y111.982 E.00517
;WIDTH:0.424588
G1 X106.008 Y111.502 E.01561
;WIDTH:0.461693
G1 X105.949 Y111.25 E.00854
;WIDTH:0.498798
G1 X105.891 Y110.999 E.0093
;WIDTH:0.54246
G1 X105.823 Y110.492 E.02017
;WIDTH:0.556872
G3 X105.826 Y109.478 I5.477 J-.487 E.04123
;WIDTH:0.54246
G1 X105.898 Y108.975 E.02006
;WIDTH:0.498799
G1 X105.957 Y108.726 E.00922
;WIDTH:0.461694
G1 X106.016 Y108.477 E.00847
;WIDTH:0.424589
G1 X106.211 Y108 E.01554
;WIDTH:0.424799
G1 X106.314 Y107.866 E.0051
;WIDTH:0.462399
G1 X106.417 Y107.732 E.0056
;WIDTH:0.499999
G3 X107.196 Y106.835 I5.698 J4.161 E.04293
G3 X113.486 Y107.608 I2.804 J3.167 E.25866
G1 X113.59 Y107.745 E.0062
;WIDTH:0.462399
G1 X113.694 Y107.882 E.00569
;WIDTH:0.424799
G1 X113.798 Y108.018 E.00518
;WIDTH:0.424499
G1 X113.992 Y108.498 E.0156
;WIDTH:0.461817
G1 X114.051 Y108.752 E.00861
;WIDTH:0.499134
G1 X114.109 Y109.005 E.00938
;WIDTH:0.542459
G1 X114.177 Y109.508 E.02002
;WIDTH:0.55687
G1 X114.199 Y110.016 E.02062
G1 X114.174 Y110.522 E.02059
;WIDTH:0.542459
G1 X114.102 Y111.025 E.02006
;WIDTH:0.498799
G1 X114.043 Y111.274 E.00922
;WIDTH:0.461694
G1 X113.984 Y111.523 E.00847
;WIDTH:0.424588
G1 X113.829 Y111.901 E.0123
G1 E-.35 F2400
;WIPE_START
G1 F3600
G1 X113.789 Y112 E-.0161
G1 X113.686 Y112.134 E-.02533
G1 X113.584 Y112.269 E-.02533
G1 X113.481 Y112.403 E-.02533
G1 X113.242 Y112.706 E-.0579
;WIPE_END
G1 X106.993 Y108.324 Z.6 F30000
G1 X106.625 Y108.066 Z.6
G1 Z.2
G1 E.5 F2400
;WIDTH:0.460738
G1 F2467
G1 X106.661 Y108.021 E.00188
;WIDTH:0.499999
G1 X106.763 Y107.897 E.00582
G1 X107.126 Y107.843 E.01327
G1 X112.971 Y107.843 E.21104
G1 X113.237 Y107.897 E.00979
G1 X113.339 Y108.021 E.00582
;WIDTH:0.460737
G1 X113.441 Y108.146 E.00532
;WIDTH:0.421475
G1 X113.543 Y108.271 E.00482
;WIDTH:0.424499
G1 X113.619 Y108.555 E.00884
;WIDTH:0.463819
G1 X113.639 Y108.877 E.01075
;WIDTH:0.503139
G1 X113.659 Y109.2 E.01176
;WIDTH:0.542459
G3 X113.659 Y110.8 I-16.261 J.8 E.06314
;WIDTH:0.503169
G1 X113.639 Y111.122 E.01175
;WIDTH:0.463879
G1 X113.619 Y111.445 E.01075
;WIDTH:0.424588
G1 X113.497 Y111.817 E.01179
;WIDTH:0.423885
G1 X113.411 Y111.912 E.00388
;WIDTH:0.460571
G1 X113.324 Y112.007 E.00425
;WIDTH:0.497257
G1 X113.237 Y112.102 E.00463
;WIDTH:0.499999
G1 X112.874 Y112.157 E.01326
G1 X107.029 Y112.157 E.21104
G1 X106.763 Y112.102 E.00978
;WIDTH:0.497258
G1 X106.676 Y112.007 E.00463
;WIDTH:0.460572
G1 X106.589 Y111.912 E.00425
;WIDTH:0.423886
G1 X106.503 Y111.817 E.00388
;WIDTH:0.424588
G1 X106.381 Y111.445 E.01179
;WIDTH:0.463879
G1 X106.361 Y111.122 E.01075
;WIDTH:0.50317
G1 X106.341 Y110.8 E.01175
;WIDTH:0.54246
G3 X106.341 Y109.2 I16.264 J-.8 E.06313
;WIDTH:0.50317
G1 X106.361 Y108.878 E.01175
;WIDTH:0.46388
G1 X106.381 Y108.555 E.01075
;WIDTH:0.424589
G1 X106.457 Y108.271 E.00886
;WIDTH:0.421477
G1 X106.559 Y108.146 E.00482
;WIDTH:0.460738
G1 X106.6 Y108.097 E.00212
G1 X106.8 Y108.529 F30000
;TYPE:Outer wall
;WIDTH:0.499999
G1 F2467
G3 X106.94 Y108.318 I.229 J0 E.00968
G1 X107.578 Y108.3 E.02305
G1 X112.971 Y108.3 E.19473
G1 X113.06 Y108.318 E.00326
G1 X113.193 Y108.472 E.00735
G3 X113.2 Y111.471 I-121.912 J1.787 E.1083
G1 X113.144 Y111.622 E.00579
G1 X112.971 Y111.7 E.00683
G1 X107.029 Y111.7 E.21457
G1 X106.856 Y111.622 E.00683
G1 X106.8 Y111.445 E.0067
G1 X106.8 Y108.569 E.10386
G1 E-.35 F2400
;WIPE_START
G1 F3600
G1 X106.837 Y108.403 E-.02544
G1 X106.94 Y108.318 E-.02
G1 X107.578 Y108.3 E-.09576
G1 X107.637 Y108.3 E-.0088
;WIPE_END
G1 X114.357 Y111.715 Z.6 F30000
G1 Z.2
G1 E.5 F2400
G1 F2467
G1 X114.356 Y111.72 E.00017
G3 X114.655 Y109.479 I-4.352 J-1.72 E.97918
M73 P1 R5
G1 X114.684 Y110.045 E.02045
G3 X114.537 Y111.161 I-4.679 J-.045 E.04074
G1 X114.37 Y111.677 E.01959
G1 E-.35 F2400
;WIPE_START
G1 F3600
G1 X114.356 Y111.72 E-.00672
G1 X114.132 Y112.208 E-.08055
G1 X113.912 Y112.564 E-.06273
;WIPE_END
G1 X113.062 Y112.73 Z.6 F30000
G1 Z.2
G1 E.5 F2400
;TYPE:Bottom surface
;WIDTH:0.502298
G1 F2467
G1 X112.809 Y112.477 E.013
G1 X112.159 Y112.477 E.02357
G1 X112.599 Y112.917 E.02257
G1 X112.236 Y113.203 E.01678
G1 X111.51 Y112.477 E.03728
G1 X110.86 Y112.477 E.02357
G1 X111.833 Y113.45 E.04993
G1 X111.387 Y113.653 E.0178
G1 X110.21 Y112.477 E.06037
G1 X109.561 Y112.477 E.02357
G1 X110.887 Y113.803 E.06806
G3 X110.322 Y113.888 I-.633 J-2.282 E.02077
G1 X108.911 Y112.477 E.07243
G1 X108.261 Y112.477 E.02357
G1 X109.672 Y113.888 E.07241
G3 X108.868 Y113.733 I.355 J-4.005 E.0298
G1 X107.612 Y112.477 E.06445
G1 X106.985 Y112.477 E.02273
G1 X107.069 Y112.584 E.00494
G1 X108.16 Y113.675 E.05599
G1 E-.35 F2400
;WIPE_START
G1 F6300
G1 X107.453 Y112.968 E-.15
;WIPE_END
G1 X111.613 Y106.569 Z.6 F30000
G1 X111.787 Y106.301 Z.6
G1 Z.2
G1 E.5 F2400
;WIDTH:0.54322
G1 F2467
G1 X113.009 Y107.523 E.06829
G1 X112.301 Y107.523 E.02796
G1 X111.006 Y106.228 E.07239
G1 X110.935 Y106.206 E.00293
G2 X110.173 Y106.103 I-.805 J3.085 E.03045
G1 X111.594 Y107.523 E.07938
G1 X110.886 Y107.523 E.02796
G1 X109.491 Y106.128 E.07799
G2 X108.91 Y106.254 I.23 J2.456 E.02356
G1 X110.179 Y107.523 E.07092
G1 X109.471 Y107.523 E.02796
G1 X108.394 Y106.445 E.06023
G2 X107.932 Y106.692 I.784 J2.022 E.02071
G1 X108.764 Y107.523 E.04646
G1 X108.056 Y107.523 E.02796
G1 X107.521 Y106.987 E.02993
G2 X107.155 Y107.329 I1.214 J1.668 E.01983
G1 X107.554 Y107.729 E.02234
G1 E-.35 F2400
;WIPE_START
G1 F6300
G1 X107.155 Y107.329 E-.0848
G1 X107.408 Y107.075 E-.05382
G1 X107.468 Y107.028 E-.01139
;WIPE_END
G1 X111.654 Y106.434 Z.6 F30000
G1 Z.2
G1 E.5 F2400
;TYPE:Gap infill
;WIDTH:0.147396
G1 F2467
G1 X111.474 Y106.31 E.0018
; stop printing object Washer 4.stl id:0 copy 0
;TIME_ELAPSED:5.858591

M106 S255
;LAYER_CHANGE
;Z:0.4
;HEIGHT:0.2
;BEFORE_LAYER_CHANGE
;0.4
G92 E0

G1 E-.35454 F2400
;WIPE_START
G1 F3600
G1 X111.654 Y106.434 E-.14546
;WIPE_END
EXCLUDE_OBJECT_END NAME=Washer_4.stl_id_0_copy_0
;AFTER_LAYER_CHANGE
;0.4
;_SET_FAN_SPEED_CHANGING_LAYER
SET_VELOCITY_LIMIT ACCEL=12000 ACCEL_TO_DECEL=12000
M140 S50 ; set bed temperature
; printing object Washer 4.stl id:0 copy 0
EXCLUDE_OBJECT_START NAME=Washer_4.stl_id_0_copy_0
G17
G3 Z.6 I-1.122 J.47 P1  F30000
G1 X113.995 Y112.023 Z.6
G1 Z.4
G1 E.5 F2400
SET_VELOCITY_LIMIT ACCEL=5000 ACCEL_TO_DECEL=5000
;TYPE:Inner wall
;WIDTH:0.449999
G1 F2770
G1 X113.956 Y112.103 E.00287
G3 X105.655 Y108.899 I-3.955 J-2.107 E.41784
;WIDTH:0.494431
G1 X105.73 Y108.738 E.00634
;WIDTH:0.538863
G1 X105.804 Y108.576 E.00697
;WIDTH:0.583295
G1 X105.878 Y108.415 E.00759
;WIDTH:0.614966
G1 X106.002 Y108.181 E.01197
;WIDTH:0.646636
G2 X106.177 Y107.817 I-1.485 J-.936 E.01926
;WIDTH:0.597477
G1 X106.227 Y107.688 E.00607
;WIDTH:0.548318
G1 X106.277 Y107.559 E.00553
;WIDTH:0.499159
G1 X106.328 Y107.43 E.00499
;WIDTH:0.449999
G3 X113.705 Y107.478 I3.672 J2.598 E.27816
;WIDTH:0.499158
M73 P2 R5
G1 X113.752 Y107.603 E.00481
;WIDTH:0.548317
G1 X113.798 Y107.728 E.00533
;WIDTH:0.597476
G1 X113.844 Y107.853 E.00585
;WIDTH:0.646634
G2 X114.013 Y108.216 I1.551 J-.503 E.01913
;WIDTH:0.614962
G1 X114.136 Y108.454 E.01208
;WIDTH:0.583289
G1 X114.21 Y108.621 E.00781
;WIDTH:0.538859
G1 X114.285 Y108.788 E.00717
;WIDTH:0.494429
G1 X114.359 Y108.956 E.00653
;WIDTH:0.449999
G3 X114.482 Y110.033 I-4.365 J1.044 E.03494
G3 X114.181 Y111.612 I-4.482 J-.037 E.05199
G1 X114.011 Y111.987 E.01322
SET_VELOCITY_LIMIT ACCEL=12000 ACCEL_TO_DECEL=12000
G1 X114.538 Y111.777 F30000
SET_VELOCITY_LIMIT ACCEL=5000 ACCEL_TO_DECEL=5000
;TYPE:Outer wall
;WIDTH:0.419999
G1 F2770
G1 X114.249 Y112.384 E.02001
G3 X111.261 Y105.294 I-4.244 J-2.385 E.647
G3 X114.873 Y110.056 I-1.29 J4.729 E.19145
G3 X114.552 Y111.74 I-4.868 J-.058 E.05131
SET_VELOCITY_LIMIT ACCEL=12000 ACCEL_TO_DECEL=12000
G1 E-.35 F2400
;WIPE_START
G1 F12000
G1 X114.249 Y112.384 E-.10673
G1 X114.096 Y112.628 E-.04327
;WIPE_END
G1 X107.783 Y108.339 Z.8 F30000
G1 X107.428 Y108.098 Z.8
G1 Z.4
G1 E.5 F2400
SET_VELOCITY_LIMIT ACCEL=5000 ACCEL_TO_DECEL=5000
;TYPE:Inner wall
;WIDTH:0.449999
G1 F2770
G1 X108.011 Y108.098 E.01873
G1 X112.821 Y108.098 E.1547
G1 X113.079 Y108.158 E.00852
;WIDTH:0.499158
G1 X113.152 Y108.189 E.00285
;WIDTH:0.548317
G1 X113.225 Y108.219 E.00315
;WIDTH:0.597476
G1 X113.298 Y108.249 E.00346
;WIDTH:0.646634
G1 X113.371 Y108.28 E.00377
G1 X113.478 Y108.511 E.01217
;WIDTH:0.643739
G1 X113.459 Y108.644 E.00637
;WIDTH:0.595304
G1 X113.44 Y108.777 E.00585
;WIDTH:0.546869
G1 X113.421 Y108.91 E.00534
;WIDTH:0.498434
G1 X113.402 Y109.043 E.00483
;WIDTH:0.449999
G1 X113.402 Y111.321 E.07328
G1 X113.351 Y111.56 E.00784
G3 X112.821 Y111.902 I-.573 J-.306 E.02117
G1 X107.179 Y111.902 E.18146
G1 X106.921 Y111.842 E.00852
G1 X106.698 Y111.648 E.00949
G1 X106.602 Y111.393 E.00875
G3 X106.598 Y109.043 I243.913 J-1.633 E.07558
;WIDTH:0.498436
G1 X106.579 Y108.91 E.00483
;WIDTH:0.546872
G1 X106.56 Y108.777 E.00534
;WIDTH:0.595308
G1 X106.541 Y108.644 E.00585
;WIDTH:0.643744
G1 X106.522 Y108.511 E.00637
;WIDTH:0.646636
G1 X106.629 Y108.28 E.01217
G1 X106.76 Y108.234 E.00662
;WIDTH:0.597477
G1 X106.892 Y108.189 E.00608
;WIDTH:0.548318
G1 X107.023 Y108.144 E.00554
;WIDTH:0.499159
G1 X107.154 Y108.098 E.005
;WIDTH:0.449999
G1 X107.388 Y108.098 E.00752
SET_VELOCITY_LIMIT ACCEL=12000 ACCEL_TO_DECEL=12000
G1 X107.026 Y108.568 F30000
SET_VELOCITY_LIMIT ACCEL=5000 ACCEL_TO_DECEL=5000
;TYPE:Outer wall
;WIDTH:0.419999
G1 F2770
G1 X107.179 Y108.49 E.0051
G1 X112.821 Y108.49 E.16808
G1 X112.974 Y108.568 E.0051
G1 X113.01 Y108.679 E.00347
G1 X113.01 Y111.321 E.07872
G1 X112.964 Y111.445 E.00394
G1 X112.821 Y111.51 E.00465
G1 X107.179 Y111.51 E.16808
G1 X107.026 Y111.432 E.0051
G1 X106.99 Y111.321 E.00347
G1 X106.99 Y108.679 E.07872
G1 X107.014 Y108.606 E.00228
SET_VELOCITY_LIMIT ACCEL=12000 ACCEL_TO_DECEL=12000
G1 E-.35 F2400
;WIPE_START
G1 F12000
G1 X107.179 Y108.49 E-.03024
G1 X107.977 Y108.49 E-.11976
;WIPE_END
G1 X106.211 Y111.493 Z.8 F30000
G1 Z.4
G1 E.5 F2400
;TYPE:Internal solid infill
;WIDTH:0.44954
G1 F2770
G1 X106.371 Y111.856 E.01276
G1 X106.228 Y110 F30000
;WIDTH:0.36828
G1 F2770
G1 X106.233 Y109.08 E.02364
G1 X106.148 Y108.75 E.00875
G1 X105.995 Y109.058 E.00884
G1 X105.911 Y109.514 E.01191
G1 X105.912 Y110.487 E.025
G1 X106.002 Y110.985 E.01303
;WIDTH:0.387775
G1 X106.107 Y111.239 E.00747
;WIDTH:0.415327
G1 X106.211 Y111.493 E.00807
G1 X106.237 Y110.957 E.01579
;WIDTH:0.367186
G1 X106.228 Y110.04 E.02349
G1 E-.35328 F2400
;WIPE_START
G1 F15000
G1 X106.237 Y110.957 E-.14672
;WIPE_END
G1 X108.011 Y107.707 Z.8 F30000
G1 Z.4
G1 E.5 F2400
;WIDTH:0.419999
G1 F2770
G1 X112.855 Y107.707 E.14428
G1 X113.379 Y107.843 E.01613
G1 X113.349 Y107.675 E.00508
G2 X110.928 Y106.019 I-3.333 J2.275 E.08942
G1 X110.121 Y105.916 E.02423
G2 X106.651 Y107.675 I-.132 J4.044 E.1209
G1 X106.621 Y107.843 E.00508
G1 X107.138 Y107.707 E.0159
G1 X107.971 Y107.707 E.02482
G1 X110.386 Y106.981 F30000
;WIDTH:0.363221
G1 F2770
G1 X111.472 Y106.981 E.02748
G1 X110.812 Y106.736 E.01781
G1 X110.396 Y106.66 E.01071
G1 X109.598 Y106.661 E.0202
G1 X109.188 Y106.736 E.01054
G1 X108.526 Y106.981 E.01786
G2 X110.346 Y106.981 I.541 J-1718.161 E.04606
G1 X112.571 Y107.329 F30000
;WIDTH:0.419999
G1 F2770
G2 X110.86 Y106.389 I-2.556 J2.624 E.05886
G1 X110.099 Y106.293 E.02287
G2 X107.429 Y107.329 I-.114 J3.664 E.08765
G1 X112.531 Y107.329 E.15199
G1 X114.088 Y110.487 F30000
;WIDTH:0.371454
G1 F2770
G1 X114.088 Y109.504 E.02551
G1 X113.992 Y109.013 E.01297
G1 X113.837 Y108.729 E.00841
G1 X113.767 Y109.071 E.00904
G3 X113.763 Y110.957 I-61.671 J.808 E.04895
;WIDTH:0.388881
G1 X113.79 Y111.188 E.00638
;WIDTH:0.417696
G1 X113.817 Y111.42 E.00691
G1 X113.999 Y110.978 E.01415
;WIDTH:0.367184
G1 X114.081 Y110.526 E.01178
G1 X113.605 Y111.912 F30000
;WIDTH:0.43847
G1 F2770
G1 X113.791 Y111.48 E.01468
G1 X112.797 Y112.294 F30000
;WIDTH:0.420721
G1 F2770
G1 X107.145 Y112.293 E.16865
M73 P3 R5
G1 X106.709 Y112.168 E.01357
G1 X106.408 Y111.937 E.0113
G2 X113.605 Y111.912 I3.592 J-1.925 E.26326
G1 X113.213 Y112.208 E.01466
G1 X112.836 Y112.286 E.01149
G1 X109.716 Y113.021 F30000
;WIDTH:0.388328
G1 F2770
G1 X109.649 Y113.043 E.00191
;WIDTH:0.431888
G1 X109.583 Y113.065 E.00215
;WIDTH:0.475448
G1 X109.516 Y113.087 E.00239
;WIDTH:0.519008
G1 X109.45 Y113.108 E.00263
;WIDTH:0.562568
G1 X109.383 Y113.13 E.00287
;WIDTH:0.606128
G1 X109.317 Y113.152 E.00311
G1 X109.382 Y113.184 E.00322
;WIDTH:0.562568
G1 X109.447 Y113.216 E.00297
;WIDTH:0.519008
G1 X109.511 Y113.248 E.00272
;WIDTH:0.475448
G1 X109.576 Y113.28 E.00247
;WIDTH:0.431888
G1 X109.641 Y113.312 E.00222
;WIDTH:0.364966
G1 X109.706 Y113.345 E.00184
G1 X110.396 Y113.34 E.01755
G1 X110.812 Y113.264 E.01077
G1 X111.472 Y113.02 E.01788
G2 X109.756 Y113.021 I-.589 J368.579 E.04365
G1 X109.237 Y113.626 F30000
;WIDTH:0.419999
G1 F2770
G1 X109.969 Y113.711 E.02195
G2 X112.571 Y112.671 I.033 J-3.692 E.08562
G1 X107.429 Y112.671 E.15316
G1 X107.881 Y113.048 E.01754
G2 X109.198 Y113.615 I2.161 J-3.206 E.04298
; stop printing object Washer 4.stl id:0 copy 0
;TIME_ELAPSED:10.412585

M106 P2 S204
;LAYER_CHANGE
;Z:0.6
;HEIGHT:0.2
;BEFORE_LAYER_CHANGE
;0.6
G92 E0

G1 E-.35 F2400
;WIPE_START
G1 F14320.607
G1 X108.707 Y113.479 E-.07642
G1 X108.292 Y113.296 E-.06803
G1 X108.261 Y113.277 E-.00556
;WIPE_END
EXCLUDE_OBJECT_END NAME=Washer_4.stl_id_0_copy_0
;AFTER_LAYER_CHANGE
;0.6
;_SET_FAN_SPEED_CHANGING_LAYER
; printing object Washer 4.stl id:0 copy 0
EXCLUDE_OBJECT_START NAME=Washer_4.stl_id_0_copy_0
G17
G3 Z.8 I.26 J1.189 P1  F30000
G1 X113.994 Y112.021 Z.8
G1 Z.6
