; HEADER_BLOCK_START
; generated by Creality_Print V5.1.6.10470 on 2024-12-10 at 16:50:40
; total layer number: 75
; filament_density: 1.24
; filament_diameter: 1.75
; max_z_height: 15.00
; HEADER_BLOCK_END

; MINX = 105.25
; MINY = 100.93
; MINZ = 0.00
; MAXX = 114.60
; MAXY = 126.43
; MAXZ = 15.00

; THUMBNAIL_BLOCK_START

;
; THUMBNAIL_BLOCK_END

; THUMBNAIL_BLOCK_START

;
; THUMBNAIL_BLOCK_END

; external perimeters extrusion width = 0.42mm
; perimeters extrusion width = 0.45mm
; infill extrusion width = 0.45mm
; solid infill extrusion width = 0.42mm
; top infill extrusion width = 0.42mm
; support material extrusion width = 0.42mm
; first layer extrusion width = 0.50mm

; external perimeters extrusion width = 0.42mm
; perimeters extrusion width = 0.45mm
; infill extrusion width = 0.45mm
; solid infill extrusion width = 0.42mm
; top infill extrusion width = 0.42mm
; support material extrusion width = 0.42mm
; first layer extrusion width = 0.50mm

; EXECUTABLE_BLOCK_START
EXCLUDE_OBJECT_DEFINE NAME=Washer_3.stl_id_0_copy_0 CENTER=110,105.526 POLYGON=[[105.4,105.526],[105.439,104.926],[105.557,104.335],[105.75,103.766],[106.016,103.226],[106.351,102.726],[106.747,102.273],[107.2,101.877],[107.7,101.542],[108.24,101.276],[108.809,101.083],[109.4,100.965],[110,100.926],[110.6,100.965],[111.191,101.083],[111.76,101.276],[112.3,101.542],[112.8,101.877],[113.253,102.273],[113.649,102.726],[113.984,103.226],[114.25,103.766],[114.443,104.335],[114.561,104.926],[114.6,105.526],[114.561,106.126],[114.443,106.717],[114.25,107.286],[113.984,107.826],[113.649,108.326],[113.253,108.779],[112.8,109.175],[112.3,109.51],[111.76,109.776],[111.191,109.969],[110.6,110.087],[110,110.126],[109.4,110.087],[108.809,109.969],[108.24,109.776],[107.7,109.51],[107.2,109.175],[106.747,108.779],[106.351,108.326],[106.016,107.826],[105.75,107.286],[105.557,106.717],[105.439,106.126],[105.4,105.526]]
EXCLUDE_OBJECT_DEFINE NAME=Washer_3.stl_id_1_copy_0 CENTER=109.847,121.831 POLYGON=[[105.247,121.831],[105.286,121.23],[105.404,120.64],[105.597,120.07],[105.863,119.531],[106.197,119.03],[106.594,118.578],[107.046,118.181],[107.547,117.847],[108.086,117.581],[108.656,117.387],[109.246,117.27],[109.847,117.231],[110.447,117.27],[111.037,117.387],[111.607,117.581],[112.147,117.847],[112.647,118.181],[113.099,118.578],[113.496,119.03],[113.831,119.531],[114.097,120.07],[114.29,120.64],[114.407,121.23],[114.447,121.831],[114.407,122.431],[114.29,123.021],[114.097,123.591],[113.831,124.131],[113.496,124.631],[113.099,125.083],[112.647,125.48],[112.147,125.814],[111.607,126.08],[111.037,126.274],[110.447,126.391],[109.847,126.431],[109.246,126.391],[108.656,126.274],[108.086,126.08],[107.547,125.814],[107.046,125.48],[106.594,125.083],[106.197,124.631],[105.863,124.131],[105.597,123.591],[105.404,123.021],[105.286,122.431],[105.247,121.831]]
M73 P0 R6
M106 S0
M106 P2 S0
;TYPE:Custom
M140 S0
M104 S0 
START_PRINT EXTRUDER_TEMP=230 BED_TEMP=50
M141 S35;set chamber_temperature
G90
G21
M83 ; use relative distances for extrusion
; filament start gcode
M106 S0
;LAYER_CHANGE
;Z:0.2
;HEIGHT:0.2
;BEFORE_LAYER_CHANGE
;0.2
G92 E0

G1 E-.5 F2400
;AFTER_LAYER_CHANGE
;0.2
;_SET_FAN_SPEED_CHANGING_LAYER
SET_VELOCITY_LIMIT ACCEL=1000 ACCEL_TO_DECEL=1000
SET_VELOCITY_LIMIT SQUARE_CORNER_VELOCITY=20
; printing object Washer 3.stl id:0 copy 0
EXCLUDE_OBJECT_START NAME=Washer_3.stl_id_0_copy_0
G1 X113.255 Y103.712 F30000
M73 P0 R5
G1 Z.4
G1 Z.2
G1 E.5 F2400
;TYPE:Inner wall
;WIDTH:0.499999
G1 F3600
G1 X113.32 Y103.818 E.00446
G1 X113.601 Y104.522 E.02737
G3 X113.738 Y105.568 I-3.357 J.973 E.03826
G1 X113.69 Y106.112 E.01972
G1 X113.503 Y106.819 E.02639
G3 X112.614 Y108.199 I-3.736 J-1.431 E.05972
G1 X112.06 Y108.639 E.02555
G1 X111.469 Y108.964 E.02432
G3 X109.82 Y109.255 I-1.501 J-3.682 E.06095
G1 X109.073 Y109.148 E.02723
G3 X107.647 Y108.428 I1.083 J-3.918 E.05804
G1 X107.129 Y107.914 E.02638
G3 X106.378 Y106.453 I3.107 J-2.519 E.05972
G1 X106.274 Y105.753 E.02555
G1 X106.288 Y105.08 E.02432
G3 X106.861 Y103.505 I3.939 J.541 E.06095
G1 X107.327 Y102.912 E.02723
G3 X108.663 Y102.038 I2.845 J2.887 E.05804
G1 X109.368 Y101.846 E.02639
G1 X109.962 Y101.788 E.02155
G3 X111.666 Y102.185 I-.022 J3.946 E.06372
G1 X112.242 Y102.535 E.02432
G3 X112.986 Y103.292 I-2.446 J3.148 E.03844
G1 X113.234 Y103.679 E.01658
G1 X113.366 Y103.038 F30000
;TYPE:Outer wall
G1 F3600
G3 X114.194 Y105.598 I-3.412 J2.517 E.09887
G3 X111.672 Y101.678 I-4.19 J-.075 E.77229
G3 X113.343 Y103.006 I-1.717 J3.877 E.07789
G1 E-.35 F2400
;WIPE_START
G1 F3600
G1 X113.668 Y103.491 E-.08768
G1 X113.846 Y103.867 E-.06232
;WIPE_END
G1 X107.66 Y104.817 Z.6 F30000
G1 Z.2
G1 E.5 F2400
;TYPE:Inner wall
G1 F3600
G1 X107.688 Y104.699 E.00435
G1 X107.91 Y104.237 E.01853
G1 X108.224 Y103.831 E.01853
G1 X108.615 Y103.498 E.01853
G1 X109.059 Y103.258 E.01821
G1 X109.56 Y103.11 E.01886
G1 X110.072 Y103.072 E.01853
G1 X110.58 Y103.14 E.01853
G1 X111.064 Y103.313 E.01853
G1 X111.494 Y103.577 E.01821
G1 X111.872 Y103.937 E.01886
G1 X112.161 Y104.361 E.01853
G1 X112.356 Y104.836 E.01853
G1 X112.448 Y105.341 E.01853
G1 X112.435 Y105.845 E.01821
G1 X112.312 Y106.353 E.01886
G1 X112.09 Y106.815 E.01853
G1 X111.776 Y107.222 E.01853
G1 X111.385 Y107.554 E.01853
G1 X110.941 Y107.794 E.01821
G1 X110.44 Y107.942 E.01886
G1 X109.928 Y107.98 E.01853
G1 X109.42 Y107.912 E.01853
G1 X108.936 Y107.739 E.01853
G1 X108.506 Y107.475 E.01821
G1 X108.128 Y107.115 E.01886
G1 X107.895 Y106.793 E.01435
G1 X107.665 Y106.294 E.01984
G1 X107.553 Y105.756 E.01984
G1 X107.561 Y105.228 E.01909
G1 X107.651 Y104.855 E.01382
G1 X108.019 Y105.272 F30000
;TYPE:Outer wall
G1 F3600
G1 X108.148 Y104.79 E.018
G3 X108.28 Y104.505 I1.987 J.75 E.01134
G3 X109.208 Y103.69 I1.883 J1.206 E.04521
G1 X109.711 Y103.554 E.01878
G1 X110.024 Y103.526 E.01135
G3 X111.195 Y103.922 I-.103 J2.234 E.04521
G1 X111.565 Y104.293 E.01892
G1 X111.744 Y104.547 E.01121
G3 X111.986 Y105.759 I-1.985 J1.027 E.04521
G1 X111.852 Y106.262 E.0188
G1 X111.72 Y106.547 E.01133
G3 X110.792 Y107.363 I-1.883 J-1.206 E.04521
G1 X110.289 Y107.498 E.0188
G1 X109.976 Y107.526 E.01133
G3 X108.805 Y107.13 I.103 J-2.234 E.04521
G1 X108.437 Y106.762 E.0188
G1 X108.275 Y106.539 E.00994
G1 X108.086 Y106.099 E.01731
G3 X108.024 Y105.311 I2.049 J-.559 E.02869
G1 E-.35 F2400
;WIPE_START
G1 F3600
G1 X108.148 Y104.79 E-.08033
G1 X108.28 Y104.505 E-.04707
G1 X108.371 Y104.386 E-.0226
;WIPE_END
G1 X113.274 Y103.983 Z.6 F30000
G1 Z.2
G1 E.5 F2400
;TYPE:Bottom surface
;WIDTH:0.529516
G1 F6300
G1 X112.254 Y102.963 E.05547
G2 X110.81 Y102.207 I-2.288 J2.615 E.06322
G1 X113.319 Y104.716 E.13639
G3 X113.419 Y105.504 I-2.944 J.774 E.03063
G1 X112.663 Y104.748 E.0411
G1 X112.606 Y104.573 E.0071
G1 X112.374 Y104.085 E.02075
G2 X111.602 Y103.257 I-2.548 J1.6 E.04378
G1 X111.077 Y102.966 E.02307
G1 X110.791 Y102.876 E.01152
G1 X110.023 Y102.108 E.04178
G1 X109.553 Y102.135 E.01809
G1 X109.393 Y102.167 E.00625
G1 X109.98 Y102.753 E.03187
G1 X109.434 Y102.806 E.02108
G1 X109.366 Y102.828 E.00272
G1 X108.85 Y102.312 E.02806
G2 X108.373 Y102.523 I.562 J1.918 E.02011
G1 X108.849 Y102.999 E.02589
G1 X108.411 Y103.249 E.01939
G1 X107.952 Y102.79 E.02497
G1 X107.918 Y102.812 E.00157
G1 X107.581 Y103.107 E.0172
G1 X108.045 Y103.571 E.02519
G1 X107.927 Y103.676 E.00605
G1 X107.732 Y103.946 E.01283
G1 X107.264 Y103.478 E.02545
G2 X106.997 Y103.899 I1.467 J1.224 E.01922
G1 X107.483 Y104.385 E.02641
G2 X107.307 Y104.898 I1.171 J.687 E.02097
G1 X106.786 Y104.376 E.02835
G2 X106.641 Y104.919 I1.99 J.823 E.02167
M73 P1 R5
G1 X107.438 Y105.717 E.04336
G1 E-.35 F2400
;WIPE_START
G1 F6300
G1 X106.731 Y105.01 E-.15
;WIPE_END
G1 X112.562 Y105.335 Z.6 F30000
G1 Z.2
G1 E.5 F2400
G1 F6300
G1 X113.359 Y106.133 E.04335
G3 X113.214 Y106.676 I-2.135 J-.28 E.02167
G1 X112.693 Y106.154 E.02835
G3 X112.517 Y106.667 I-1.346 J-.174 E.02097
G1 X113.003 Y107.153 E.02641
G3 X112.736 Y107.574 I-1.733 J-.803 E.01922
G1 X112.268 Y107.106 E.02545
G1 X112.073 Y107.376 E.01282
G1 X111.955 Y107.481 E.00606
G1 X112.419 Y107.945 E.02519
G1 X112.082 Y108.24 E.01719
G1 X112.048 Y108.262 E.00158
G1 X111.589 Y107.803 E.02497
G1 X111.151 Y108.053 E.01939
G1 X111.627 Y108.529 E.02589
G3 X111.15 Y108.74 I-1.039 J-1.707 E.02011
G1 X110.633 Y108.224 E.02806
G1 X110.566 Y108.246 E.00272
G1 X110.023 Y108.302 E.02097
G1 X110.607 Y108.885 E.03171
G3 X109.978 Y108.945 I-.76 J-4.662 E.02428
G1 X109.209 Y108.175 E.04183
G1 X108.923 Y108.086 E.01149
G1 X108.398 Y107.795 E.02309
G3 X107.626 Y106.967 I1.776 J-2.428 E.04377
G3 X107.338 Y106.305 I3.187 J-1.782 E.02782
G1 X106.582 Y105.548 E.04111
G2 X106.681 Y106.336 I3.485 J-.041 E.03059
G1 X109.19 Y108.845 E.13637
G1 X109.115 Y108.83 E.00294
G3 X107.744 Y108.088 I.855 J-3.215 E.06046
G1 X106.726 Y107.069 E.05535
G1 E-.35 F2400
;WIPE_START
G1 F6300
G1 X107.433 Y107.776 E-.15
;WIPE_END
G1 X107.342 Y105.141 Z.6 F30000
G1 Z.2
G1 E.5 F2400
;TYPE:Gap infill
;WIDTH:0.107845
G1 F3600
G1 X107.302 Y105.188 E.00032
G1 X107.333 Y105.268 E.00044
G1 E-.40167 F2400
;WIPE_START
G1 F3600
G1 X107.302 Y105.188 E-.0569
G1 X107.342 Y105.141 E-.04144
;WIPE_END
G1 X112.667 Y105.785 Z.6 F30000
G1 Z.2
G1 E.5 F2400
;WIDTH:0.110449
G1 F3600
G1 X112.698 Y105.864 E.00045
G1 X112.658 Y105.911 E.00033
; stop printing object Washer 3.stl id:0 copy 0
; printing object Washer 3.stl id:1 copy 0
G1 E-.40179 F2400
;WIPE_START
G1 F3600
G1 X112.698 Y105.864 E-.04152
G1 X112.667 Y105.785 E-.05669
;WIPE_END
EXCLUDE_OBJECT_END NAME=Washer_3.stl_id_0_copy_0
EXCLUDE_OBJECT_START NAME=Washer_3.stl_id_1_copy_0
G1 X112.9 Y113.414 Z.6 F30000
G1 X113.102 Y120.017 Z.6
G1 Z.2
G1 E.5 F2400
;TYPE:Inner wall
;WIDTH:0.499999
G1 F3600
G1 X113.167 Y120.122 E.00446
G1 X113.448 Y120.826 E.02737
G3 X113.585 Y121.873 I-3.357 J.973 E.03826
G1 X113.536 Y122.417 E.01972
G1 X113.35 Y123.124 E.02639
G3 X112.46 Y124.504 I-3.736 J-1.431 E.05972
G1 X111.907 Y124.944 E.02555
G1 X111.316 Y125.268 E.02432
G3 X109.666 Y125.56 I-1.501 J-3.682 E.06095
G1 X108.92 Y125.452 E.02723
G3 X107.494 Y124.733 I1.083 J-3.918 E.05804
G1 X106.975 Y124.218 E.02638
G3 X106.225 Y122.758 I3.107 J-2.519 E.05972
G1 X106.121 Y122.058 E.02555
G1 X106.135 Y121.384 E.02432
G3 X106.707 Y119.81 I3.939 J.541 E.06095
G1 X107.174 Y119.217 E.02723
G3 X108.51 Y118.342 I2.845 J2.887 E.05804
G1 X109.215 Y118.15 E.02639
G1 X109.809 Y118.092 E.02155
G3 X111.513 Y118.49 I-.022 J3.946 E.06372
G1 X112.089 Y118.839 E.02432
G3 X112.833 Y119.596 I-2.446 J3.148 E.03844
G1 X113.08 Y119.983 E.01658
G1 X113.213 Y119.342 F30000
;TYPE:Outer wall
G1 F3600
G3 X114.041 Y121.903 I-3.412 J2.517 E.09887
G3 X111.518 Y117.983 I-4.19 J-.075 E.77229
G3 X113.189 Y119.31 I-1.717 J3.877 E.07789
G1 E-.35 F2400
;WIPE_START
G1 F3600
G1 X113.515 Y119.796 E-.08768
G1 X113.692 Y120.171 E-.06232
;WIPE_END
G1 X107.507 Y121.121 Z.6 F30000
G1 Z.2
G1 E.5 F2400
;TYPE:Inner wall
G1 F3600
G1 X107.535 Y121.004 E.00435
G1 X107.757 Y120.541 E.01853
G1 X108.071 Y120.135 E.01853
G1 X108.462 Y119.803 E.01853
G1 X108.905 Y119.562 E.01821
G1 X109.407 Y119.415 E.01886
G1 X109.918 Y119.376 E.01853
G1 X110.427 Y119.445 E.01853
G1 X110.91 Y119.618 E.01853
G1 X111.341 Y119.881 E.01821
G1 X111.719 Y120.242 E.01886
G1 X112.008 Y120.666 E.01853
G1 X112.203 Y121.14 E.01853
G1 X112.295 Y121.645 E.01853
G1 X112.282 Y122.15 E.01821
G1 X112.159 Y122.657 E.01886
G1 X111.936 Y123.12 E.01853
G1 X111.623 Y123.526 E.01853
G1 X111.231 Y123.858 E.01853
G1 X110.788 Y124.099 E.01821
G1 X110.287 Y124.246 E.01886
G1 X109.775 Y124.285 E.01853
G1 X109.266 Y124.216 E.01853
G1 X108.783 Y124.044 E.01853
G1 X108.353 Y123.78 E.01821
G1 X107.975 Y123.42 E.01886
G1 X107.742 Y123.098 E.01435
G1 X107.512 Y122.599 E.01984
G1 X107.4 Y122.061 E.01984
G1 X107.408 Y121.532 E.01909
G1 X107.497 Y121.16 E.01382
G1 X107.866 Y121.576 F30000
;TYPE:Outer wall
G1 F3600
G1 X107.995 Y121.095 E.018
G3 X108.127 Y120.81 I1.987 J.75 E.01134
G3 X109.055 Y119.994 I1.883 J1.206 E.04521
G1 X109.557 Y119.859 E.01878
G1 X109.871 Y119.831 E.01135
G3 X111.042 Y120.227 I-.103 J2.234 E.04521
G1 X111.412 Y120.597 E.01892
G1 X111.591 Y120.851 E.01121
G3 X111.833 Y122.063 I-1.985 J1.027 E.04521
G1 X111.699 Y122.567 E.0188
G1 X111.567 Y122.851 E.01133
G3 X110.638 Y123.667 I-1.883 J-1.206 E.04521
G1 X110.135 Y123.802 E.0188
G1 X109.823 Y123.83 E.01133
G3 X108.652 Y123.434 I.103 J-2.234 E.04521
G1 X108.283 Y123.067 E.0188
M73 P2 R5
G1 X108.122 Y122.844 E.00994
G1 X107.933 Y122.403 E.01731
G3 X107.87 Y121.616 I2.049 J-.559 E.02869
G1 E-.35 F2400
;WIPE_START
G1 F3600
G1 X107.995 Y121.095 E-.08033
G1 X108.127 Y120.81 E-.04707
G1 X108.218 Y120.69 E-.0226
;WIPE_END
G1 X113.121 Y120.288 Z.6 F30000
G1 Z.2
G1 E.5 F2400
;TYPE:Bottom surface
;WIDTH:0.529516
G1 F6300
G1 X112.1 Y119.267 E.05547
G2 X110.657 Y118.512 I-2.288 J2.615 E.06322
G1 X113.166 Y121.021 E.13639
G3 X113.266 Y121.809 I-2.944 J.774 E.03063
G1 X112.51 Y121.053 E.0411
G1 X112.453 Y120.877 E.0071
G1 X112.221 Y120.39 E.02075
G2 X111.449 Y119.561 I-2.548 J1.6 E.04378
G1 X110.924 Y119.271 E.02307
G1 X110.638 Y119.181 E.01152
G1 X109.869 Y118.413 E.04178
G1 X109.4 Y118.44 E.01809
G1 X109.24 Y118.471 E.00625
G1 X109.826 Y119.058 E.03187
G1 X109.28 Y119.111 E.02108
G1 X109.213 Y119.133 E.00272
G1 X108.697 Y118.617 E.02806
G2 X108.22 Y118.827 I.562 J1.918 E.02011
G1 X108.696 Y119.304 E.02589
G1 X108.258 Y119.554 E.01939
G1 X107.799 Y119.094 E.02497
G1 X107.765 Y119.117 E.00157
G1 X107.428 Y119.412 E.0172
G1 X107.892 Y119.876 E.02519
G1 X107.774 Y119.98 E.00605
G1 X107.579 Y120.251 E.01283
G1 X107.11 Y119.782 E.02545
G2 X106.843 Y120.204 I1.467 J1.224 E.01922
G1 X107.329 Y120.69 E.02641
G2 X107.154 Y121.202 I1.171 J.687 E.02097
G1 X106.633 Y120.681 E.02835
G2 X106.487 Y121.224 I1.99 J.823 E.02167
G1 X107.285 Y122.022 E.04336
G1 E-.35 F2400
;WIPE_START
G1 F6300
G1 X106.578 Y121.315 E-.15
;WIPE_END
G1 X112.409 Y121.64 Z.6 F30000
G1 Z.2
G1 E.5 F2400
G1 F6300
G1 X113.206 Y122.437 E.04335
G3 X113.061 Y122.98 I-2.135 J-.28 E.02167
G1 X112.539 Y122.459 E.02835
G3 X112.364 Y122.972 I-1.346 J-.174 E.02097
G1 X112.85 Y123.458 E.02641
G3 X112.583 Y123.879 I-1.733 J-.803 E.01922
G1 X112.115 Y123.411 E.02545
G1 X111.919 Y123.681 E.01282
G1 X111.802 Y123.786 E.00606
G1 X112.265 Y124.249 E.02519
G1 X111.929 Y124.544 E.01719
G1 X111.895 Y124.567 E.00158
G1 X111.436 Y124.108 E.02497
G1 X110.997 Y124.358 E.01939
G1 X111.474 Y124.834 E.02589
G3 X110.996 Y125.045 I-1.039 J-1.707 E.02011
G1 X110.48 Y124.529 E.02806
G1 X110.413 Y124.551 E.00272
G1 X109.87 Y124.607 E.02097
G1 X110.453 Y125.19 E.03171
G3 X109.825 Y125.25 I-.76 J-4.662 E.02428
G1 X109.055 Y124.48 E.04183
G1 X108.77 Y124.391 E.01149
G1 X108.244 Y124.1 E.02309
G3 X107.473 Y123.272 I1.776 J-2.428 E.04377
G3 X107.185 Y122.609 I3.187 J-1.782 E.02782
G1 X106.428 Y121.853 E.04111
G2 X106.528 Y122.641 I3.485 J-.041 E.03059
G1 X109.037 Y125.149 E.13637
G1 X108.962 Y125.135 E.00294
G3 X107.591 Y124.392 I.855 J-3.215 E.06046
G1 X106.573 Y123.374 E.05535
G1 E-.35 F2400
;WIPE_START
G1 F6300
G1 X107.28 Y124.081 E-.15
;WIPE_END
G1 X107.189 Y121.446 Z.6 F30000
G1 Z.2
G1 E.5 F2400
;TYPE:Gap infill
;WIDTH:0.107845
G1 F3600
G1 X107.149 Y121.493 E.00032
G1 X107.18 Y121.572 E.00044
G1 E-.40167 F2400
;WIPE_START
G1 F3600
G1 X107.149 Y121.493 E-.0569
G1 X107.189 Y121.446 E-.04144
;WIPE_END
G1 X112.514 Y122.089 Z.6 F30000
G1 Z.2
G1 E.5 F2400
;WIDTH:0.110449
G1 F3600
G1 X112.545 Y122.169 E.00045
G1 X112.504 Y122.216 E.00033
; stop printing object Washer 3.stl id:1 copy 0
;TIME_ELAPSED:9.733685

M106 S255
;LAYER_CHANGE
;Z:0.4
;HEIGHT:0.2
;BEFORE_LAYER_CHANGE
;0.4
G92 E0

G1 E-.40179 F2400
;WIPE_START
G1 F3600
G1 X112.545 Y122.169 E-.04152
G1 X112.514 Y122.089 E-.05669
;WIPE_END
EXCLUDE_OBJECT_END NAME=Washer_3.stl_id_1_copy_0
;AFTER_LAYER_CHANGE
;0.4
;_SET_FAN_SPEED_CHANGING_LAYER
SET_VELOCITY_LIMIT ACCEL=12000 ACCEL_TO_DECEL=12000
M140 S50 ; set bed temperature
; printing object Washer 3.stl id:0 copy 0
EXCLUDE_OBJECT_START NAME=Washer_3.stl_id_0_copy_0
G17
G3 Z.6 I1.215 J.062 P1  F30000
G1 X113.453 Y103.528 Z.6
G1 Z.4
G1 E.5 F2400
