; HEADER_BLOCK_START
; generated by Creality_Print V5.1.6.10470 on 2024-12-10 at 16:53:51
; total layer number: 30
; filament_density: 1.24
; filament_diameter: 1.75
; max_z_height: 6.00
; HEADER_BLOCK_END

; MINX = 104.91
; MINY = 104.91
; MINZ = -0.00
; MAXX = 115.09
; MAXY = 115.09
; MAXZ = 6.00

; THUMBNAIL_BLOCK_START

;
; THUMBNAIL_BLOCK_END

; THUMBNAIL_BLOCK_START

;
; THUMBNAIL_BLOCK_END

; external perimeters extrusion width = 0.42mm
; perimeters extrusion width = 0.45mm
; infill extrusion width = 0.45mm
; solid infill extrusion width = 0.42mm
; top infill extrusion width = 0.42mm
; support material extrusion width = 0.42mm
; first layer extrusion width = 0.50mm

; EXECUTABLE_BLOCK_START
EXCLUDE_OBJECT_DEFINE NAME=Washer_5.stl_id_0_copy_0 CENTER=110,110 POLYGON=[[104.913,110],[104.95,109.387],[105.061,108.783],[105.244,108.196],[105.496,107.636],[105.813,107.11],[106.192,106.627],[106.627,106.192],[107.11,105.813],[107.636,105.496],[108.196,105.244],[108.783,105.061],[109.387,104.95],[110,104.913],[110.613,104.95],[111.217,105.061],[111.804,105.244],[112.364,105.496],[112.89,105.813],[113.373,106.192],[113.808,106.627],[114.187,107.11],[114.504,107.636],[114.756,108.196],[114.939,108.783],[115.05,109.387],[115.087,110],[115.05,110.613],[114.939,111.217],[114.756,111.804],[114.504,112.364],[114.187,112.89],[113.808,113.373],[113.373,113.808],[112.89,114.187],[112.364,114.504],[111.804,114.756],[111.217,114.939],[110.613,115.05],[110,115.087],[109.387,115.05],[108.783,114.939],[108.196,114.756],[107.636,114.504],[107.11,114.187],[106.627,113.808],[106.192,113.373],[105.813,112.89],[105.496,112.364],[105.244,111.804],[105.061,111.217],[104.95,110.613],[104.913,110]]
M73 P0 R2
M106 S0
M106 P2 S0
;TYPE:Custom
M140 S0
M104 S0 
START_PRINT EXTRUDER_TEMP=230 BED_TEMP=50
M141 S35;set chamber_temperature
G90
G21
M83 ; use relative distances for extrusion
; filament start gcode
M106 S0
;LAYER_CHANGE
;Z:0.2
;HEIGHT:0.2
;BEFORE_LAYER_CHANGE
;0.2
G92 E0

G1 E-.5 F2400
;AFTER_LAYER_CHANGE
;0.2
;_SET_FAN_SPEED_CHANGING_LAYER
SET_VELOCITY_LIMIT ACCEL=1000 ACCEL_TO_DECEL=1000
SET_VELOCITY_LIMIT SQUARE_CORNER_VELOCITY=20
; printing object Washer 5.stl id:0 copy 0
EXCLUDE_OBJECT_START NAME=Washer_5.stl_id_0_copy_0
G1 X113.814 Y111.938 F30000
G1 Z.4
G1 Z.2
G1 E.5 F2400
;TYPE:Inner wall
;WIDTH:0.424587
G1 F2467
G1 X113.789 Y112 E.00204
;WIDTH:0.423886
G1 X113.686 Y112.134 E.00508
;WIDTH:0.460573
G1 X113.584 Y112.269 E.00557
;WIDTH:0.497259
G1 X113.481 Y112.403 E.00606
;WIDTH:0.499999
G3 X106.513 Y112.393 I-3.48 J-2.417 E.29535
;WIDTH:0.49796
G1 X106.408 Y112.253 E.00629
;WIDTH:0.460806
G1 X106.303 Y112.113 E.00577
;WIDTH:0.423651
G1 X106.198 Y111.974 E.00526
;WIDTH:0.424588
G1 X106.008 Y111.502 E.01533
;WIDTH:0.461694
G1 X105.949 Y111.25 E.00854
;WIDTH:0.498799
G1 X105.891 Y110.999 E.0093
;WIDTH:0.54246
G1 X105.823 Y110.492 E.02017
;WIDTH:0.556872
G3 X105.826 Y109.478 I5.477 J-.487 E.04123
;WIDTH:0.54246
G1 X105.898 Y108.975 E.02006
;WIDTH:0.4988
G1 X105.957 Y108.726 E.00922
;WIDTH:0.461694
G1 X106.016 Y108.477 E.00847
;WIDTH:0.424587
G1 X106.211 Y108 E.01554
;WIDTH:0.424799
G1 X106.314 Y107.866 E.0051
;WIDTH:0.462399
G1 X106.417 Y107.732 E.0056
;WIDTH:0.499999
G3 X107.196 Y106.835 I5.698 J4.162 E.04294
G3 X113.486 Y107.608 I2.803 J3.166 E.25867
M73 P1 R2
G1 X113.59 Y107.745 E.0062
;WIDTH:0.462399
G1 X113.694 Y107.882 E.00569
;WIDTH:0.424799
G1 X113.798 Y108.018 E.00518
;WIDTH:0.424378
G1 X113.992 Y108.498 E.01558
;WIDTH:0.462007
G1 X114.051 Y108.754 E.00871
;WIDTH:0.499635
G1 X114.11 Y109.011 E.00949
;WIDTH:0.542459
G1 X114.177 Y109.508 E.01981
;WIDTH:0.55687
G1 X114.199 Y110.016 E.02062
G1 X114.174 Y110.522 E.02059
;WIDTH:0.542459
G1 X114.102 Y111.025 E.02006
;WIDTH:0.4988
G1 X114.043 Y111.274 E.00922
;WIDTH:0.461694
G1 X113.984 Y111.523 E.00847
;WIDTH:0.424587
G1 X113.83 Y111.901 E.01229
G1 E-.35 F2400
;WIPE_START
G1 F3600
G1 X113.789 Y112 E-.01614
G1 X113.686 Y112.134 E-.02533
G1 X113.584 Y112.269 E-.02533
G1 X113.481 Y112.403 E-.02533
G1 X113.242 Y112.706 E-.05786
;WIPE_END
G1 X106.993 Y108.324 Z.6 F30000
G1 X106.625 Y108.066 Z.6
G1 Z.2
G1 E.5 F2400
;WIDTH:0.460738
G1 F2467
G1 X106.661 Y108.021 E.00188
;WIDTH:0.499999
G1 X106.763 Y107.897 E.00582
G1 X107.126 Y107.843 E.01327
G1 X112.971 Y107.843 E.21104
G1 X113.237 Y107.897 E.00979
G1 X113.339 Y108.021 E.00582
;WIDTH:0.460737
G1 X113.441 Y108.146 E.00532
;WIDTH:0.421474
G1 X113.543 Y108.271 E.00482
;WIDTH:0.424378
G1 X113.619 Y108.554 E.00882
;WIDTH:0.463739
G1 X113.639 Y108.877 E.01076
;WIDTH:0.503099
G1 X113.659 Y109.2 E.01176
;WIDTH:0.542459
G3 X113.659 Y110.8 I-16.256 J.8 E.06315
;WIDTH:0.503169
G1 X113.639 Y111.122 E.01175
;WIDTH:0.463878
G1 X113.619 Y111.445 E.01075
;WIDTH:0.424587
G1 X113.497 Y111.817 E.01179
;WIDTH:0.423886
G1 X113.411 Y111.912 E.00388
;WIDTH:0.460573
G1 X113.324 Y112.007 E.00425
;WIDTH:0.497259
G1 X113.237 Y112.102 E.00463
;WIDTH:0.499999
G1 X112.874 Y112.157 E.01326
G1 X107.029 Y112.157 E.21104
G1 X106.764 Y112.103 E.00975
;WIDTH:0.49796
G1 X106.676 Y112.005 E.00473
;WIDTH:0.460806
G1 X106.587 Y111.908 E.00434
;WIDTH:0.423651
G1 X106.499 Y111.81 E.00396
;WIDTH:0.424588
G1 X106.381 Y111.445 E.01158
;WIDTH:0.463879
G1 X106.361 Y111.122 E.01075
;WIDTH:0.50317
G1 X106.341 Y110.8 E.01175
;WIDTH:0.54246
G3 X106.341 Y109.2 I16.264 J-.8 E.06313
;WIDTH:0.503169
G1 X106.361 Y108.878 E.01175
;WIDTH:0.463878
G1 X106.381 Y108.555 E.01075
;WIDTH:0.424587
G1 X106.457 Y108.271 E.00886
;WIDTH:0.421477
G1 X106.559 Y108.146 E.00482
;WIDTH:0.460738
G1 X106.6 Y108.097 E.00212
G1 X106.8 Y108.529 F30000
;TYPE:Outer wall
;WIDTH:0.499999
G1 F2467
G3 X106.94 Y108.318 I.229 J0 E.00968
G1 X107.579 Y108.3 E.02307
G1 X112.971 Y108.3 E.19471
G1 X113.06 Y108.318 E.00326
G1 X113.193 Y108.472 E.00735
G3 X113.2 Y111.471 I-123.083 J1.789 E.1083
M73 P2 R2
G1 X113.144 Y111.622 E.00579
G1 X112.971 Y111.7 E.00683
G1 X107.029 Y111.7 E.21457
G1 X106.856 Y111.621 E.00685
G1 X106.8 Y111.445 E.00668
G1 X106.8 Y108.569 E.10386
G1 E-.35 F2400
;WIPE_START
G1 F3600
G1 X106.837 Y108.403 E-.02544
G1 X106.94 Y108.318 E-.02
G1 X107.579 Y108.3 E-.09585
G1 X107.637 Y108.3 E-.00871
;WIPE_END
G1 X114.357 Y111.715 Z.6 F30000
G1 Z.2
G1 E.5 F2400
G1 F2467
G1 X114.356 Y111.72 E.00018
G3 X114.655 Y109.479 I-4.352 J-1.72 E.97918
G1 X114.684 Y110.045 E.02045
G3 X114.537 Y111.161 I-4.679 J-.045 E.04074
G1 X114.37 Y111.677 E.01959
G1 E-.35 F2400
;WIPE_START
G1 F3600
G1 X114.356 Y111.72 E-.00675
G1 X114.132 Y112.208 E-.08055
M73 P3 R2
G1 X113.912 Y112.563 E-.0627
;WIPE_END
G1 X113.062 Y112.73 Z.6 F30000
G1 Z.2
G1 E.5 F2400
;TYPE:Bottom surface
;WIDTH:0.502299
G1 F2467
G1 X112.809 Y112.477 E.013
G1 X112.159 Y112.477 E.02357
G1 X112.599 Y112.917 E.02257
G1 X112.236 Y113.203 E.01678
G1 X111.51 Y112.477 E.03728
G1 X110.86 Y112.477 E.02357
G1 X111.833 Y113.45 E.04993
G1 X111.387 Y113.653 E.0178
G1 X110.21 Y112.477 E.06037
G1 X109.561 Y112.477 E.02357
G1 X110.887 Y113.803 E.06806
G3 X110.322 Y113.888 I-.633 J-2.282 E.02077
G1 X108.911 Y112.477 E.07243
G1 X108.261 Y112.477 E.02357
G1 X109.672 Y113.888 E.07241
G3 X108.868 Y113.733 I.355 J-4.004 E.0298
G1 X107.612 Y112.477 E.06445
G1 X106.985 Y112.477 E.02273
G1 X107.069 Y112.584 E.00494
G1 X108.16 Y113.675 E.05599
G1 E-.35 F2400
;WIPE_START
G1 F6300
G1 X107.453 Y112.968 E-.15
;WIPE_END
G1 X111.613 Y106.569 Z.6 F30000
G1 X111.787 Y106.301 Z.6
G1 Z.2
G1 E.5 F2400
;WIDTH:0.54322
G1 F2467
G1 X113.009 Y107.523 E.06829
G1 X112.301 Y107.523 E.02796
G1 X111.006 Y106.228 E.07239
G1 X110.935 Y106.206 E.00293
G2 X110.173 Y106.103 I-.805 J3.085 E.03045
G1 X111.594 Y107.523 E.07938
G1 X110.886 Y107.523 E.02796
G1 X109.491 Y106.128 E.07799
M73 P4 R2
G2 X108.91 Y106.254 I.23 J2.456 E.02356
G1 X110.179 Y107.523 E.07092
G1 X109.471 Y107.523 E.02796
G1 X108.394 Y106.445 E.06023
G2 X107.932 Y106.692 I.784 J2.022 E.02071
G1 X108.764 Y107.523 E.04646
G1 X108.056 Y107.523 E.02796
G1 X107.52 Y106.987 E.02994
G2 X107.155 Y107.329 I1.224 J1.677 E.01983
G1 X107.554 Y107.729 E.02234
G1 E-.35 F2400
;WIPE_START
G1 F6300
G1 X107.155 Y107.329 E-.0848
G1 X107.409 Y107.075 E-.05389
G1 X107.468 Y107.028 E-.01132
;WIPE_END
G1 X111.654 Y106.434 Z.6 F30000
G1 Z.2
G1 E.5 F2400
;TYPE:Gap infill
;WIDTH:0.147396
G1 F2467
G1 X111.474 Y106.31 E.0018
; stop printing object Washer 5.stl id:0 copy 0
;TIME_ELAPSED:5.866983

M106 S255
;LAYER_CHANGE
;Z:0.4
;HEIGHT:0.2
;BEFORE_LAYER_CHANGE
;0.4
G92 E0

G1 E-.35454 F2400
;WIPE_START
G1 F3600
G1 X111.654 Y106.434 E-.14546
;WIPE_END
EXCLUDE_OBJECT_END NAME=Washer_5.stl_id_0_copy_0
;AFTER_LAYER_CHANGE
;0.4
;_SET_FAN_SPEED_CHANGING_LAYER
SET_VELOCITY_LIMIT ACCEL=12000 ACCEL_TO_DECEL=12000
M140 S50 ; set bed temperature
; printing object Washer 5.stl id:0 copy 0
EXCLUDE_OBJECT_START NAME=Washer_5.stl_id_0_copy_0
G17
G3 Z.6 I-1.122 J.47 P1  F30000
G1 X113.995 Y112.023 Z.6
G1 Z.4
G1 E.5 F2400
SET_VELOCITY_LIMIT ACCEL=5000 ACCEL_TO_DECEL=5000
;TYPE:Inner wall
;WIDTH:0.449999
G1 F2767
G1 X113.956 Y112.103 E.00288
G3 X105.655 Y108.899 I-3.955 J-2.107 E.41784
;WIDTH:0.494432
G1 X105.73 Y108.738 E.00634
;WIDTH:0.538864
G1 X105.804 Y108.576 E.00697
;WIDTH:0.583296
G1 X105.878 Y108.415 E.00759
;WIDTH:0.614966
G1 X106.002 Y108.18 E.01197
;WIDTH:0.646636
G2 X106.177 Y107.817 I-1.485 J-.936 E.01926
;WIDTH:0.597477
G1 X106.227 Y107.688 E.00607
;WIDTH:0.548318
G1 X106.277 Y107.559 E.00553
;WIDTH:0.499159
G1 X106.328 Y107.43 E.00499
;WIDTH:0.449999
G3 X113.705 Y107.478 I3.672 J2.598 E.27816
;WIDTH:0.499158
G1 X113.752 Y107.603 E.00481
;WIDTH:0.548317
G1 X113.798 Y107.728 E.00533
;WIDTH:0.597476
G1 X113.844 Y107.853 E.00585
;WIDTH:0.646634
G2 X114.013 Y108.216 I1.551 J-.503 E.01913
;WIDTH:0.614963
G1 X114.136 Y108.454 E.01208
;WIDTH:0.583292
G1 X114.21 Y108.621 E.00781
;WIDTH:0.538861
G1 X114.285 Y108.788 E.00717
;WIDTH:0.49443
G1 X114.359 Y108.956 E.00653
;WIDTH:0.449999
G3 X114.482 Y110.033 I-4.365 J1.044 E.03494
M73 P5 R2
G3 X114.181 Y111.612 I-4.482 J-.037 E.05199
G1 X114.011 Y111.986 E.01321
SET_VELOCITY_LIMIT ACCEL=12000 ACCEL_TO_DECEL=12000
G1 X114.538 Y111.777 F30000
SET_VELOCITY_LIMIT ACCEL=5000 ACCEL_TO_DECEL=5000
;TYPE:Outer wall
;WIDTH:0.419999
G1 F2767
G1 X114.249 Y112.384 E.02002
G3 X111.261 Y105.294 I-4.244 J-2.385 E.647
G3 X114.873 Y110.056 I-1.29 J4.729 E.19145
G3 X114.552 Y111.739 I-4.868 J-.058 E.0513
SET_VELOCITY_LIMIT ACCEL=12000 ACCEL_TO_DECEL=12000
G1 E-.35 F2400
;WIPE_START
G1 F12000
G1 X114.249 Y112.384 E-.10678
G1 X114.096 Y112.628 E-.04322
;WIPE_END
G1 X107.783 Y108.339 Z.8 F30000
G1 X107.428 Y108.098 Z.8
G1 Z.4
G1 E.5 F2400
SET_VELOCITY_LIMIT ACCEL=5000 ACCEL_TO_DECEL=5000
;TYPE:Inner wall
;WIDTH:0.449999
G1 F2767
G1 X108.011 Y108.098 E.01873
G1 X112.821 Y108.098 E.1547
G1 X113.079 Y108.158 E.00852
;WIDTH:0.499158
G1 X113.152 Y108.189 E.00285
;WIDTH:0.548317
G1 X113.225 Y108.219 E.00315
;WIDTH:0.597476
G1 X113.298 Y108.249 E.00346
;WIDTH:0.646634
G1 X113.371 Y108.28 E.00377
G1 X113.478 Y108.511 E.01217
;WIDTH:0.643739
G1 X113.459 Y108.644 E.00637
;WIDTH:0.595304
G1 X113.44 Y108.777 E.00585
;WIDTH:0.546869
G1 X113.421 Y108.91 E.00534
;WIDTH:0.498434
G1 X113.402 Y109.043 E.00483
;WIDTH:0.449999
G1 X113.402 Y111.321 E.07328
G1 X113.351 Y111.56 E.00784
G3 X112.821 Y111.902 I-.573 J-.306 E.02117
G1 X107.179 Y111.902 E.18146
G1 X106.921 Y111.842 E.00852
G1 X106.698 Y111.648 E.00949
G1 X106.602 Y111.393 E.00875
G3 X106.598 Y109.043 I243.914 J-1.633 E.07558
;WIDTH:0.498436
G1 X106.579 Y108.91 E.00483
;WIDTH:0.546872
G1 X106.56 Y108.777 E.00534
;WIDTH:0.595308
G1 X106.541 Y108.644 E.00585
;WIDTH:0.643744
G1 X106.522 Y108.511 E.00637
;WIDTH:0.646636
G1 X106.629 Y108.28 E.01217
G1 X106.76 Y108.234 E.00662
;WIDTH:0.597477
G1 X106.892 Y108.189 E.00608
;WIDTH:0.548318
G1 X107.023 Y108.144 E.00554
;WIDTH:0.499159
G1 X107.154 Y108.098 E.005
;WIDTH:0.449999
G1 X107.388 Y108.098 E.00752
SET_VELOCITY_LIMIT ACCEL=12000 ACCEL_TO_DECEL=12000
G1 X107.026 Y108.568 F30000
SET_VELOCITY_LIMIT ACCEL=5000 ACCEL_TO_DECEL=5000
;TYPE:Outer wall
;WIDTH:0.419999
G1 F2767
G1 X107.179 Y108.49 E.0051
M73 P6 R2
G1 X112.821 Y108.49 E.16808
G1 X112.974 Y108.568 E.0051
G1 X113.01 Y108.679 E.00347
G1 X113.01 Y111.321 E.07872
G1 X112.964 Y111.445 E.00394
G1 X112.821 Y111.51 E.00465
G1 X107.179 Y111.51 E.16808
G1 X107.026 Y111.432 E.0051
G1 X106.99 Y111.321 E.00347
G1 X106.99 Y108.679 E.07872
G1 X107.014 Y108.606 E.00228
SET_VELOCITY_LIMIT ACCEL=12000 ACCEL_TO_DECEL=12000
G1 E-.35 F2400
;WIPE_START
G1 F12000
G1 X107.179 Y108.49 E-.03024
G1 X107.977 Y108.49 E-.11976
;WIPE_END
G1 X114.088 Y110.487 Z.8 F30000
G1 Z.4
G1 E.5 F2400
;TYPE:Internal solid infill
;WIDTH:0.371454
G1 F2767
G1 X114.088 Y109.504 E.02551
G1 X113.992 Y109.013 E.01297
G1 X113.837 Y108.729 E.00841
G1 X113.767 Y109.071 E.00904
G3 X113.763 Y110.957 I-61.675 J.808 E.04894
;WIDTH:0.38888
G1 X113.79 Y111.188 E.00638
;WIDTH:0.417694
G1 X113.817 Y111.42 E.00691
G1 X113.999 Y110.978 E.01415
;WIDTH:0.367184
G1 X114.081 Y110.526 E.01178
G1 X113.605 Y111.912 F30000
;WIDTH:0.43847
G1 F2767
G1 X113.791 Y111.48 E.01468
G1 X112.571 Y112.671 F30000
;WIDTH:0.419999
G1 F2767
G1 X107.429 Y112.671 E.15316
G1 X107.881 Y113.048 E.01751
G2 X110.031 Y113.711 I2.164 J-3.199 E.06803
G1 X110.836 Y113.615 E.02415
G2 X112.541 Y112.696 I-.776 J-3.479 E.0584
G1 X110.386 Y113.02 F30000
;WIDTH:0.363456
G1 F2767
G1 X108.534 Y113.02 E.0469
G1 X109.188 Y113.264 E.01767
G1 X109.604 Y113.34 E.01072
G1 X110.396 Y113.34 E.02004
G1 X111.193 Y113.145 E.02079
G1 X111.472 Y113.02 E.00774
G1 X110.426 Y113.02 E.02649
G1 X107.179 Y112.294 F30000
;WIDTH:0.421101
G1 F2767
G1 X106.709 Y112.168 E.01454
G1 X106.414 Y111.936 E.01121
G2 X113.605 Y111.912 I3.589 J-1.92 E.26338
M73 P7 R2
G1 X113.217 Y112.207 E.01457
G1 X112.855 Y112.293 E.01112
G1 X107.219 Y112.294 E.16837
G1 X106.193 Y111.444 F30000
;WIDTH:0.459894
G1 F2767
G1 X106.379 Y111.875 E.01548
G1 X106.236 Y110.476 F30000
;WIDTH:0.366437
G1 F2767
G2 X106.222 Y109.024 I-32.5 J-.415 E.03713
G1 X106.148 Y108.75 E.00724
G1 X105.995 Y109.058 E.00879
G1 X105.911 Y109.514 E.01184
G1 X105.912 Y110.487 E.02485
G1 X106.002 Y110.985 E.01296
;WIDTH:0.390363
G1 X106.098 Y111.215 E.00681
;WIDTH:0.450112
G1 X106.193 Y111.444 E.00799
G1 X106.234 Y110.516 E.02986
G1 X107.429 Y107.329 F30000
;WIDTH:0.419999
G1 F2767
G1 X112.571 Y107.329 E.15316
G1 X112.119 Y106.952 E.01751
G2 X110.86 Y106.389 I-2.302 J3.463 E.04126
G1 X110.09 Y106.292 E.02315
G2 X109.085 Y106.404 I-.105 J3.633 E.03021
G1 X108.292 Y106.704 E.02524
G2 X107.459 Y107.304 I1.53 J3.002 E.03069
G1 X108.014 Y107.706 F30000
G1 F2767
G1 X112.821 Y107.706 E.14319
G1 X113.379 Y107.846 E.01713
G1 X113.35 Y107.677 E.00509
G2 X110.928 Y106.019 I-3.332 J2.267 E.08949
G1 X110.112 Y105.916 E.0245
G2 X106.651 Y107.675 I-.123 J4.045 E.12063
G1 X106.621 Y107.843 E.00508
G1 X107.138 Y107.707 E.0159
G1 X107.974 Y107.706 E.02492
G1 X110.386 Y106.98 F30000
;WIDTH:0.363127
G1 F2767
G1 X111.472 Y106.98 E.02745
G1 X110.812 Y106.736 E.01778
G1 X110.396 Y106.66 E.01071
G1 X109.599 Y106.661 E.02015
G1 X109.193 Y106.735 E.01045
G1 X108.526 Y106.981 E.01796
G1 X110.346 Y106.98 E.04603
; stop printing object Washer 5.stl id:0 copy 0
;TIME_ELAPSED:10.334715

M106 P2 S204
;LAYER_CHANGE
;Z:0.6
;HEIGHT:0.2
;BEFORE_LAYER_CHANGE
;0.6
G92 E0

G1 E-.35 F2400
;WIPE_START
G1 F15000
G1 X109.346 Y106.981 E-.15
;WIPE_END
EXCLUDE_OBJECT_END NAME=Washer_5.stl_id_0_copy_0
;AFTER_LAYER_CHANGE
;0.6
;_SET_FAN_SPEED_CHANGING_LAYER
; printing object Washer 5.stl id:0 copy 0
EXCLUDE_OBJECT_START NAME=Washer_5.stl_id_0_copy_0
G17
G3 Z.8 I-.895 J.825 P1  F30000
G1 X113.995 Y112.023 Z.8
G1 Z.6
G1 E.5 F2400
SET_VELOCITY_LIMIT ACCEL=5000 ACCEL_TO_DECEL=5000
;TYPE:Inner wall
;WIDTH:0.449999
G1 F2772
G1 X113.956 Y112.103 E.00288
G3 X105.655 Y108.899 I-3.955 J-2.107 E.41784
;WIDTH:0.494432
M73 P8 R2
G1 X105.73 Y108.738 E.00634
;WIDTH:0.538864
G1 X105.804 Y108.576 E.00697
;WIDTH:0.583296
G1 X105.878 Y108.415 E.00759
;WIDTH:0.614966
G1 X106.002 Y108.18 E.01197
;WIDTH:0.646635
G2 X106.177 Y107.817 I-1.485 J-.936 E.01926
;WIDTH:0.597476
G1 X106.227 Y107.688 E.00607
;WIDTH:0.548317
G1 X106.277 Y107.559 E.00553
;WIDTH:0.499158
