; HEADER_BLOCK_START
; generated by Creality_Print V5.1.6.10470 on 2024-12-10 at 16:49:34
; total layer number: 25
; filament_density: 1.24
; filament_diameter: 1.75
; max_z_height: 5.00
; HEADER_BLOCK_END

; MINX = 105.25
; MINY = 105.40
; MINZ = 0.00
; MAXX = 114.60
; MAXY = 131.33
; MAXZ = 5.00

; THUMBNAIL_BLOCK_START

;
; THUMBNAIL_BLOCK_END

; THUMBNAIL_BLOCK_START

;
; THUMBNAIL_BLOCK_END

; external perimeters extrusion width = 0.42mm
; perimeters extrusion width = 0.45mm
; infill extrusion width = 0.45mm
; solid infill extrusion width = 0.42mm
; top infill extrusion width = 0.42mm
; support material extrusion width = 0.42mm
; first layer extrusion width = 0.50mm

; external perimeters extrusion width = 0.42mm
; perimeters extrusion width = 0.45mm
; infill extrusion width = 0.45mm
; solid infill extrusion width = 0.42mm
; top infill extrusion width = 0.42mm
; support material extrusion width = 0.42mm
; first layer extrusion width = 0.50mm

; EXECUTABLE_BLOCK_START
EXCLUDE_OBJECT_DEFINE NAME=Washer_2.stl_id_0_copy_0 CENTER=110,110 POLYGON=[[105.4,110],[105.439,109.4],[105.557,108.809],[105.75,108.24],[106.016,107.7],[106.351,107.2],[106.747,106.747],[107.2,106.351],[107.7,106.016],[108.24,105.75],[108.809,105.557],[109.4,105.439],[110,105.4],[110.6,105.439],[111.191,105.557],[111.76,105.75],[112.3,106.016],[112.8,106.351],[113.253,106.747],[113.649,107.2],[113.984,107.7],[114.25,108.24],[114.443,108.809],[114.561,109.4],[114.6,110],[114.561,110.6],[114.443,111.191],[114.25,111.76],[113.984,112.3],[113.649,112.8],[113.253,113.253],[112.8,113.649],[112.3,113.984],[111.76,114.25],[111.191,114.443],[110.6,114.561],[110,114.6],[109.4,114.561],[108.809,114.443],[108.24,114.25],[107.7,113.984],[107.2,113.649],[106.747,113.253],[106.351,112.8],[106.016,112.3],[105.75,111.76],[105.557,111.191],[105.439,110.6],[105.4,110]]
EXCLUDE_OBJECT_DEFINE NAME=Washer_2.stl_id_1_copy_0 CENTER=109.85,126.735 POLYGON=[[105.25,126.735],[105.289,126.134],[105.406,125.544],[105.6,124.974],[105.866,124.435],[106.2,123.934],[106.597,123.482],[107.049,123.085],[107.55,122.751],[108.089,122.485],[108.659,122.291],[109.249,122.174],[109.85,122.135],[110.45,122.174],[111.04,122.291],[111.61,122.485],[112.15,122.751],[112.65,123.085],[113.102,123.482],[113.499,123.934],[113.833,124.435],[114.1,124.974],[114.293,125.544],[114.41,126.134],[114.45,126.735],[114.41,127.335],[114.293,127.925],[114.1,128.495],[113.833,129.035],[113.499,129.535],[113.102,129.987],[112.65,130.384],[112.15,130.718],[111.61,130.984],[111.04,131.178],[110.45,131.295],[109.85,131.335],[109.249,131.295],[108.659,131.178],[108.089,130.984],[107.55,130.718],[107.049,130.384],[106.597,129.987],[106.2,129.535],[105.866,129.035],[105.6,128.495],[105.406,127.925],[105.289,127.335],[105.25,126.735]]
M73 P0 R2
M106 S0
M106 P2 S0
;TYPE:Custom
M140 S0
M104 S0 
START_PRINT EXTRUDER_TEMP=230 BED_TEMP=50
M141 S35;set chamber_temperature
G90
G21
M83 ; use relative distances for extrusion
; filament start gcode
M106 S0
;LAYER_CHANGE
;Z:0.2
;HEIGHT:0.2
;BEFORE_LAYER_CHANGE
;0.2
G92 E0

G1 E-.5 F2400
;AFTER_LAYER_CHANGE
;0.2
;_SET_FAN_SPEED_CHANGING_LAYER
SET_VELOCITY_LIMIT ACCEL=1000 ACCEL_TO_DECEL=1000
SET_VELOCITY_LIMIT SQUARE_CORNER_VELOCITY=20
; printing object Washer 2.stl id:0 copy 0
EXCLUDE_OBJECT_START NAME=Washer_2.stl_id_0_copy_0
G1 X113.2 Y111.909 F30000
G1 Z.4
G1 Z.2
G1 E.5 F2400
;TYPE:Inner wall
;WIDTH:0.499999
G1 F3600
G1 X113.139 Y112.021 E.00459
G1 X112.673 Y112.614 E.02723
G3 X111.337 Y113.488 I-2.845 J-2.887 E.05804
G1 X110.632 Y113.68 E.02638
G3 X108.992 Y113.6 I-.628 J-3.951 E.05972
G1 X108.333 Y113.339 E.0256
G1 X107.758 Y112.991 E.02426
G3 X106.68 Y111.708 I2.462 J-3.161 E.06094
G1 X106.4 Y111.008 E.02723
G3 X106.31 Y109.414 I3.923 J-1.02 E.05804
G1 X106.497 Y108.707 E.02638
G3 X107.386 Y107.327 I3.731 J1.429 E.05971
G1 X107.94 Y106.887 E.02556
G1 X108.412 Y106.621 E.01953
G1 X108.992 Y106.4 E.02242
G3 X111.008 Y106.4 I1.008 J3.604 E.07372
G1 X111.666 Y106.659 E.02555
G1 X112.242 Y107.009 E.02432
G3 X113.32 Y108.292 I-2.462 J3.161 E.06094
G1 X113.6 Y108.992 E.02723
G3 X113.738 Y110.042 I-3.367 J.978 E.0384
G3 X113.437 Y111.469 I-4.204 J-.141 E.05292
G1 X113.219 Y111.874 E.01661
M73 P1 R2
G1 X113.846 Y111.672 F30000
;TYPE:Outer wall
G1 F3600
G3 X111.672 Y106.152 I-3.842 J-1.675 E.7128
G3 X114.194 Y110.072 I-1.716 J3.876 E.1782
G3 X113.862 Y111.635 I-4.19 J-.075 E.05806
G1 E-.35 F2400
;WIPE_START
G1 F3600
G1 X113.591 Y112.168 E-.0896
G1 X113.361 Y112.499 E-.0604
;WIPE_END
G1 X108.969 Y107.78 Z.6 F30000
G1 Z.2
G1 E.5 F2400
;TYPE:Inner wall
G1 F3600
G1 X109.059 Y107.731 E.0037
G1 X109.567 Y107.584 E.0191
G1 X110.072 Y107.546 E.01828
G1 X110.58 Y107.614 E.01853
G1 X111.064 Y107.787 E.01853
G1 X111.494 Y108.051 E.01821
G1 X111.872 Y108.411 E.01886
G1 X112.161 Y108.835 E.01853
G1 X112.356 Y109.31 E.01853
G1 X112.448 Y109.815 E.01853
G1 X112.435 Y110.319 E.01821
G1 X112.312 Y110.827 E.01886
G1 X112.09 Y111.289 E.01853
G1 X111.776 Y111.695 E.01853
G1 X111.385 Y112.028 E.01853
G1 X110.941 Y112.268 E.01821
G1 X110.44 Y112.416 E.01886
G1 X109.928 Y112.454 E.01853
G1 X109.42 Y112.386 E.01853
G1 X108.936 Y112.213 E.01853
G1 X108.506 Y111.949 E.01821
G1 X108.128 Y111.589 E.01886
G1 X107.895 Y111.267 E.01435
G1 X107.665 Y110.768 E.01984
G1 X107.553 Y110.23 E.01984
G1 X107.561 Y109.702 E.01909
G1 X107.688 Y109.173 E.01961
G1 X107.91 Y108.711 E.01853
G1 X108.224 Y108.305 E.01853
G1 X108.615 Y107.972 E.01853
G1 X108.934 Y107.799 E.01308
G1 X108.83 Y108.38 F30000
;TYPE:Outer wall
G1 F3600
G1 X108.85 Y108.376 E.00072
G3 X109.21 Y108.163 I1.313 J1.809 E.01513
G1 X109.709 Y108.028 E.01869
G1 X110.024 Y108 E.0114
G3 X111.195 Y108.396 I-.103 J2.234 E.04521
G1 X111.569 Y108.772 E.01916
G1 X111.744 Y109.021 E.01097
G3 X111.986 Y110.233 I-1.986 J1.028 E.04521
G1 X111.853 Y110.734 E.01873
G1 X111.72 Y111.021 E.0114
G3 X110.792 Y111.837 I-1.883 J-1.206 E.04521
G1 X110.289 Y111.972 E.0188
G1 X109.976 Y112 E.01133
G3 X108.805 Y111.604 I.103 J-2.234 E.04521
M73 P2 R2
G1 X108.431 Y111.228 E.01916
G1 X108.275 Y111.013 E.00957
G1 X108.086 Y110.572 E.01731
G3 X108.28 Y108.979 I2.049 J-.559 E.05942
G3 X108.551 Y108.635 I1.882 J1.206 E.01584
G1 X108.801 Y108.407 E.0122
G1 E-.35 F2400
;WIPE_START
G1 F3600
G1 X108.85 Y108.376 E-.00872
G1 X109.21 Y108.163 E-.06275
G1 X109.709 Y108.028 E-.07763
G1 X109.715 Y108.028 E-.0009
;WIPE_END
G1 X113.274 Y108.457 Z.6 F30000
G1 Z.2
G1 E.5 F2400
;TYPE:Bottom surface
;WIDTH:0.529505
G1 F6300
G1 X112.253 Y107.436 E.0555
G2 X110.81 Y106.681 I-2.287 J2.615 E.0632
G1 X113.319 Y109.19 E.13639
G3 X113.419 Y109.978 I-2.944 J.774 E.03063
G1 X112.66 Y109.219 E.04126
G1 X112.606 Y109.047 E.00694
G1 X112.374 Y108.559 E.02077
G2 X111.602 Y107.731 I-2.548 J1.6 E.04378
G1 X111.077 Y107.44 E.02307
G1 X110.791 Y107.35 E.01152
G1 X110.023 Y106.583 E.04173
G1 X109.552 Y106.609 E.01815
G1 X109.393 Y106.641 E.00621
G1 X109.979 Y107.227 E.03186
G1 X109.441 Y107.279 E.0208
G1 X109.368 Y107.303 E.00296
G1 X108.85 Y106.786 E.02812
G2 X108.373 Y106.997 I.562 J1.918 E.02011
G1 X108.849 Y107.473 E.02589
G1 X108.417 Y107.729 E.01931
G1 X107.952 Y107.264 E.02529
G1 X107.927 Y107.281 E.00117
G1 X107.581 Y107.582 E.0176
G1 X108.043 Y108.043 E.0251
G2 X107.732 Y108.42 I.765 J.95 E.01891
G1 X107.264 Y107.952 E.02545
G2 X106.997 Y108.373 I1.467 J1.224 E.01922
G1 X107.483 Y108.859 E.02641
G2 X107.307 Y109.372 I1.171 J.687 E.02097
G1 X106.786 Y108.85 E.02835
G2 X106.641 Y109.393 I1.99 J.823 E.02166
G1 X107.439 Y110.191 E.04338
G1 E-.35 F2400
;WIPE_START
G1 F6300
G1 X106.732 Y109.484 E-.15
;WIPE_END
G1 X112.562 Y109.809 Z.6 F30000
M73 P3 R2
G1 Z.2
G1 E.5 F2400
G1 F6300
G1 X113.359 Y110.607 E.04335
G3 X113.214 Y111.15 I-2.135 J-.28 E.02166
G1 X112.693 Y110.628 E.02834
G3 X112.517 Y111.141 I-1.337 J-.172 E.02097
G1 X113.002 Y111.626 E.02638
G3 X112.736 Y112.048 I-1.768 J-.82 E.01923
G1 X112.268 Y111.58 E.02543
G1 X112.073 Y111.85 E.01282
G1 X111.955 Y111.955 E.00605
G1 X112.419 Y112.419 E.02519
G1 X112.082 Y112.714 E.01719
G1 X112.048 Y112.736 E.00157
G1 X111.589 Y112.277 E.02497
G1 X111.151 Y112.527 E.01939
G1 X111.627 Y113.003 E.02589
G3 X111.15 Y113.214 I-1.039 J-1.707 E.02011
G1 X110.633 Y112.698 E.02806
G1 X110.566 Y112.72 E.00273
G1 X110.023 Y112.776 E.02097
G1 X110.607 Y113.359 E.0317
G3 X109.978 Y113.419 I-.76 J-4.665 E.02428
G1 X109.209 Y112.65 E.04183
G1 X108.924 Y112.56 E.01147
G1 X108.398 Y112.269 E.02312
G3 X107.337 Y110.778 I1.731 J-2.354 E.07155
G1 X106.582 Y110.022 E.04106
G2 X106.681 Y110.81 I3.598 J-.054 E.03058
G1 X109.19 Y113.319 E.13638
G1 X109.115 Y113.304 E.00295
G3 X107.746 Y112.563 I.857 J-3.217 E.0604
G1 X106.726 Y111.543 E.05543
G1 E-.35 F2400
;WIPE_START
G1 F6300
G1 X107.433 Y112.25 E-.15
;WIPE_END
G1 X107.342 Y109.615 Z.6 F30000
G1 Z.2
G1 E.5 F2400
;TYPE:Gap infill
;WIDTH:0.107871
G1 F3600
G1 X107.302 Y109.662 E.00032
G1 X107.333 Y109.741 E.00044
G1 E-.40177 F2400
;WIPE_START
G1 F3600
G1 X107.302 Y109.662 E-.05676
G1 X107.342 Y109.615 E-.04147
;WIPE_END
G1 X112.667 Y110.259 Z.6 F30000
G1 Z.2
M73 P4 R2
G1 E.5 F2400
;WIDTH:0.110445
G1 F3600
G1 X112.698 Y110.338 E.00045
G1 X112.658 Y110.385 E.00033
; stop printing object Washer 2.stl id:0 copy 0
; printing object Washer 2.stl id:1 copy 0
G1 E-.40174 F2400
;WIPE_START
G1 F3600
G1 X112.698 Y110.338 E-.04151
G1 X112.667 Y110.259 E-.05675
;WIPE_END
EXCLUDE_OBJECT_END NAME=Washer_2.stl_id_0_copy_0
EXCLUDE_OBJECT_START NAME=Washer_2.stl_id_1_copy_0
G1 X112.826 Y117.89 Z.6 F30000
G1 X113.05 Y128.644 Z.6
G1 Z.2
G1 E.5 F2400
;TYPE:Inner wall
;WIDTH:0.499999
G1 F3600
G1 X112.989 Y128.756 E.00459
G1 X112.523 Y129.348 E.02723
G3 X111.187 Y130.223 I-2.845 J-2.887 E.05804
G1 X110.482 Y130.415 E.02638
G3 X108.842 Y130.335 I-.628 J-3.951 E.05972
G1 X108.182 Y130.074 E.0256
G1 X107.607 Y129.726 E.02426
G3 X106.53 Y128.443 I2.462 J-3.161 E.06094
G1 X106.25 Y127.743 E.02723
G3 X106.16 Y126.148 I3.923 J-1.02 E.05804
G1 X106.346 Y125.442 E.02638
G3 X107.236 Y124.062 I3.731 J1.429 E.05971
G1 X107.79 Y123.621 E.02556
G1 X108.261 Y123.356 E.01953
G1 X108.842 Y123.135 E.02242
G3 X110.858 Y123.135 I1.008 J3.604 E.07372
G1 X111.516 Y123.394 E.02555
G1 X112.092 Y123.743 E.02432
G3 X113.17 Y125.026 I-2.462 J3.161 E.06094
G1 X113.45 Y125.726 E.02723
G3 X113.588 Y126.777 I-3.367 J.978 E.0384
G3 X113.287 Y128.204 I-4.204 J-.141 E.05292
G1 X113.069 Y128.609 E.01661
G1 X113.696 Y128.407 F30000
;TYPE:Outer wall
G1 F3600
G3 X111.521 Y122.887 I-3.842 J-1.675 E.7128
G3 X114.044 Y126.807 I-1.716 J3.876 E.1782
G3 X113.711 Y128.37 I-4.19 J-.075 E.05806
M73 P5 R2
G1 E-.35 F2400
;WIPE_START
G1 F3600
G1 X113.441 Y128.902 E-.0896
G1 X113.211 Y129.233 E-.0604
;WIPE_END
G1 X108.819 Y124.515 Z.6 F30000
G1 Z.2
G1 E.5 F2400
;TYPE:Inner wall
G1 F3600
G1 X108.909 Y124.466 E.0037
G1 X109.417 Y124.318 E.0191
G1 X109.921 Y124.28 E.01828
G1 X110.43 Y124.349 E.01853
G1 X110.913 Y124.522 E.01853
G1 X111.344 Y124.785 E.01821
G1 X111.722 Y125.146 E.01886
G1 X112.011 Y125.57 E.01853
G1 X112.206 Y126.044 E.01853
G1 X112.298 Y126.549 E.01853
G1 X112.285 Y127.054 E.01821
G1 X112.162 Y127.561 E.01886
G1 X111.939 Y128.024 E.01853
G1 X111.626 Y128.43 E.01853
G1 X111.234 Y128.762 E.01853
G1 X110.791 Y129.003 E.01821
G1 X110.29 Y129.15 E.01886
G1 X109.778 Y129.189 E.01853
G1 X109.269 Y129.12 E.01853
G1 X108.786 Y128.948 E.01853
G1 X108.356 Y128.684 E.01821
G1 X107.978 Y128.324 E.01886
G1 X107.745 Y128.002 E.01435
G1 X107.515 Y127.503 E.01984
G1 X107.403 Y126.965 E.01984
G1 X107.411 Y126.436 E.01909
G1 X107.538 Y125.908 E.01961
G1 X107.76 Y125.445 E.01853
G1 X108.074 Y125.039 E.01853
G1 X108.465 Y124.707 E.01853
G1 X108.784 Y124.534 E.01308
G1 X108.68 Y125.115 F30000
;TYPE:Outer wall
G1 F3600
G1 X108.699 Y125.111 E.00072
G3 X109.059 Y124.898 I1.313 J1.809 E.01513
G1 X109.559 Y124.763 E.01869
G1 X109.874 Y124.735 E.0114
G3 X111.044 Y125.131 I-.103 J2.234 E.04521
G1 X111.419 Y125.507 E.01916
G1 X111.593 Y125.755 E.01097
G3 X111.836 Y126.967 I-1.986 J1.028 E.04521
G1 X111.703 Y127.469 E.01873
G1 X111.57 Y127.755 E.0114
G3 X110.641 Y128.571 I-1.883 J-1.206 E.04521
G1 X110.138 Y128.706 E.0188
G1 X109.826 Y128.734 E.01133
G3 X108.655 Y128.338 I.103 J-2.234 E.04521
G1 X108.28 Y127.962 E.01916
G1 X108.125 Y127.748 E.00957
G1 X107.936 Y127.307 E.01731
G3 X108.13 Y125.714 I2.049 J-.559 E.05942
G3 X108.401 Y125.37 I1.882 J1.206 E.01584
G1 X108.65 Y125.142 E.0122
G1 E-.35 F2400
;WIPE_START
G1 F3600
G1 X108.699 Y125.111 E-.00872
G1 X109.059 Y124.898 E-.06275
G1 X109.559 Y124.763 E-.07763
G1 X109.565 Y124.762 E-.0009
;WIPE_END
G1 X113.124 Y125.192 Z.6 F30000
G1 Z.2
G1 E.5 F2400
;TYPE:Bottom surface
;WIDTH:0.529505
G1 F6300
G1 X112.103 Y124.171 E.0555
G2 X110.66 Y123.416 I-2.287 J2.615 E.0632
G1 X113.169 Y125.925 E.13639
M73 P6 R2
G3 X113.269 Y126.713 I-2.944 J.774 E.03063
G1 X112.51 Y125.954 E.04126
M73 P6 R1
G1 X112.456 Y125.782 E.00694
G1 X112.224 Y125.294 E.02077
G2 X111.452 Y124.465 I-2.548 J1.6 E.04378
G1 X110.927 Y124.175 E.02307
G1 X110.641 Y124.085 E.01152
G1 X109.873 Y123.317 E.04173
G1 X109.402 Y123.344 E.01815
G1 X109.243 Y123.375 E.00621
G1 X109.829 Y123.961 E.03186
G1 X109.29 Y124.014 E.0208
G1 X109.217 Y124.038 E.00296
G1 X108.7 Y123.521 E.02812
G2 X108.223 Y123.731 I.562 J1.918 E.02011
G1 X108.699 Y124.208 E.02589
G1 X108.267 Y124.463 E.01931
G1 X107.802 Y123.998 E.02529
G1 X107.776 Y124.015 E.00117
G1 X107.431 Y124.316 E.0176
G1 X107.893 Y124.778 E.0251
G2 X107.582 Y125.155 I.765 J.95 E.01891
G1 X107.113 Y124.686 E.02545
G2 X106.846 Y125.108 I1.467 J1.224 E.01922
G1 X107.332 Y125.594 E.02641
G2 X107.157 Y126.106 I1.171 J.687 E.02097
G1 X106.636 Y125.585 E.02835
G2 X106.49 Y126.128 I1.99 J.823 E.02166
G1 X107.288 Y126.926 E.04338
G1 E-.35 F2400
;WIPE_START
G1 F6300
G1 X106.581 Y126.219 E-.15
;WIPE_END
G1 X112.411 Y126.544 Z.6 F30000
G1 Z.2
G1 E.5 F2400
G1 F6300
G1 X113.209 Y127.341 E.04335
G3 X113.064 Y127.884 I-2.135 J-.28 E.02166
G1 X112.542 Y127.363 E.02834
G3 X112.367 Y127.875 I-1.337 J-.172 E.02097
G1 X112.852 Y128.361 E.02638
G3 X112.586 Y128.783 I-1.768 J-.82 E.01923
G1 X112.118 Y128.315 E.02543
G1 X111.922 Y128.585 E.01282
G1 X111.805 Y128.69 E.00605
G1 X112.268 Y129.153 E.02519
G1 X111.932 Y129.448 E.01719
G1 X111.898 Y129.471 E.00157
G1 X111.439 Y129.012 E.02497
G1 X111 Y129.262 E.01939
G1 X111.477 Y129.738 E.02589
G3 X110.999 Y129.949 I-1.039 J-1.707 E.02011
G1 X110.483 Y129.433 E.02806
G1 X110.416 Y129.455 E.00273
G1 X109.873 Y129.511 E.02097
M73 P7 R1
G1 X110.456 Y130.094 E.0317
G3 X109.828 Y130.154 I-.76 J-4.665 E.02428
G1 X109.059 Y129.384 E.04183
G1 X108.774 Y129.295 E.01147
G1 X108.247 Y129.004 E.02312
G3 X107.187 Y127.512 I1.731 J-2.354 E.07155
G1 X106.431 Y126.757 E.04106
G2 X106.531 Y127.545 I3.598 J-.054 E.03058
G1 X109.04 Y130.053 E.13638
G1 X108.964 Y130.039 E.00295
G3 X107.595 Y129.297 I.857 J-3.217 E.0604
G1 X106.576 Y128.278 E.05543
G1 E-.35 F2400
;WIPE_START
G1 F6300
G1 X107.283 Y128.985 E-.15
;WIPE_END
G1 X107.192 Y126.35 Z.6 F30000
G1 Z.2
G1 E.5 F2400
;TYPE:Gap infill
;WIDTH:0.107871
G1 F3600
G1 X107.151 Y126.397 E.00032
G1 X107.183 Y126.476 E.00044
G1 E-.40177 F2400
;WIPE_START
G1 F3600
G1 X107.151 Y126.397 E-.05676
G1 X107.192 Y126.35 E-.04147
;WIPE_END
G1 X112.517 Y126.993 Z.6 F30000
G1 Z.2
G1 E.5 F2400
;WIDTH:0.110445
G1 F3600
G1 X112.548 Y127.073 E.00045
G1 X112.507 Y127.12 E.00033
; stop printing object Washer 2.stl id:1 copy 0
;TIME_ELAPSED:9.726431

M106 S255
;LAYER_CHANGE
;Z:0.4
;HEIGHT:0.2
;BEFORE_LAYER_CHANGE
;0.4
G92 E0

G1 E-.40174 F2400
;WIPE_START
G1 F3600
G1 X112.548 Y127.073 E-.04151
G1 X112.517 Y126.993 E-.05675
;WIPE_END
EXCLUDE_OBJECT_END NAME=Washer_2.stl_id_1_copy_0
;AFTER_LAYER_CHANGE
;0.4
;_SET_FAN_SPEED_CHANGING_LAYER
SET_VELOCITY_LIMIT ACCEL=12000 ACCEL_TO_DECEL=12000
M140 S50 ; set bed temperature
; printing object Washer 2.stl id:0 copy 0
EXCLUDE_OBJECT_START NAME=Washer_2.stl_id_0_copy_0
G17
G3 Z.6 I1.215 J.077 P1  F30000
G1 X113.464 Y111.982 Z.6
G1 Z.4
G1 E.5 F2400
SET_VELOCITY_LIMIT ACCEL=5000 ACCEL_TO_DECEL=5000
;TYPE:Inner wall
;WIDTH:0.449999
G1 F5118
G1 X113.167 Y112.43 E.01727
