; HEADER_BLOCK_START
; generated by Creality_Print V5.1.6.10470 on 2024-12-10 at 16:48:18
; total layer number: 10
; filament_density: 1.24
; filament_diameter: 1.75
; max_z_height: 2.00
; HEADER_BLOCK_END

; MINX = 105.95
; MINY = 96.06
; MINZ = -0.00
; MAXX = 113.10
; MAXY = 113.10
; MAXZ = 2.00

; THUMBNAIL_BLOCK_START

;
; THUMBNAIL_BLOCK_END

; THUMBNAIL_BLOCK_START

;
; THUMBNAIL_BLOCK_END

; external perimeters extrusion width = 0.42mm
; perimeters extrusion width = 0.45mm
; infill extrusion width = 0.45mm
; solid infill extrusion width = 0.42mm
; top infill extrusion width = 0.42mm
; support material extrusion width = 0.42mm
; first layer extrusion width = 0.50mm

; external perimeters extrusion width = 0.42mm
; perimeters extrusion width = 0.45mm
; infill extrusion width = 0.45mm
; solid infill extrusion width = 0.42mm
; top infill extrusion width = 0.42mm
; support material extrusion width = 0.42mm
; first layer extrusion width = 0.50mm

; EXECUTABLE_BLOCK_START
EXCLUDE_OBJECT_DEFINE NAME=Washer_1.stl_id_0_copy_0 CENTER=110,110 POLYGON=[[106.9,110],[106.938,109.515],[107.052,109.042],[107.238,108.593],[107.492,108.178],[107.808,107.808],[108.178,107.492],[108.593,107.238],[109.042,107.052],[109.515,106.938],[110,106.9],[110.485,106.938],[110.958,107.052],[111.407,107.238],[111.822,107.492],[112.192,107.808],[112.508,108.178],[112.762,108.593],[112.948,109.042],[113.062,109.515],[113.1,110],[113.062,110.485],[112.948,110.958],[112.762,111.407],[112.508,111.822],[112.192,112.192],[111.822,112.508],[111.407,112.762],[110.958,112.948],[110.485,113.062],[110,113.1],[109.515,113.062],[109.042,112.948],[108.593,112.762],[108.178,112.508],[107.808,112.192],[107.492,111.822],[107.238,111.407],[107.052,110.958],[106.938,110.485],[106.9,110]]
EXCLUDE_OBJECT_DEFINE NAME=Washer_1.stl_id_1_copy_0 CENTER=109.053,99.1569 POLYGON=[[105.953,99.1568],[105.991,98.6719],[106.104,98.1989],[106.291,97.7495],[106.545,97.3347],[106.861,96.9648],[107.231,96.6489],[107.645,96.3947],[108.095,96.2086],[108.568,96.095],[109.053,96.0569],[109.538,96.095],[110.011,96.2086],[110.46,96.3947],[110.875,96.6489],[111.245,96.9648],[111.561,97.3347],[111.815,97.7495],[112.001,98.1989],[112.114,98.6719],[112.153,99.1568],[112.114,99.6418],[112.001,100.115],[111.815,100.564],[111.561,100.979],[111.245,101.349],[110.875,101.665],[110.46,101.919],[110.011,102.105],[109.538,102.219],[109.053,102.257],[108.568,102.219],[108.095,102.105],[107.645,101.919],[107.231,101.665],[106.861,101.349],[106.545,100.979],[106.291,100.564],[106.104,100.115],[105.991,99.6418],[105.953,99.1568]]
M73 P0 R0
M106 S0
M106 P2 S0
;TYPE:Custom
M140 S0
M104 S0 
START_PRINT EXTRUDER_TEMP=230 BED_TEMP=50
M141 S35;set chamber_temperature
G90
G21
M83 ; use relative distances for extrusion
; filament start gcode
M106 S0
;LAYER_CHANGE
;Z:0.2
;HEIGHT:0.2
;BEFORE_LAYER_CHANGE
;0.2
G92 E0

G1 E-.5 F2400
;AFTER_LAYER_CHANGE
;0.2
;_SET_FAN_SPEED_CHANGING_LAYER
SET_VELOCITY_LIMIT ACCEL=1000 ACCEL_TO_DECEL=1000
SET_VELOCITY_LIMIT SQUARE_CORNER_VELOCITY=20
; printing object Washer 1.stl id:0 copy 0
EXCLUDE_OBJECT_START NAME=Washer_1.stl_id_0_copy_0
G1 X112.275 Y110.073 F30000
M73 P1 R0
G1 Z.4
G1 Z.2
G1 E.5 F2400
;TYPE:Inner wall
;WIDTH:0.412097
G1 F1930
G1 X112.208 Y110.564 E.01445
;WIDTH:0.414196
G1 X112.026 Y111.05 E.01522
G1 X111.667 Y111.555 E.01817
;WIDTH:0.411335
M73 P2 R0
G1 X111.235 Y111.914 E.01635
;WIDTH:0.41429
G1 X110.719 Y112.166 E.01684
;WIDTH:0.417174
G1 X110.371 Y112.25 E.01058
G1 X109.878 Y112.275 E.0146
;WIDTH:0.414292
G1 X109.294 Y112.172 E.01739
G1 X108.838 Y111.96 E.01476
;WIDTH:0.412096
G1 X108.375 Y111.604 E.01702
G1 X108.04 Y111.162 E.01619
;WIDTH:0.414188
G1 X107.825 Y110.69 E.01522
G1 X107.721 Y110.079 E.01816
;WIDTH:0.411337
G1 X107.773 Y109.52 E.01635
;WIDTH:0.414294
G1 X107.96 Y108.977 E.01684
;WIDTH:0.417174
G1 X108.146 Y108.671 E.01058
G1 X108.478 Y108.305 E.01461
;WIDTH:0.414301
G1 X108.977 Y107.96 E.0178
G1 X109.52 Y107.773 E.01685
;WIDTH:0.411718
G1 X110.025 Y107.717 E.01481
G1 X110.564 Y107.792 E.01586
;WIDTH:0.414172
G1 X111.05 Y107.974 E.01522
G1 X111.555 Y108.333 E.01816
;WIDTH:0.411331
G1 X111.914 Y108.765 E.01635
;WIDTH:0.414295
G1 X112.166 Y109.281 E.01685
;WIDTH:0.417173
G1 X112.255 Y109.658 E.01145
G1 X112.283 Y110.014 E.01058
;WIDTH:0.412097
G1 X112.281 Y110.034 E.00056
G1 E-.35 F2400
;WIPE_START
G1 F3600
G1 X112.208 Y110.564 E-.08035
G1 X112.045 Y110.999 E-.06965
;WIPE_END
M73 P3 R0
G1 X108.153 Y109.509 Z.6 F30000
G1 Z.2
G1 E.5 F2400
;WIDTH:0.409076
G1 F1930
G1 X108.352 Y109.029 E.01502
;WIDTH:0.410815
G1 X108.684 Y108.612 E.01548
;WIDTH:0.414172
G1 X109.118 Y108.304 E.01562
G1 X109.587 Y108.135 E.01463
;WIDTH:0.411396
G1 X110.084 Y108.091 E.01451
;WIDTH:0.414287
G1 X110.577 Y108.177 E.01469
G1 X111.027 Y108.389 E.01459
;WIDTH:0.411382
G1 X111.409 Y108.709 E.01452
;WIDTH:0.414294
G1 X111.697 Y109.119 E.01469
G1 X111.865 Y109.587 E.01458
;WIDTH:0.41139
G1 X111.909 Y110.084 E.01452
;WIDTH:0.414318
G1 X111.823 Y110.577 E.01469
G1 X111.611 Y111.027 E.01458
;WIDTH:0.411383
G1 X111.291 Y111.409 E.01452
;WIDTH:0.414312
G1 X110.881 Y111.697 E.01469
G1 X110.413 Y111.865 E.01459
;WIDTH:0.411397
G1 X109.916 Y111.909 E.01451
;WIDTH:0.414292
G1 X109.423 Y111.823 E.01469
M73 P4 R0
G1 X108.973 Y111.611 E.01458
;WIDTH:0.411393
G1 X108.591 Y111.29 E.01452
G1 X108.389 Y111.027 E.00967
;WIDTH:0.414188
G1 X108.177 Y110.575 E.01462
G1 X108.088 Y110.05 E.01562
;WIDTH:0.410827
G1 X108.145 Y109.548 E.0147
G1 X108.502 Y109.985 F30000
;TYPE:Outer wall
;WIDTH:0.499999
G1 F1930
G1 X108.5 Y109.97 E.00053
G1 X108.56 Y109.582 E.01419
G1 X108.716 Y109.224 E.01408
G1 X108.961 Y108.919 E.01414
G1 X109.278 Y108.686 E.01419
G1 X109.641 Y108.544 E.01408
G1 X110.03 Y108.501 E.01413
G1 X110.418 Y108.56 E.0142
G1 X110.776 Y108.716 E.01408
G1 X111.081 Y108.961 E.01414
G1 X111.314 Y109.278 E.0142
G1 X111.456 Y109.641 E.01408
G1 X111.5 Y110.03 E.01414
G1 X111.44 Y110.418 E.01419
G1 X111.284 Y110.776 E.01407
G1 X111.039 Y111.081 E.01414
G1 X110.722 Y111.314 E.01419
G1 X110.359 Y111.456 E.01408
G1 X109.97 Y111.5 E.01413
G1 X109.582 Y111.44 E.0142
G1 X109.224 Y111.284 E.01408
G1 X108.919 Y111.039 E.01414
G1 X108.716 Y110.776 E.012
G1 X108.544 Y110.359 E.01627
G1 X108.507 Y110.024 E.01217
G1 E-.35 F2400
;WIPE_START
G1 F3600
G1 X108.5 Y109.97 E-.00819
G1 X108.56 Y109.582 E-.05895
G1 X108.716 Y109.224 E-.0585
G1 X108.818 Y109.098 E-.02436
;WIPE_END
G1 X112.669 Y109.625 Z.6 F30000
M73 P5 R0
G1 Z.2
G1 E.5 F2400
G1 F1930
G1 X112.687 Y110.155 E.01913
G1 X112.608 Y110.66 E.01848
G1 X112.423 Y111.182 E.01998
G1 X112.153 Y111.622 E.01867
G1 X111.79 Y112.009 E.01913
G1 X111.377 Y112.311 E.01848
G1 X110.878 Y112.549 E.01998
G1 X110.375 Y112.669 E.01867
G1 X109.846 Y112.687 E.01912
G1 X109.339 Y112.608 E.01849
G1 X108.818 Y112.423 E.01997
G1 X108.378 Y112.153 E.01867
G1 X107.991 Y111.79 E.01913
G1 X107.689 Y111.377 E.01848
G1 X107.451 Y110.878 E.01997
G1 X107.331 Y110.375 E.01867
G1 X107.313 Y109.845 E.01913
G1 X107.392 Y109.339 E.01848
M73 P6 R0
G1 X107.577 Y108.818 E.01997
G1 X107.847 Y108.378 E.01867
G1 X108.21 Y107.991 E.01913
G1 X108.623 Y107.689 E.01848
G1 X109.122 Y107.451 E.01998
G1 X109.626 Y107.331 E.01869
G1 X110.154 Y107.313 E.01909
G1 X110.661 Y107.392 E.01849
G1 X111.182 Y107.577 E.01997
G1 X111.622 Y107.847 E.01867
G1 X112.009 Y108.21 E.01913
G1 X112.311 Y108.623 E.01849
G1 X112.549 Y109.122 E.01997
G1 X112.66 Y109.586 E.01722
; stop printing object Washer 1.stl id:0 copy 0
; printing object Washer 1.stl id:1 copy 0
G1 E-.35 F2400
;WIPE_START
G1 F3600
G1 X112.687 Y110.155 E-.08534
G1 X112.621 Y110.581 E-.06466
;WIPE_END
EXCLUDE_OBJECT_END NAME=Washer_1.stl_id_0_copy_0
EXCLUDE_OBJECT_START NAME=Washer_1.stl_id_1_copy_0
G1 X111.757 Y102.997 Z.6 F30000
G1 X111.328 Y99.23 Z.6
M73 P7 R0
G1 Z.2
G1 E.5 F2400
;TYPE:Inner wall
;WIDTH:0.412097
G1 F1930
G1 X111.261 Y99.721 E.01445
;WIDTH:0.414196
G1 X111.079 Y100.207 E.01522
G1 X110.72 Y100.712 E.01817
;WIDTH:0.411335
G1 X110.288 Y101.071 E.01635
;WIDTH:0.41429
G1 X109.772 Y101.323 E.01684
;WIDTH:0.417174
G1 X109.424 Y101.407 E.01058
G1 X108.931 Y101.432 E.0146
;WIDTH:0.414292
G1 X108.347 Y101.328 E.01739
G1 X107.89 Y101.117 E.01476
;WIDTH:0.412096
G1 X107.428 Y100.761 E.01702
G1 X107.092 Y100.319 E.01619
;WIDTH:0.414188
G1 X106.877 Y99.847 E.01522
G1 X106.774 Y99.236 E.01816
;WIDTH:0.411337
G1 X106.826 Y98.677 E.01635
;WIDTH:0.414294
G1 X107.013 Y98.134 E.01684
;WIDTH:0.417174
G1 X107.199 Y97.828 E.01058
G1 X107.53 Y97.462 E.01461
;WIDTH:0.414301
G1 X108.03 Y97.117 E.0178
G1 X108.573 Y96.93 E.01685
;WIDTH:0.411718
G1 X109.078 Y96.874 E.01481
G1 X109.617 Y96.949 E.01586
;WIDTH:0.414172
M73 P8 R0
G1 X110.103 Y97.131 E.01522
G1 X110.608 Y97.49 E.01816
;WIDTH:0.411331
G1 X110.967 Y97.922 E.01635
;WIDTH:0.414295
G1 X111.219 Y98.438 E.01685
;WIDTH:0.417173
G1 X111.308 Y98.815 E.01145
G1 X111.336 Y99.171 E.01058
;WIDTH:0.412097
G1 X111.333 Y99.19 E.00056
G1 E-.35 F2400
;WIPE_START
G1 F3600
G1 X111.261 Y99.721 E-.08035
G1 X111.098 Y100.156 E-.06965
;WIPE_END
G1 X107.206 Y98.666 Z.6 F30000
G1 Z.2
G1 E.5 F2400
;WIDTH:0.409076
G1 F1930
G1 X107.404 Y98.186 E.01502
;WIDTH:0.410815
G1 X107.736 Y97.769 E.01548
;WIDTH:0.414172
G1 X108.17 Y97.461 E.01562
G1 X108.64 Y97.291 E.01463
;WIDTH:0.411396
G1 X109.136 Y97.248 E.01451
;WIDTH:0.414287
G1 X109.63 Y97.334 E.01469
G1 X110.079 Y97.546 E.01459
;WIDTH:0.411382
G1 X110.462 Y97.866 E.01452
;WIDTH:0.414294
M73 P9 R0
G1 X110.75 Y98.276 E.01469
G1 X110.918 Y98.744 E.01458
;WIDTH:0.41139
G1 X110.961 Y99.241 E.01452
;WIDTH:0.414318
G1 X110.875 Y99.734 E.01469
G1 X110.664 Y100.184 E.01458
;WIDTH:0.411383
G1 X110.343 Y100.566 E.01452
;WIDTH:0.414312
G1 X109.934 Y100.854 E.01469
G1 X109.466 Y101.022 E.01459
;WIDTH:0.411397
G1 X108.969 Y101.066 E.01451
;WIDTH:0.414292
G1 X108.476 Y100.98 E.01469
G1 X108.026 Y100.768 E.01458
;WIDTH:0.411393
G1 X107.644 Y100.447 E.01452
G1 X107.441 Y100.184 E.00967
;WIDTH:0.414188
G1 X107.229 Y99.732 E.01462
G1 X107.141 Y99.207 E.01562
;WIDTH:0.410827
G1 X107.198 Y98.704 E.0147
G1 X107.555 Y99.141 F30000
;TYPE:Outer wall
;WIDTH:0.499999
G1 F1930
G1 X107.553 Y99.127 E.00053
G1 X107.613 Y98.738 E.01419
G1 X107.769 Y98.381 E.01408
G1 X108.013 Y98.075 E.01414
G1 X108.33 Y97.843 E.01419
G1 X108.693 Y97.701 E.01408
G1 X109.082 Y97.657 E.01413
G1 X109.471 Y97.717 E.0142
G1 X109.828 Y97.873 E.01408
G1 X110.134 Y98.118 E.01414
G1 X110.367 Y98.434 E.0142
G1 X110.509 Y98.798 E.01408
G1 X110.552 Y99.187 E.01414
G1 X110.493 Y99.575 E.01419
G1 X110.336 Y99.932 E.01407
G1 X110.092 Y100.238 E.01414
M73 P10 R0
G1 X109.775 Y100.471 E.01419
G1 X109.412 Y100.613 E.01408
G1 X109.023 Y100.656 E.01413
G1 X108.634 Y100.597 E.0142
G1 X108.277 Y100.441 E.01408
G1 X107.971 Y100.196 E.01414
G1 X107.769 Y99.932 E.012
G1 X107.596 Y99.516 E.01627
G1 X107.559 Y99.181 E.01217
G1 E-.35 F2400
;WIPE_START
G1 F3600
G1 X107.553 Y99.127 E-.00819
G1 X107.613 Y98.738 E-.05895
G1 X107.769 Y98.381 E-.0585
G1 X107.87 Y98.254 E-.02436
;WIPE_END
G1 X111.722 Y98.782 Z.6 F30000
G1 Z.2
G1 E.5 F2400
G1 F1930
G1 X111.739 Y99.311 E.01913
G1 X111.661 Y99.817 E.01848
G1 X111.475 Y100.338 E.01998
G1 X111.205 Y100.779 E.01867
G1 X110.843 Y101.166 E.01913
G1 X110.43 Y101.468 E.01848
G1 X109.93 Y101.705 E.01998
G1 X109.427 Y101.826 E.01867
M73 P11 R0
G1 X108.898 Y101.843 E.01912
G1 X108.392 Y101.765 E.01849
G1 X107.871 Y101.58 E.01997
G1 X107.43 Y101.309 E.01867
G1 X107.043 Y100.947 E.01913
G1 X106.741 Y100.534 E.01848
G1 X106.504 Y100.034 E.01997
G1 X106.383 Y99.532 E.01867
G1 X106.366 Y99.002 E.01913
G1 X106.444 Y98.496 E.01848
G1 X106.63 Y97.975 E.01997
G1 X106.9 Y97.534 E.01867
G1 X107.262 Y97.148 E.01913
G1 X107.675 Y96.845 E.01848
G1 X108.175 Y96.608 E.01998
G1 X108.679 Y96.488 E.01869
G1 X109.207 Y96.47 E.01909
G1 X109.713 Y96.549 E.01849
G1 X110.234 Y96.734 E.01997
G1 X110.675 Y97.004 E.01867
G1 X111.062 Y97.366 E.01913
G1 X111.364 Y97.78 E.01849
G1 X111.601 Y98.279 E.01997
G1 X111.713 Y98.743 E.01722
; stop printing object Washer 1.stl id:1 copy 0
;TIME_ELAPSED:5.449821

M106 S255
;LAYER_CHANGE
;Z:0.4
;HEIGHT:0.2
;BEFORE_LAYER_CHANGE
;0.4
G92 E0

G1 E-.35 F2400
;WIPE_START
G1 F3600
G1 X111.739 Y99.311 E-.08534
G1 X111.673 Y99.737 E-.06466
;WIPE_END
EXCLUDE_OBJECT_END NAME=Washer_1.stl_id_1_copy_0
;AFTER_LAYER_CHANGE
;0.4
;_SET_FAN_SPEED_CHANGING_LAYER
SET_VELOCITY_LIMIT ACCEL=12000 ACCEL_TO_DECEL=12000
M140 S50 ; set bed temperature
; printing object Washer 1.stl id:0 copy 0
EXCLUDE_OBJECT_START NAME=Washer_1.stl_id_0_copy_0
G17
G3 Z.6 I-1.214 J.079 P1  F30000
M73 P12 R0
G1 X112.361 Y110.292 Z.6
G1 Z.4
G1 E.5 F2400
SET_VELOCITY_LIMIT ACCEL=5000 ACCEL_TO_DECEL=5000
;TYPE:Inner wall
;WIDTH:0.642743
G1 F1713
G1 X112.321 Y110.587 E.01411
;WIDTH:0.644402
G1 X112.125 Y111.109 E.02648
G1 X111.795 Y111.582 E.02737
;WIDTH:0.647166
G1 X111.427 Y111.924 E.024
G1 X111.05 Y112.153 E.02105
;WIDTH:0.644311
G1 X110.488 Y112.343 E.02822
;WIDTH:0.642749
G1 X109.977 Y112.398 E.02435
G1 X109.413 Y112.321 E.02697
;WIDTH:0.644397
G1 X108.891 Y112.125 E.02648
G1 X108.418 Y111.795 E.02738
;WIDTH:0.647196
G1 X108.076 Y111.427 E.02399
G1 X107.847 Y111.05 E.02106
;WIDTH:0.644319
G1 X107.657 Y110.488 E.02821
;WIDTH:0.642746
G1 X107.602 Y109.976 E.02436
G1 X107.679 Y109.413 E.02696
;WIDTH:0.644379
G1 X107.875 Y108.891 E.02647
M73 P13 R0
G1 X108.205 Y108.418 E.02738
;WIDTH:0.647167
G1 X108.573 Y108.076 E.02399
G1 X108.95 Y107.847 E.02105
;WIDTH:0.644301
G1 X109.512 Y107.657 E.02822
;WIDTH:0.642748
G1 X110.023 Y107.603 E.02435
G1 X110.587 Y107.68 E.02697
;WIDTH:0.644383
G1 X111.109 Y107.875 E.02648
G1 X111.582 Y108.205 E.02738
;WIDTH:0.647171
G1 X111.924 Y108.573 E.02399
G1 X112.153 Y108.95 E.02105
;WIDTH:0.644294
G1 X112.343 Y109.512 E.02821
;WIDTH:0.642743
G1 X112.398 Y110.024 E.02436
G1 X112.366 Y110.253 E.01095
SET_VELOCITY_LIMIT ACCEL=12000 ACCEL_TO_DECEL=12000
G1 X112.856 Y109.605 F30000
SET_VELOCITY_LIMIT ACCEL=5000 ACCEL_TO_DECEL=5000
;TYPE:Outer wall
;WIDTH:0.419999
G1 F1713
G1 X112.874 Y110.189 E.01742
G1 X112.762 Y110.832 E.01945
G1 X112.574 Y111.312 E.01534
G1 X112.297 Y111.746 E.01534
G1 X111.899 Y112.166 E.01725
G1 X111.365 Y112.542 E.01944
G1 X110.893 Y112.748 E.01534
G1 X110.39 Y112.859 E.01535
G1 X109.811 Y112.874 E.01724
G1 X109.168 Y112.762 E.01946
G1 X108.688 Y112.574 E.01533
M73 P14 R0
G1 X108.254 Y112.297 E.01534
G1 X107.834 Y111.899 E.01726
G1 X107.458 Y111.365 E.01944
G1 X107.252 Y110.893 E.01534
G1 X107.141 Y110.39 E.01534
G1 X107.126 Y109.811 E.01725
G1 X107.238 Y109.168 E.01945
G1 X107.426 Y108.688 E.01534
G1 X107.703 Y108.254 E.01535
G1 X108.101 Y107.834 E.01725
G1 X108.635 Y107.458 E.01945
G1 X109.107 Y107.252 E.01534
G1 X109.61 Y107.141 E.01534
G1 X110.189 Y107.126 E.01724
G1 X110.832 Y107.238 E.01946
G1 X111.312 Y107.426 E.01534
G1 X111.746 Y107.703 E.01534
G1 X112.166 Y108.101 E.01725
G1 X112.471 Y108.52 E.01544
G1 X112.724 Y109.05 E.01748
G1 X112.854 Y109.548 E.01534
G1 X112.854 Y109.565 E.0005
SET_VELOCITY_LIMIT ACCEL=12000 ACCEL_TO_DECEL=12000
G1 E-.35 F2400
;WIPE_START
G1 F12000
G1 X112.874 Y110.189 E-.0937
G1 X112.81 Y110.559 E-.0563
;WIPE_END
G1 X108.369 Y109.286 Z.8 F30000
M73 P15 R0
G1 Z.4
G1 E.5 F2400
SET_VELOCITY_LIMIT ACCEL=5000 ACCEL_TO_DECEL=5000
;TYPE:Inner wall
;WIDTH:0.644404
G1 F1713
G1 X108.492 Y109.027 E.01361
;WIDTH:0.64237
G1 X108.795 Y108.67 E.02218
;WIDTH:0.644301
G1 X109.18 Y108.402 E.02227
G1 X109.622 Y108.246 E.02227
;WIDTH:0.642376
G1 X110.088 Y108.208 E.02217
;WIDTH:0.644288
G1 X110.55 Y108.29 E.02227
G1 X110.973 Y108.492 E.02226
;WIDTH:0.642366
G1 X111.33 Y108.795 E.02218
;WIDTH:0.644294
G1 X111.598 Y109.18 E.02227
G1 X111.754 Y109.621 E.02226
;WIDTH:0.64237
G1 X111.792 Y110.088 E.02218
;WIDTH:0.644319
G1 X111.71 Y110.55 E.02227
G1 X111.508 Y110.973 E.02225
;WIDTH:0.642386
G1 X111.205 Y111.33 E.02219
;WIDTH:0.644311
G1 X110.82 Y111.598 E.02227
G1 X110.378 Y111.755 E.02227
;WIDTH:0.642375
G1 X109.912 Y111.792 E.02217
;WIDTH:0.644293
G1 X109.45 Y111.71 E.02227
G1 X109.027 Y111.508 E.02226
;WIDTH:0.642372
G1 X108.67 Y111.205 E.02219
G1 X108.492 Y110.973 E.01387
;WIDTH:0.644404
