; HEADER_BLOCK_START
; generated by Creality_Print V5.1.6.10470 on 2024-12-10 at 16:55:46
; total layer number: 5
; filament_density: 1.24
; filament_diameter: 1.75
; max_z_height: 1.00
; HEADER_BLOCK_END

; MINX = 31.37
; MINY = 31.23
; MINZ = 0.00
; MAXX = 188.16
; MAXY = 189.15
; MAXZ = 1.00

; THUMBNAIL_BLOCK_START

;
; THUMBNAIL_BLOCK_END

; THUMBNAIL_BLOCK_START

;
; THUMBNAIL_BLOCK_END

; external perimeters extrusion width = 0.42mm
; perimeters extrusion width = 0.45mm
; infill extrusion width = 0.45mm
; solid infill extrusion width = 0.42mm
; top infill extrusion width = 0.42mm
; support material extrusion width = 0.42mm
; first layer extrusion width = 0.50mm

; EXECUTABLE_BLOCK_START
EXCLUDE_OBJECT_DEFINE NAME=Wing_Structure.stl_id_0_copy_0 CENTER=109.765,110.191 POLYGON=[[31.3716,188.214],[31.3897,187.952],[31.4753,187.704],[31.6226,187.486],[74.3219,138.499],[79.3007,132.811],[85.2196,126.123],[91.1826,119.477],[97.0034,113.085],[102.869,106.731],[108.775,100.408],[114.721,94.1114],[120.705,87.8402],[126.724,81.6132],[129.754,78.5177],[132.801,75.4384],[135.867,72.3791],[138.955,69.3439],[157.587,52.3408],[160.387,50.0166],[163.219,47.733],[166.084,45.492],[169.393,42.9895],[172.749,40.5459],[176.15,38.1624],[179.599,35.8398],[183.095,33.5785],[186.638,31.3787],[186.879,31.2728],[187.139,31.2333],[187.401,31.2632],[187.645,31.3602],[187.856,31.5177],[188.019,31.7248],[188.122,31.9671],[188.158,32.2278],[188.124,32.489],[187.265,35.6141],[186.348,38.7087],[185.374,41.7725],[184.343,44.8057],[183.255,47.8082],[182.11,50.78],[180.909,53.7211],[179.65,56.6316],[178.527,59.1018],[177.362,61.5495],[176.156,63.9746],[174.909,66.3771],[173.767,68.4937],[172.594,70.5925],[171.388,72.6733],[170.464,74.2222],[169.522,75.761],[168.546,77.3166],[167.553,78.8616],[166.542,80.3962],[165.513,81.9203],[164.468,83.434],[163.406,84.9372],[161.232,87.9122],[158.993,90.8451],[156.692,93.7361],[154.33,96.5851],[151.911,99.3921],[149.436,102.157],[147.068,104.712],[144.655,107.23],[142.2,109.711],[139.705,112.157],[137.456,114.301],[135.178,116.417],[132.873,118.505],[131.128,120.054],[129.369,121.587],[126.172,124.31],[122.936,126.985],[119.667,129.615],[116.367,132.202],[114.151,133.902],[111.924,135.585],[107.441,138.899],[103.427,141.793],[99.3908,144.641],[95.3362,147.45],[92.2854,149.534],[89.2277,151.601],[85.4608,154.123],[81.6875,156.628],[32.9333,188.977],[32.6989,189.095],[32.4417,189.149],[32.1796,189.133],[31.9306,189.05],[31.7118,188.904],[31.5385,188.707],[31.4224,188.472],[31.3716,188.214]]
M73 P0 R2
M106 S0
M106 P2 S0
;TYPE:Custom
M140 S0
M104 S0 
START_PRINT EXTRUDER_TEMP=230 BED_TEMP=50
M141 S35;set chamber_temperature
G90
G21
M83 ; use relative distances for extrusion
; filament start gcode
M106 S0
;LAYER_CHANGE
;Z:0.2
;HEIGHT:0.2
;BEFORE_LAYER_CHANGE
;0.2
G92 E0

G1 E-.5 F2400
;AFTER_LAYER_CHANGE
;0.2
;_SET_FAN_SPEED_CHANGING_LAYER
SET_VELOCITY_LIMIT ACCEL=1000 ACCEL_TO_DECEL=1000
SET_VELOCITY_LIMIT SQUARE_CORNER_VELOCITY=20
; printing object Wing Structure.stl id:0 copy 0
EXCLUDE_OBJECT_START NAME=Wing_Structure.stl_id_0_copy_0
G1 X32.435 Y187.861 F30000
G1 Z.4
G1 Z.2
G1 E.5 F2400
;TYPE:Inner wall
;WIDTH:0.499999
G1 F3600
G1 X41.87 Y177.18 E.51453
G1 X42.23 Y176.749 E.02029
;WIDTH:0.469937
G1 X42.393 Y176.546 E.0088
;WIDTH:0.444434
G1 X42.556 Y176.342 E.00828
;WIDTH:0.41893
G1 X42.93 Y175.915 E.01685
;WIDTH:0.413151
G1 X69.877 Y144.888 E1.20185
;WIDTH:0.433162
M73 P1 R2
G1 X70.062 Y144.701 E.0081
;WIDTH:0.466581
G1 X70.246 Y144.514 E.00879
;WIDTH:0.499999
G1 X70.431 Y144.327 E.00949
G1 X72.226 Y142.261 E.09883
G1 X72.592 Y141.811 E.02095
;WIDTH:0.4629
G1 X72.793 Y141.556 E.01078
;WIDTH:0.430751
G1 X72.994 Y141.3 E.00996
;WIDTH:0.414592
G1 X79.932 Y133.326 E.31033
;WIDTH:0.41827
G3 X87.4 Y124.91 I812.444 J713.327 E.33361
;WIDTH:0.419362
G3 X94.24 Y117.326 I697.988 J622.695 E.30369
;WIDTH:0.418552
G3 X100.468 Y110.529 I670.117 J607.773 E.27355
;WIDTH:0.418048
G3 X106.746 Y103.77 I754.101 J694.205 E.27335
;WIDTH:0.417511
G3 X113.229 Y96.875 I868.42 J809.976 E.28004
;WIDTH:0.455882
G1 X113.474 Y96.648 E.01092
;WIDTH:0.499999
G1 X113.72 Y96.42 E.01209
G1 X115.343 Y94.701 E.08536
G1 X115.729 Y94.266 E.02099
;WIDTH:0.458626
G1 X116.092 Y93.853 E.01808
;WIDTH:0.416506
G3 X122.445 Y87.21 I695.531 J658.817 E.27126
;WIDTH:0.415282
G3 X127.693 Y81.787 I575.544 J551.689 E.22196
;WIDTH:0.418797
G3 X132.991 Y76.403 I670.816 J654.846 E.22428
;WIDTH:0.415051
M73 P2 R2
G3 X135.664 Y73.731 I278.385 J275.745 E.11111
;WIDTH:0.41568
G3 X138.385 Y71.044 I238.354 J238.698 E.11259
;WIDTH:0.442966
G1 X138.856 Y70.603 E.02039
;WIDTH:0.485891
G1 X139.105 Y70.393 E.01141
;WIDTH:0.528815
G1 X139.354 Y70.183 E.01251
;WIDTH:0.571739
G1 X139.604 Y69.973 E.01362
G1 X139.854 Y69.946 E.0105
;WIDTH:0.536983
G1 X140.104 Y69.918 E.00981
;WIDTH:0.502227
G1 X140.416 Y69.901 E.01134
;WIDTH:0.46834
G1 X140.727 Y69.884 E.0105
;WIDTH:0.434453
G1 X141.277 Y69.874 E.01699
;WIDTH:0.414376
G1 X152.534 Y69.874 E.33031
;WIDTH:0.441644
G1 X152.907 Y69.843 E.01179
;WIDTH:0.468923
G1 X153.28 Y69.812 E.0126
;WIDTH:0.499999
G1 X153.784 Y69.69 E.01871
G2 X155.264 Y68.744 I-1.534 J-4.029 E.06386
G1 X156.985 Y67.023 E.08791
G1 X157.382 Y66.545 E.02243
G2 X157.914 Y65.462 I-3.15 J-2.222 E.04374
G1 X157.965 Y65.166 E.01085
;WIDTH:0.467478
G1 X158.015 Y64.87 E.01008
;WIDTH:0.434957
G1 X158.045 Y64.329 E.01677
;WIDTH:0.414377
G1 X158.045 Y54.934 E.27567
;WIDTH:0.44138
G1 X158.059 Y54.327 E.01911
;WIDTH:0.476833
G1 X158.077 Y54.028 E.01026
;WIDTH:0.512286
G1 X158.094 Y53.729 E.0111
;WIDTH:0.56051
G1 X158.131 Y53.403 E.01342
;WIDTH:0.608733
G1 X158.168 Y53.077 E.01467
G1 X158.305 Y52.921 E.00926
;WIDTH:0.594644
G1 X158.447 Y52.78 E.00871
;WIDTH:0.55949
G1 X158.589 Y52.639 E.00816
;WIDTH:0.524336
G1 X158.731 Y52.498 E.0076
;WIDTH:0.489181
G1 X158.947 Y52.299 E.01037
;WIDTH:0.459105
G1 X159.164 Y52.1 E.00968
;WIDTH:0.429028
G1 X159.557 Y51.762 E.01582
;WIDTH:0.418381
G3 X162.728 Y49.173 I123.203 J147.674 E.1214
;WIDTH:0.418057
G3 X165.939 Y46.638 I115.597 J143.096 E.12125
;WIDTH:0.417187
G3 X169.205 Y44.151 I102.291 J130.962 E.12136
;WIDTH:0.417368
G3 X172.496 Y41.735 I91.516 J121.225 E.12077
;WIDTH:0.417506
G3 X175.838 Y39.373 I87.913 J120.854 E.12108
;WIDTH:0.417632
G3 X179.225 Y37.071 I84.886 J121.242 E.12121
;WIDTH:0.41776
G3 X182.807 Y34.732 I85.938 J127.684 E.1267
;WIDTH:0.455349
G1 X183.18 Y34.517 E.01402
;WIDTH:0.499999
G2 X187.101 Y32.1 I-106.495 J-177.137 E.16629
G1 X187.252 Y32.136 E.00562
G1 X187.282 Y32.32 E.00673
G1 X186.441 Y35.379 E.11453
G2 X186.079 Y36.648 I26.999 J8.384 E.04765
;WIDTH:0.472902
G1 X186.002 Y36.962 E.011
;WIDTH:0.441737
G1 X185.925 Y37.277 E.0102
;WIDTH:0.416055
G3 X185.295 Y39.339 I-69.711 J-20.169 E.06357
;WIDTH:0.418734
G3 X184.205 Y42.69 I-112.917 J-34.898 E.10459
;WIDTH:0.419189
G3 X181.805 Y49.312 I-170.53 J-58.035 E.20937
;WIDTH:0.41884
G3 X180.499 Y52.574 I-108.678 J-41.616 E.10435
;WIDTH:0.418082
M73 P3 R2
G3 X179.123 Y55.803 I-107.449 J-43.911 E.10401
;WIDTH:0.416933
G3 X177.755 Y58.831 I-108.504 J-47.197 E.09817
;WIDTH:0.418561
G3 X176.153 Y62.155 I-129.007 J-60.11 E.10951
;WIDTH:0.419259
G3 X174.566 Y65.274 I-121.737 J-59.982 E.10404
;WIDTH:0.417864
G3 X173.007 Y68.186 I-120.966 J-62.865 E.09782
;WIDTH:0.419008
G3 X171.184 Y71.404 I-143.457 J-79.166 E.10988
;WIDTH:0.418231
G3 X169.765 Y73.801 I-122.829 J-71.068 E.08257
;WIDTH:0.438178
G1 X169.148 Y74.79 E.0364
;WIDTH:0.469089
G1 X168.971 Y75.049 E.01055
;WIDTH:0.499999
G1 X168.795 Y75.308 E.01132
G3 X165.23 Y80.809 I-192.043 J-120.567 E.23668
G1 X164.825 Y81.451 E.02743
;WIDTH:0.452088
G1 X164.549 Y81.884 E.01658
;WIDTH:0.416314
G3 X163.219 Y83.792 I-118.883 J-81.506 E.0686
;WIDTH:0.417114
G3 X161.37 Y86.346 I-107.659 J-75.966 E.09322
;WIDTH:0.417701
G3 X157.537 Y91.37 I-171.637 J-126.987 E.18708
;WIDTH:0.416891
G3 X155.545 Y93.845 I-83.975 J-65.523 E.09385
;WIDTH:0.415345
G3 X150.928 Y99.271 I-180.164 J-148.649 E.2096
;WIDTH:0.41749
G3 X148.279 Y102.21 I-112.63 J-98.865 E.11707
;WIDTH:0.418465
G3 X145.576 Y105.094 I-118.3 J-108.148 E.11725
;WIDTH:0.417588
G3 X143.15 Y107.596 I-105.562 J-99.946 E.10315
;WIDTH:0.417467
G3 X135.68 Y114.841 I-186.154 J-184.463 E.30792
;WIDTH:0.415581
G3 X133.995 Y116.391 I-84.444 J-90.079 E.06738
;WIDTH:0.414435
G1 X132.325 Y117.903 E.06613
;WIDTH:0.414551
G3 X128.837 Y120.971 I-177.693 J-198.516 E.13636
;WIDTH:0.437138
G1 X128.437 Y121.297 E.01608
;WIDTH:0.468569
G1 X128.216 Y121.464 E.0093
;WIDTH:0.499999
G1 X127.996 Y121.631 E.00998
G2 X125.987 Y123.361 I29.89 J36.736 E.09574
;WIDTH:0.47008
G1 X125.762 Y123.57 E.01033
;WIDTH:0.441965
G1 X125.538 Y123.778 E.00965
;WIDTH:0.416809
G3 X121.851 Y126.815 I-151.321 J-179.948 E.14109
;WIDTH:0.412379
G1 X119.884 Y128.397 E.07365
;WIDTH:0.415482
G3 X117.9 Y129.968 I-83.17 J-103.053 E.07449
;WIDTH:0.418855
M73 P4 R2
G3 X113.759 Y133.177 I-216.588 J-275.134 E.15557
;WIDTH:0.41821
G3 X109.9 Y136.072 I-185.03 J-242.683 E.14302
;WIDTH:0.417257
G3 X105.856 Y139.04 I-166.007 J-221.932 E.14834
;WIDTH:0.413074
G1 X103.411 Y140.802 E.08811
;WIDTH:0.415063
G3 X100.947 Y142.548 I-117.393 J-162.993 E.08878
;WIDTH:0.415686
G3 X97.953 Y144.648 I-162.297 J-228.25 E.10768
;WIDTH:0.4142
G1 X94.885 Y146.772 E.10945
;WIDTH:0.4571
G1 X94.55 Y146.974 E.01278
;WIDTH:0.499999
G1 X94.215 Y147.175 E.01411
G1 X90.886 Y149.438 E.14535
G1 X90.414 Y149.777 E.02097
;WIDTH:0.469118
G1 X90.155 Y149.971 E.0109
;WIDTH:0.440459
G1 X89.895 Y150.164 E.01017
;WIDTH:0.416106
G3 X84.651 Y153.676 I-267.646 J-393.999 E.18606
;WIDTH:0.420239
G1 X81.236 Y155.947 E.12223
G1 X51.141 Y175.757 E1.07388
;WIDTH:0.422823
G1 X45.339 Y179.628 E.20933
;WIDTH:0.461411
G1 X45.014 Y179.823 E.01252
;WIDTH:0.499999
G1 X44.689 Y180.017 E.01367
G2 X32.448 Y188.271 I626.591 J942.557 E.53305
M73 P5 R2
G1 X32.31 Y188.273 E.00497
G1 X32.234 Y188.16 E.00492
G1 X32.301 Y188.013 E.00582
G1 X32.409 Y187.891 E.00587
G1 E-.35 F2400
;WIPE_START
G1 F3600
G1 X33.071 Y187.141 E-.15
;WIPE_END
G1 X38.923 Y182.241 Z.6 F30000
G1 X166.952 Y75.029 Z.6
G1 Z.2
G1 E.5 F2400
G1 F3600
G1 X166.624 Y74.899 E.01274
G1 X166.223 Y74.597 E.01811
G3 X165.44 Y73.784 I6.754 J-7.286 E.04077
;WIDTH:0.457191
G1 X165.19 Y73.503 E.01233
;WIDTH:0.414382
G1 X160.28 Y68.594 E.20372
;WIDTH:0.457191
G1 X159.89 Y68.233 E.01739
;WIDTH:0.499999
G3 X158.581 Y66.393 I2.664 J-3.28 E.08254
G1 X158.431 Y65.807 E.02184
G1 X158.386 Y65.21 E.02161
;WIDTH:0.479368
G1 X158.402 Y64.793 E.01438
;WIDTH:0.446868
G1 X158.417 Y64.376 E.01331
;WIDTH:0.414377
G1 X158.417 Y54.97 E.27602
;WIDTH:0.432249
G1 X158.443 Y54.466 E.01552
;WIDTH:0.462371
G1 X158.486 Y54.189 E.00928
;WIDTH:0.492492
G1 X158.529 Y53.912 E.00994
;WIDTH:0.527704
G1 X158.577 Y53.73 E.00723
;WIDTH:0.562916
G1 X158.626 Y53.547 E.00776
;WIDTH:0.598127
G1 X158.674 Y53.364 E.00828
G1 X158.83 Y53.125 E.01255
;WIDTH:0.553501
G1 X158.986 Y52.885 E.01154
;WIDTH:0.508874
G1 X159.17 Y52.67 E.0104
;WIDTH:0.473494
G1 X159.354 Y52.455 E.00961
;WIDTH:0.438114
G1 X159.772 Y52.061 E.01795
;WIDTH:0.418381
G3 X162.963 Y49.457 I368.119 J447.685 E.12214
;WIDTH:0.418057
G3 X166.169 Y46.926 I341.246 J429.034 E.12104
;WIDTH:0.417187
M73 P6 R2
G3 X169.416 Y44.453 I299.364 J389.696 E.12067
;WIDTH:0.417368
G3 X172.71 Y42.035 I265.53 J358.217 E.12086
;WIDTH:0.417506
G3 X176.046 Y39.677 I256.316 J359.11 E.12088
;WIDTH:0.417632
G3 X179.427 Y37.379 I247.468 J360.402 E.121
;WIDTH:0.41776
G3 X182.862 Y35.135 I240.794 J364.834 E.12149
;WIDTH:0.442191
G1 X183.119 Y35.008 E.00905
;WIDTH:0.473685
G1 X183.376 Y34.881 E.00976
;WIDTH:0.499999
G1 X183.87 Y34.811 E.01802
G1 X184.363 Y34.889 E.01802
G1 X184.818 Y35.095 E.01804
G1 X185.202 Y35.415 E.01804
G1 X185.486 Y35.825 E.01802
G1 X185.65 Y36.297 E.01804
G1 X185.65 Y36.544 E.0089
;WIDTH:0.467243
G1 X185.65 Y36.79 E.00826
;WIDTH:0.434486
G1 X185.571 Y37.178 E.01224
;WIDTH:0.416055
G3 X184.945 Y39.223 I-206.07 J-61.892 E.06305
;WIDTH:0.418734
G3 X183.856 Y42.571 I-337.134 J-107.806 E.10451
;WIDTH:0.419138
G3 X181.462 Y49.181 I-180.582 J-61.684 E.20893
;WIDTH:0.41884
G3 X180.16 Y52.432 I-322.833 J-127.421 E.10399
;WIDTH:0.418082
G3 X178.786 Y55.651 I-315.154 J-132.584 E.10373
;WIDTH:0.416933
G3 X177.363 Y58.792 I-325.014 J-145.375 E.10189
;WIDTH:0.418561
G3 X175.823 Y61.99 I-371.387 J-176.824 E.10532
;WIDTH:0.419259
G3 X174.239 Y65.102 I-361.983 J-182.281 E.1038
;WIDTH:0.417864
G3 X172.612 Y68.133 I-369.591 J-196.412 E.1019
;WIDTH:0.419008
G3 X170.864 Y71.219 I-409.089 J-229.712 E.10537
;WIDTH:0.418231
G3 X169.445 Y73.607 I-362.085 J-213.577 E.08237
;WIDTH:0.417468
G1 X169.075 Y74.224 E.02127
;WIDTH:0.435248
G1 X168.849 Y74.532 E.01184
;WIDTH:0.467624
G1 X168.677 Y74.693 E.00792
;WIDTH:0.499999
G1 X168.504 Y74.854 E.00852
G1 X168.069 Y75.051 E.01725
G1 X167.597 Y75.13 E.01725
G1 X167.075 Y75.078 E.01896
G1 X166.989 Y75.044 E.00334
G1 X167.485 Y74.664 F30000
;TYPE:Outer wall
G1 F3600
G3 X166.546 Y74.274 I.053 J-1.451 E.03749
G1 X159.822 Y67.55 E.34335
G3 X158.832 Y65.175 I2.542 J-2.454 E.09509
G1 X158.831 Y54.97 E.36848
G3 X160.057 Y52.362 I3.403 J.008 E.10744
M73 P7 R2
G3 X183.086 Y35.481 I150.158 J180.7 E1.03156
G1 X183.449 Y35.319 E.01436
G1 X183.822 Y35.266 E.01361
G1 X184.196 Y35.314 E.0136
G1 X184.543 Y35.46 E.01361
G1 X184.839 Y35.693 E.01361
G1 X185.062 Y35.997 E.0136
G1 X185.196 Y36.349 E.01361
G1 X185.231 Y36.725 E.01361
G1 X185.177 Y37.057 E.01217
G3 X168.72 Y74.012 I-150.825 J-45.024 E1.46468
G1 X168.518 Y74.266 E.01169
G1 X168.181 Y74.515 E.01512
G3 X167.525 Y74.665 I-.644 J-1.301 E.02454
G1 E-.35 F2400
;WIPE_START
G1 F3600
G1 X167.128 Y74.618 E-.05986
G1 X166.799 Y74.471 E-.05408
G1 X166.61 Y74.323 E-.03606
;WIPE_END
G1 X161.755 Y76.574 Z.6 F30000
G1 Z.2
G1 E.5 F2400
;TYPE:Inner wall
;WIDTH:0.414379
G1 F3600
G1 X157.027 Y71.846 E.19619
;WIDTH:0.457189
G1 X156.933 Y71.5 E.01174
;WIDTH:0.499999
M73 P8 R2
G1 X156.839 Y71.154 E.01296
G1 X156.997 Y70.907 E.01058
G1 X158.885 Y69.019 E.09642
G1 X159.275 Y68.689 E.01845
G1 X159.325 Y68.668 E.00194
G1 X159.671 Y68.762 E.01296
;WIDTH:0.457191
G1 X160.018 Y68.856 E.01174
;WIDTH:0.414382
G1 X164.927 Y73.766 E.20372
;WIDTH:0.457191
G1 X165.042 Y74.016 E.00901
;WIDTH:0.499999
G1 X165.156 Y74.266 E.00994
G1 X164.957 Y74.705 E.01741
G1 X162.876 Y76.786 E.10626
G1 X162.488 Y76.98 E.01566
G1 X162.248 Y76.903 E.00913
;WIDTH:0.457189
G1 X162.007 Y76.826 E.00827
;WIDTH:0.414379
G1 X161.784 Y76.603 E.00926
G1 E-.35 F2400
;WIPE_START
G1 F3600
G1 X161.077 Y75.896 E-.15
;WIPE_END
G1 X164.585 Y80.718 Z.6 F30000
G1 Z.2
G1 E.5 F2400
;WIDTH:0.499999
G1 F3600
G1 X164.59 Y80.836 E.00426
G1 X164.474 Y81.266 E.01608
;WIDTH:0.452088
G1 X164.243 Y81.676 E.0152
;WIDTH:0.416314
G3 X162.914 Y83.582 I-353.367 J-245.034 E.06855
;WIDTH:0.417114
G3 X161.07 Y86.136 I-319.184 J-228.561 E.0931
;WIDTH:0.417785
G3 X157.245 Y91.147 I-169.398 J-125.309 E.1867
;WIDTH:0.416891
G3 X155.266 Y93.605 I-249.255 J-198.653 E.09322
;WIDTH:0.413118
G3 X151.96 Y97.529 I-133.373 J-109.035 E.15003
;WIDTH:0.415345
G3 X150.657 Y99.021 I-159.663 J-138.16 E.05828
;WIDTH:0.41749
G3 X148.011 Y101.957 I-335.839 J-299.991 E.11694
;WIDTH:0.418465
G3 X145.305 Y104.844 I-352.413 J-327.416 E.11739
;WIDTH:0.417588
G3 X142.892 Y107.333 I-312.118 J-300.296 E.10261
;WIDTH:0.417482
G3 X140.439 Y109.784 I-317.688 J-315.495 E.1026
;WIDTH:0.41737
G3 X135.425 Y114.574 I-246.217 J-252.715 E.20512
;WIDTH:0.415581
G3 X133.747 Y116.117 I-248.393 J-268.392 E.06708
;WIDTH:0.414315
G3 X130.313 Y119.192 I-167.26 J-183.367 E.13524
;WIDTH:0.414551
G1 X128.594 Y120.689 E.06692
;WIDTH:0.444445
G1 X128.321 Y120.882 E.01062
;WIDTH:0.474338
G1 X128.047 Y121.075 E.01142
;WIDTH:0.499999
G1 X127.565 Y121.214 E.01811
G1 X127.063 Y121.206 E.01813
G1 X126.581 Y121.063 E.01813
G1 X126.156 Y120.797 E.01813
G1 X126 Y120.604 E.00896
;WIDTH:0.469501
G1 X125.844 Y120.411 E.00836
;WIDTH:0.439002
G1 X125.665 Y120.061 E.0123
;WIDTH:0.41438
G1 X116.677 Y97.72 E.70661
;WIDTH:0.442391
M73 P9 R2
G1 X116.552 Y97.446 E.00949
;WIDTH:0.470402
G1 X116.426 Y97.173 E.01016
;WIDTH:0.499999
G3 X115.953 Y96.036 I20.221 J-9.086 E.04445
G1 X115.836 Y95.559 E.01773
